JNU-Tangyin/eata/results/Batch4_SP500/Batch4_SP500-BK.csv
Date,Action,Predicted_Q25,Predicted_Q75,Actual_Q25,Actual_Q75,RL_Reward
2010-12-14,0,0.0,0.0027874370159918947,-0.0033817841002013174,0.009744879212026191,0.9910169218042658
2010-12-16,1,0.002537370694293604,0.002720786878940794,-0.0033817841002013174,0.013450926882330294,0.9889827667756326
2010-12-20,1,0.0020081018752016178,0.002110703593865235,-0.006353932714336604,0.013450926882330294,0.9877101769381811
2010-12-22,0,0.0,0.0,-0.006353932714336604,0.008511305221961368,0.9890248651687056
2010-12-27,0,0.0,0.0,-0.006353932714336604,0.006102945668095563,0.989583437050426
2010-12-29,1,0.004385635388783438,0.004924731424899806,-0.006353932714336604,0.006102945668095563,0.9883353808383981
2010-12-31,1,0.003934202282320095,0.0043812971370639055,-0.008342368652792807,0.010421323744359483,0.9873597734969901
2011-01-04,1,0.0036670592531148176,0.004029071922371235,-0.008342368652792807,0.010421323744359483,0.9869580807646052
2011-01-06,1,0.004088224304952781,0.0044887533663237516,-0.011093002146569856,0.006102945668095563,0.9871915975448337
2011-01-10,1,0.0031257641763325125,0.003416224602016646,-0.009980135845798804,0.011313466221978253,0.9874739723247772
2011-01-12,1,0.003511059102102496,0.003805021131612075,-0.011093002146569856,0.010414409300846042,0.9878515339161902
2011-01-14,1,0.00393087914091609,0.0042355431799397485,-0.011093002146569856,0.010414409300846042,0.988029504790822
2011-01-19,1,0.002278338422241881,0.0023429664925525935,-0.010260704082266123,0.010414409300846042,0.9882224800318636
2011-01-21,1,0.0025256060824485685,0.002614531935919864,-0.010260704082266123,0.011313466221978253,0.987827969669816
2011-01-25,1,0.0025858160150992703,0.0027441040387998603,-0.014925913926406438,0.011313466221978253,0.9862406016449066
2011-01-27,1,0.0030970475665337087,0.0033890294202428293,-0.014925913926406438,0.011969613756236527,0.985311453531155
2011-01-31,1,0.0020076959103085463,0.00210632372892856,-0.012606458446645378,0.011948870425696199,0.9861839293815505
2011-02-02,1,0.0020251295935673408,0.0021063261212338536,-0.012606458446645378,0.011948870425696199,0.9863375986307169
2011-02-04,1,0.0007219428192503465,0.0008122975155927695,-0.010376219192655505,0.011948870425696199,0.9864118448664921
2011-02-08,1,0.0019135086903114282,0.0019550013074748655,-0.015237848762163247,0.008058341585233606,0.9857897627969726
2011-02-10,1,0.0018511679194423848,0.0019107690057356798,-0.015483982127066791,0.008058341585233606,0.9843624900000987
2011-02-14,1,0.001445225418047065,0.0014923221954492244,-0.015483982127066791,0.005434679273503019,0.9848341219062314
2011-02-16,1,0.0010089359309887762,0.0010676846869319607,-0.015483982127066791,0.007831164396990598,0.984861495036075
2011-02-18,1,0.001075921715293238,0.001158084291528916,-0.015483982127066791,0.005549625788682969,0.9852886523481356
2011-02-23,-1,-0.0009487461295035746,-0.0006425121496958201,-0.008015449526960042,0.005549625788682969,0.9875970515660527
2011-02-25,-1,-0.0006040151637224896,-0.00033676327085407323,-0.007635060140655616,0.00651488503411414,0.9879962567670574
2011-03-01,-1,-0.000901907230857972,-0.0006437685611605685,-0.006149076431194047,0.00651488503411414,0.9884004348544035
2011-03-03,-1,-0.00027965643621542466,-6.734511122863027e-05,-0.006149076431194047,0.006619434872808301,0.9890243342696701
2011-03-07,-1,-0.0018472074050707422,-0.0014495353942827979,-0.004104484167160758,0.0070363366233848375,0.9893245166894487
2011-03-09,-1,-0.001689762661573056,-0.001269801538269966,-0.0036574926902658194,0.006619434872808301,0.9911918196380668
2011-03-11,-1,-0.002777910843547807,-0.0022795534647683255,-0.0036574926902658194,0.006619434872808301,0.992689965369962
2011-03-15,-1,-0.004274549355687122,-0.003509514693740311,-0.0036574926902658194,0.006619434872808301,0.9922080810773325
2011-03-17,-1,-0.004581295100022532,-0.0037598563480371184,-0.0036574926902658194,0.00651488503411414,0.9932093468323285
2011-03-21,-1,-0.004534415031216325,-0.0037027699767301406,-0.004104484167160758,0.005673375080882941,0.9934461299663999
2011-03-23,-1,-0.004471331442423751,-0.0036296267736819527,-0.005313107792772297,0.006545633216915068,0.992089985050122
2011-03-25,-1,-0.004499459598193776,-0.0036722776079125955,-0.005313107792772297,0.004818763765173384,0.9930922367901384
2011-03-29,-1,-0.0037556326105096234,-0.0030404358985188736,-0.005172115993775377,0.006640610470816439,0.9922136921988798
2011-03-31,-1,-0.0007701709345192955,-0.0006401100293032325,-0.006122766985186608,0.005705034165516731,0.9920056322402484
2011-04-04,-1,-0.0011196985506204326,-0.0008887669301997433,-0.006122766985186608,0.00473426742042149,0.9925919643332346
2011-04-06,-1,-0.0013925019005096902,-0.001129248128244548,-0.00667012233624412,0.00473426742042149,0.9922720641639328
2011-04-08,-1,-0.0015079433250461923,-0.0012279598720798068,-0.006663131468261811,0.00473426742042149,0.9926847410097371
2011-04-12,-1,-0.0022240436418392876,-0.0018316212281290828,-0.007899995773503055,0.005705034165516731,0.991714793028986
2011-04-14,-1,-0.0021516853204563346,-0.001790128692961524,-0.007899995773503055,0.005624684340632749,0.9915153941827604
2011-04-18,-1,-0.003363005866164357,-0.0028050427560922858,-0.006663131468261811,0.006640610470816439,0.9914305803009784
2011-04-20,-1,-0.0038562893033916657,-0.0032496617391144407,-0.005525990218279809,0.007502755694755301,0.9922562930838609
2011-04-25,-1,-0.0043367354450451435,-0.003661560161603305,-0.007899995773503055,0.007502755694755301,0.9911510559210156
2011-04-27,-1,-0.0029100802735624867,-0.002454666321696735,-0.010924414081841605,0.004707484145460163,0.9920607790322893
2011-04-29,-1,-0.00267143830219441,-0.0022526212386464266,-0.008094071589797113,0.004707484145460163,0.9923881941448054
2011-05-03,-1,-0.0020654057975192023,-0.0017734997829863377,-0.0119999799145925,0.0062448534584149595,0.9904480356691777
2011-05-05,-1,-0.002546100837304584,-0.0022056455924125214,-0.013795500684241183,0.007804165396942506,0.989720194229347
2011-05-09,-1,-0.00232799542150346,-0.002025274388450564,-0.013795500684241183,0.007804165396942506,0.9895021092438309
2011-05-11,-1,-0.0024290259527020427,-0.002133572860713805,-0.012692030777536095,0.007804165396942506,0.9896238732757606
2011-05-13,-1,-0.002717666690451607,-0.002390220555306221,-0.011750451912728083,0.009403855364551269,0.9893330188928536
2011-05-17,-1,-0.0011820533625899405,-0.001102700459720706,-0.012692030777536095,0.009263739816026965,0.9879015679916184
2011-05-19,-1,-0.0010907484715621174,-0.0010133554629230385,-0.012692030777536095,0.008328219006553405,0.9880421018800782
2011-05-23,-1,-0.001979990398706383,-0.0017905999559820881,-0.011511017117731481,0.009263739816026965,0.9887473602814328
2011-05-25,-1,-0.00246702084693832,-0.002222920876320493,-0.011750451912728083,0.009263739816026965,0.9878251209732237
2011-05-27,-1,-0.0018888902416903562,-0.0017430411630611328,-0.013255441326538527,0.008491121318064562,0.9870378203149641
2011-06-01,-1,-0.002740914997188678,-0.0025185753801600257,-0.011750451912728083,0.008491121318064562,0.9872144472768921
2011-06-03,-1,-0.003066108939948369,-0.002765673683775556,-0.011070014151443893,0.009808581361942976,0.9869131328633263
2011-06-07,-1,-0.0026633209197271866,-0.0024655497339721947,-0.01129632218541739,0.009808581361942976,0.986237202433255
2011-06-09,-1,-0.0019087570613766478,-0.001833825754598456,-0.01164253449776179,0.009808581361942976,0.9855660428750628
2011-06-13,-1,-0.0018155819771441901,-0.001683190458810637,-0.015949908870656036,0.009733831315414727,0.9854259866804449
2011-06-15,-1,-0.0022588128272710583,-0.002105641792161898,-0.011432245028299811,0.008484916173015992,0.987243430660384
2011-06-17,-1,-0.0019016291361087525,-0.0017900056647863509,-0.01494235206385819,0.007738519201703136,0.9868607817885705
2011-06-21,-1,-0.0015594986053633559,-0.0014825506265130457,-0.01494235206385819,0.007429550343184627,0.9868491457097475
2011-06-23,-1,-0.0026117068707905457,-0.0024035014716683664,-0.008625972510472335,0.008800719594810626,0.9861898814245708
2011-06-27,-1,-0.0031871348750418076,-0.002935351674130537,-0.004913178356046799,0.008800719594810626,0.9874080567516832
2011-06-29,-1,-0.0016613898137497268,-0.0015493270332470478,-0.006642595940564743,0.007429550343184627,0.9885774031095074
2011-07-01,-1,-0.0003135072009438617,-0.0001833822306065608,-0.007020706555661265,0.0040342651028785785,0.9896563900940546
2011-07-06,0,0.0,0.0,-0.008148833355493289,0.0040342651028785785,0.9879562317783814
2011-07-08,0,0.0,0.0,-0.019676581093187102,0.003601327456693755,0.9861235286673533
2011-07-12,0,0.0,0.0,-0.019676581093187102,0.0040342651028785785,0.9815658701620502
2011-07-14,0,0.0,0.0,-0.02722664715961014,0.006007374699736617,0.975488274363895
2011-07-18,-1,-0.0031903907428796154,-0.0029541797613707233,-0.028447183027936647,0.010912395773168257,0.973083143023154
2011-07-20,-1,-0.002077953588037503,-0.0019986503866840596,-0.028447183027936647,0.008428019736612759,0.9737086569698284
2011-07-22,0,0.0,0.0,-0.03809799413992832,0.003982988873806935,0.9710778293981325
2011-07-26,0,0.0,0.0,-0.03809799413992832,0.008428019736612759,0.9695365853258251
2011-07-28,0,0.0,0.0,-0.03809799413992832,0.0201937151480052,0.9681094555058868
2011-08-01,0,0.0,0.0,-0.03809799413992832,0.027729494168293872,0.9665744338115136
2011-08-03,0,0.0,0.0,-0.033192869815534105,0.027729494168293872,0.9688377456408267
2011-08-05,0,0.0,0.0,-0.026935403736320127,0.027729494168293872,0.9708147464816644
2011-08-09,-1,-0.009029962834679734,-0.008139476349479093,-0.022127852983687253,0.03219484250322137,0.9725486468804216
2011-08-11,-1,-0.0060392571467299955,-0.005542137160888233,-0.022127852983687253,0.014780423155031863,0.9780369641397556
2011-08-15,-1,-0.006269102737248687,-0.005758199076765437,-0.017056758974795447,0.01274583035804743,0.9795146369820816
2011-08-17,-1,-0.006300613308938251,-0.005813086195539769,-0.017056758974795447,0.02043600044886406,0.977572314892398
2011-08-19,-1,-0.00852248702961506,-0.007789798507746316,-0.011017246663283433,0.02043600044886406,0.9791806165304738
2011-08-23,-1,-0.0065465640727625785,-0.006092039304485385,-0.017056758974795447,0.016906841866630197,0.9792461894094159
2011-08-25,-1,-0.006556162191130385,-0.006131967283828303,-0.022065645254487298,0.010772110560751376,0.9811745072151895
2011-08-29,-1,-0.005409635631500106,-0.0051035973040651425,-0.022065645254487298,0.01537132377631863,0.9811642193519248
2011-08-31,-1,-0.0056004878285485105,-0.005265498935981496,-0.023401254552616976,0.016906841866630197,0.9789588959325642
2011-09-02,-1,-0.005256921750583362,-0.004985057272485239,-0.026188531122589287,0.016906841866630197,0.9767361216196465
2011-09-07,-1,-0.0036768230967258618,-0.0036198053725516265,-0.02887964396474748,0.016906841866630197,0.9760702252198019
2011-09-09,-1,-0.005312005852732898,-0.005043768600575971,-0.028029268450991136,0.016906841866630197,0.9762003147261902
2011-09-13,-1,-0.004294767133314459,-0.004103097647058448,-0.028029268450991136,0.016906841866630197,0.9746005545091003
2011-09-15,-1,-0.0046106310253135425,-0.0043876640637890004,-0.028029268450991136,0.01702687799712647,0.9744378193000475
2011-09-19,-1,-0.005355668010416689,-0.005084187005299355,-0.028029268450991136,0.01702687799712647,0.9742060525542173
2011-09-21,-1,-0.007461605803709496,-0.006974202064075834,-0.02596391030801943,0.02331352100443627,0.9726247386427512
2011-09-23,-1,-0.006883589130457563,-0.006465215935466366,-0.02596391030801943,0.025919472158528512,0.9701252098785408
2011-09-27,-1,-0.006136375573977704,-0.005833564086975552,-0.02596391030801943,0.027459257674081403,0.9702316691154552
2011-09-29,-1,-0.0037553568953664603,-0.003726843210056113,-0.02596391030801943,0.02886197081855132,0.9686723159826793
2011-10-03,-1,-0.007611210477619151,-0.00713313460049092,-0.02468162111117674,0.02886197081855132,0.9691780290139058
2011-10-05,-1,-0.005638898682506411,-0.005387406254641531,-0.02468162111117674,0.02886197081855132,0.969874902989928
2011-10-07,-1,-0.005864914386002729,-0.00563398408755059,-0.01806977321298544,0.02886197081855132,0.9696127318527182
2011-10-11,-1,-0.002293772159671922,-0.002035675091456253,-0.01806977321298544,0.028168481130429367,0.9713669349086804
2011-10-13,-1,-0.002662479502266766,-0.002517045269415139,-0.01806977321298544,0.028168481130429367,0.9689881308825272
2011-10-17,-1,-0.0036271839163084375,-0.0036237952978123208,-0.01806977321298544,0.032208074310926545,0.9665621851504504
2011-10-19,0,-0.00014989693727873623,0.0003537950087518218,-0.027540008946114615,0.028168481130429367,0.9698663922411251
2011-10-21,0,0.0,0.0,-0.0359268024590364,0.022280523106149534,0.9706354502812207
2011-10-25,0,0.0,0.0,-0.0359268024590364,0.019505893642964983,0.9707942089915984
2011-10-27,1,0.0023833041950310037,0.0029310609956134295,-0.0359268024590364,0.014425293867541447,0.9729845906959539
2011-10-31,0,0.0,0.0,-0.028730668578119865,0.019505893642964983,0.9750412812798278
2011-11-02,0,0.0,0.0,-0.022893394652581465,0.019505893642964983,0.9745708655861256
2011-11-04,1,0.00385946270950425,0.004657225076023553,-0.022893394652581465,0.021025710499290043,0.9740324690008961
2011-11-08,1,0.005738121139734078,0.0068066163302955085,-0.022893394652581465,0.012633168733214135,0.9750982850107073
2011-11-10,1,0.004220147774027401,0.005098196989126711,-0.022893394652581465,0.012969219524184011,0.9763412997645035
2011-11-14,1,0.003584811194983979,0.004309680595154247,-0.022893394652581465,0.0077660016945483214,0.9778330301657864
2011-11-16,1,0.0014791995318092725,0.0018624083316479603,-0.019303441710259436,0.01069002953411666,0.9797489803076302
2011-11-18,1,0.0010309246927513451,0.001436280154868771,-0.019303441710259436,0.013672964661017965,0.9796340470516965
2011-11-22,0,-3.4736391240332396e-05,0.0002992907226705545,-0.013101850313565061,0.01746387814926071,0.9793996996376658
2011-11-25,0,0.0,0.0,-0.009156390617791074,0.02200464175218902,0.9787914796483074
2011-11-29,-1,-0.00029744129773239566,-2.639403422800249e-05,-0.01646077594917471,0.017454137775923827,0.9787956628923014
2011-12-01,1,0.001049806443219052,0.0014632762436885818,-0.009924374586670866,0.017454137775923827,0.9819746896086776
2011-12-05,1,0.002192854141564718,0.002760552774542713,-0.009924374586670866,0.017454137775923827,0.9823567848638455
2011-12-07,1,0.002373003184988425,0.0029425897085040486,-0.014788652872048183,0.017454137775923827,0.9815361637323509
2011-12-09,1,0.002174426849979806,0.002745158355192192,-0.009593516271757472,0.020342914177159263,0.9834904216504919
2011-12-13,1,0.0016067857294244886,0.0021628040511676018,-0.005472101911134372,0.020342914177159263,0.984951602377869
2011-12-15,1,0.001937859131456824,0.002540113666744414,-0.008076973212584281,0.020342914177159263,0.9847398850789298
2011-12-19,1,0.0015390074134747538,0.0020631970037943252,-0.008076973212584281,0.021268837146117478,0.9830683419114646
2011-12-21,1,0.0030608729797954454,0.0037925560247069664,-0.008076973212584281,0.020342914177159263,0.9847742334591136
2011-12-23,1,0.0035889811579511576,0.004360561154167685,-0.014299172766638956,0.018299929069644942,0.983048636749486
2011-12-28,1,0.0019260898609171108,0.0023565271965567645,-0.014299172766638956,0.018299929069644942,0.9822644132501006
2011-12-30,1,0.0014284235408304462,0.0016818533715301097,-0.014299172766638956,0.017111654577528855,0.9828914408587534
2012-01-04,1,0.001879479812072702,0.0021500002898921385,-0.014299172766638956,0.018299929069644942,0.9818625799977424
2012-01-06,1,0.0019590331963774683,0.0022700303046588556,-0.011347008071371546,0.020178134881385538,0.9815470256210382
2012-01-10,1,0.0029367316441859404,0.0033675722447874586,-0.012445409100168498,0.017111654577528855,0.982409381568262
2012-01-12,1,0.0021531990498232082,0.0023285108551274313,-0.014816962407911173,0.017111654577528855,0.9816917572621523
2012-01-17,1,0.0018144381027564542,0.0019880176418919796,-0.016421577166392635,0.017111654577528855,0.9818899495224229
2012-01-19,1,0.0016585911057674665,0.0018555531762551795,-0.012980280686328985,0.017111654577528855,0.9835278913229176
2012-01-23,1,0.0030641257843233875,0.0035084072128454017,-0.012980280686328985,0.010827951974123232,0.9847456203813068
2012-01-25,1,0.0015998838872131765,0.0018343764016427087,-0.010746711492603152,0.010827951974123232,0.986265553984855
2012-01-27,1,0.0006762329729918697,0.0007331001096956252,-0.010746711492603152,0.011990802415106305,0.986436843244867
2012-01-31,1,0.0010870226626564852,0.00125963272648835,-0.010682838358596767,0.014937016659396713,0.9861056702251264
2012-02-02,1,0.0019644210615158784,0.00218872782428007,-0.010682838358596767,0.011586015009655644,0.9875132370239098
2012-02-06,1,0.003033725247470595,0.003438383128910357,-0.012493939276289834,0.010504364443148114,0.987186260220289
2012-02-08,1,0.003404593226075763,0.0039111729954731935,-0.011331665113486496,0.011486435857911585,0.9870465058265605
2012-02-10,0,0.0,0.0,-0.008579201791571553,0.011486435857911585,0.9875202717894173
2012-02-14,1,0.0006929785482758956,0.0007397301199400069,-0.006710282606994969,0.014937016659396713,0.9870971547661314
2012-02-16,1,0.0009422120632460824,0.0009582735386793177,-0.006710282606994969,0.014937016659396713,0.9867415449528475
2012-02-21,1,0.0033493992944513516,0.0036148242681352484,-0.006710282606994969,0.015533314331253935,0.9863765434029704
2012-02-23,1,0.0029957622252211897,0.0032202967222143223,-0.008579201791571553,0.015533314331253935,0.9858171287708697
2012-02-27,1,0.0003846063538931521,0.0007035437295023243,-0.006710282606994969,0.01567908473749615,0.9856845015919072
2012-02-29,1,0.0012044036615560874,0.001360349990624855,-0.006710282606994969,0.01567908473749615,0.9852734232576125
2012-03-02,1,0.0005474261023846762,0.0008485451189146613,-0.007104328377904729,0.01519063776247936,0.9852907643697295
2012-03-06,0,0.0,0.0,-0.005854570748521866,0.01519063776247936,0.9854335220165786
2012-03-08,1,0.001030254270187065,0.0010585581710014203,-0.010471554730255416,0.014975681679184347,0.9854228458892077
2012-03-12,1,0.0007768532887375632,0.0008762665001656484,-0.013166205686423649,0.014975681679184347,0.9844282896448031
2012-03-14,1,0.0021719031720737513,0.002344572292864825,-0.013166205686423649,0.01519063776247936,0.9844014269664523
2012-03-16,1,0.0037062902204367783,0.004164911823623564,-0.013477770903579833,0.014975681679184347,0.9850253553121431
2012-03-20,1,0.0038320301434584163,0.004305686491825639,-0.01564510412337401,0.014975681679184347,0.9835457616302208
2012-03-22,1,0.0041125442964902595,0.004735849739556229,-0.015436382271133628,0.014975681679184347,0.9844629082778088
2012-03-26,0,0.0,0.0,-0.015436382271133628,0.014975681679184347,0.984054050793814
2012-03-28,1,0.0026187275731279734,0.0029400122383706462,-0.013408196952833039,0.015253218425694283,0.9850682691904729
2012-03-30,1,0.00275120865126364,0.0030930274485573726,-0.013408196952833039,0.015083814027046932,0.9856055386819406
2012-04-03,1,0.0037599594448821686,0.004287202495379389,-0.013408196952833039,0.012773918386195526,0.9857579855683481
2012-04-05,1,0.002584877559348141,0.002885903030944343,-0.014764019472620855,0.012773918386195526,0.9857491339194211
2012-04-10,0,0.0,0.0,-0.01093371869365174,0.012773918386195526,0.9865686510773728
2012-04-12,0,0.0,0.0,-0.014764019472620855,0.006377572539637001,0.9867666332670141
2012-04-16,0,0.0,0.0,-0.014764019472620855,0.004442521111169219,0.9870064773502975
2012-04-18,0,0.0,0.0,-0.014184686308821285,0.002574238112292975,0.9881958570978017
2012-04-20,-1,-0.0010659031772446306,-0.0005946646247541256,-0.01572366385636213,0.0018804801194725817,0.9881846076174775
2012-04-24,-1,-0.0004198421536182441,-4.5614065995997974e-05,-0.01572366385636213,0.0018804801194725817,0.9891158077043745
2012-04-26,1,0.0011400678012429067,0.0012980621609264152,-0.01572366385636213,0.0027006346545273606,0.9888513255301946
2012-04-30,1,0.0013937193607412492,0.0014798423909196787,-0.01572366385636213,0.0027006346545273606,0.9880198794075085
2012-05-02,1,0.0016153848676918655,0.0016597667250599795,-0.017592277497436484,0.001425957185814816,0.9865788674402718
2012-05-04,1,1.9818141750447865e-05,0.0002788404462115003,-0.0162837628912881,0.001425957185814816,0.9868950590802347
2012-05-08,-1,-0.0012332674852899618,-0.0007508928787756618,-0.0162837628912881,0.0056518680380111845,0.9859110789949771
2012-05-10,-1,-0.0021152156597635426,-0.0015394642474127378,-0.013248715707367957,0.006483034940198681,0.9869010670648335
2012-05-14,-1,-0.003907762308655618,-0.00309686892595229,-0.013243114326207594,0.0078022773576926835,0.9865859646047893
2012-05-16,-1,-0.0036395727519010026,-0.0029364061948862806,-0.007304270738696353,0.011251316178393969,0.9866278839782912
2012-05-18,-1,-0.003738858090850979,-0.0030679487820263014,-0.005042118045123643,0.011251316178393969,0.9867931208388792
2012-05-22,-1,-0.004246952891074881,-0.0034656195431907615,-0.005276236934110731,0.012274052915066502,0.9860792405991963
2012-05-24,-1,-0.0031592024751419035,-0.002530952095530141,-0.00711543079844911,0.015366655715278912,0.9854091946350079
2012-05-29,-1,-0.0021537712815391753,-0.0016497018183009831,-0.009123969550235093,0.012274052915066502,0.9855603679784196
2012-05-31,0,0.0,0.0,-0.00711543079844911,0.014195575384933129,0.9862367767692073
2012-06-04,-1,-0.003051851717676717,-0.002639449469945228,-0.004680721816957401,0.015366655715278912,0.9850294404207729
2012-06-06,0,0.0,0.0,-0.0053258120428033495,0.014195575384933129,0.9863506654841625
2012-06-08,0,0.0,0.0,-0.008554061699854308,0.014195575384933129,0.9860353748016383
2012-06-12,0,0.0,0.0,-0.008554061699854308,0.01133596028683953,0.987343292211503
2012-06-14,0,0.0,0.0,-0.010124320307960788,0.01133596028683953,0.9860291308938687
2012-06-18,0,0.0,0.0,-0.010124320307960788,0.01133596028683953,0.9867055857797681
2012-06-20,-1,-0.04096995292091424,-0.04069974048239871,-0.011738814516842038,0.008368009174992894,0.9607441751852698
2012-06-22,-1,-0.00488706152563139,-0.004072044972142638,-0.011738814516842038,0.005530613120231996,0.988136081193896
2012-06-26,-1,-0.0026806304411830495,-0.0022935878164963993,-0.011562537430621977,0.008199414290270162,0.9884000052558104
2012-06-28,-1,-0.0018216384183510972,-0.0015822303841336828,-0.011562537430621977,0.009972554035671904,0.9872005044121008
2012-07-02,-1,-9.806501291889751e-05,-5.766004012015763e-05,-0.011562537430621977,0.004019976529004086,0.9889530742276571
2012-07-05,-1,-0.0008899238858194669,-0.0007196345764470935,-0.011562537430621977,0.00035675967006645686,0.9891362568850101
2012-07-09,-1,-0.0018647670768195592,-0.0015506241654759845,-0.011562537430621977,0.00455482481589709,0.9875226214060018
2012-07-11,-1,-0.0013719861487851348,-0.0011865667929617618,-0.008832837478598497,0.013206948562722054,0.9859404121735926
2012-07-13,-1,-0.0005070454378211617,-0.00043543267689902514,-0.008832837478598497,0.010379880428246313,0.9874157384317565
2012-07-17,-1,-0.0006896332321630485,-0.0005879476063083457,-0.008832837478598497,0.010379880428246313,0.9873557620186307
2012-07-19,-1,-0.0012939946021437423,-0.001121887720316121,-0.006730539250422358,0.013206948562722054,0.9873826861186056
2012-07-23,-1,-0.002276614539501334,-0.0019975768093505927,-0.004562345257569336,0.013206948562722054,0.9880776768563503
2012-07-25,-1,-0.001937369575008864,-0.0017129101598077087,-0.003314313990456601,0.013206948562722054,0.9888143102381688
2012-07-27,-1,-0.0012843289835443653,-0.0010929367467413386,-0.004562345257569336,0.004753063666664143,0.9903004581651788
2012-07-31,0,0.0,0.0,-0.004562345257569336,0.006819444553524193,0.9900261082647124
2012-08-02,0,0.0,0.0,-0.003314313990456601,0.007463418445222759,0.9905451662289313
2012-08-06,0,0.0,0.0,-0.003314313990456601,0.007463418445222759,0.9926307770065528
2012-08-08,0,0.0,0.0,-0.003314313990456601,0.006049449559957338,0.9933621376278122
2012-08-10,1,0.0003933158806598967,0.0004965216839069081,-0.004229178368557813,0.006049449559957338,0.9933143623860482
2012-08-14,0,0.0,0.0,-0.003496722866473087,0.006620572882704471,0.9931630102660564
2012-08-16,1,0.0016004636716040002,0.0019317890282043457,-0.003496722866473087,0.006832435080885197,0.9927939784863716
2012-08-20,0,0.0,0.0,-0.003496722866473087,0.006620572882704471,0.9929222352603682
2012-08-22,0,0.0,0.0,-0.007128870697228065,0.006620572882704471,0.992006351016166
2012-08-24,0,0.0,0.0,-0.005254167506811496,0.006620572882704471,0.9921260696805834
2012-08-28,0,0.0,0.0,-0.005695583166615391,0.006620572882704471,0.9915118105891162
2012-08-30,0,0.0,0.0,-0.005695583166615391,0.006759584511933764,0.9915857213463228
2012-09-04,0,0.0,0.0,-0.005695583166615391,0.006759584511933764,0.9913985989752473
2012-09-06,0,0.0,0.0,-0.007013092937610214,0.006759584511933764,0.9911355907550172
2012-09-10,0,0.0,0.0,-0.00485210628211275,0.006759584511933764,0.991568470288176
2012-09-12,1,0.0023234976242258185,0.0027163203085961516,-0.006934080445148051,0.006671966444691532,0.9913880103828153
2012-09-14,1,0.0032426970485049,0.003778684463652094,-0.008216080199253264,0.004513141699498944,0.9908207041477798
2012-09-18,1,0.003562913900463278,0.004173694587597633,-0.008216080199253264,0.0084456317147494,0.9898842574210872
2012-09-20,1,0.0029893223773972202,0.0035230517392651137,-0.00485210628211275,0.010184599055825165,0.9887549606217997
2012-09-24,1,0.0032714410083599394,0.003863607766734795,-0.006934080445148051,0.010184599055825165,0.9883134534061034
2012-09-26,0,0.0,0.0,-0.006725374451121404,0.010184599055825165,0.9887552634654618
2012-09-28,0,0.0,0.0,-0.006725374451121404,0.010184599055825165,0.9885244552264308
2012-10-02,0,0.0,0.0,-0.006725374451121404,0.011697158738086754,0.9878056899669195
2012-10-04,0,0.0,0.0,-0.00751094972471116,0.011697158738086754,0.9869758431690419
2012-10-08,0,0.0,0.0,-0.00910519512114712,0.011697158738086754,0.9844574862169737
2012-10-10,0,0.0,0.0,-0.00847907713906718,0.011697158738086754,0.9846921749598118
2012-10-12,0,0.0,0.0,-0.0036950914697429973,0.011697158738086754,0.9861143964846415
2012-10-16,1,0.002261201126394929,0.002274576516189691,-0.00847907713906718,0.006290066668380096,0.9867351928629801
2012-10-18,1,0.002702235938464485,0.0029963648284652856,-0.00847907713906718,0.006290066668380096,0.9888014679664796
2012-10-22,1,0.0028470329106110867,0.0028861873764333577,-0.0036950914697429973,0.006290066668380096,0.9893801611409332
2012-10-24,1,0.0007082647878662582,0.0007867817048140205,-0.001867502266098304,0.008565537290292934,0.9891738744168345
2012-10-26,1,0.0015682224759728878,0.001594978916884511,-0.001867502266098304,0.008565537290292934,0.9893451161697113
2012-11-01,1,0.0018166829243687686,0.0019345302739258554,-0.004963582103627517,0.003578198860666133,0.9899861566756883
2012-11-05,1,0.0019799298774305853,0.0021499001397989404,-0.0046785239832697195,0.003167249236327316,0.9915474965765223
2012-11-07,1,0.0005049780901572654,0.0005375786328107658,-0.001867502266098304,0.0026174493239637065,0.9941430503815457
2012-11-09,1,0.0005608629430502485,0.0006033771282647244,-0.001867502266098304,0.003167249236327316,0.9932333073637081
2012-11-13,1,0.0006490580083014016,0.0006559566213903039,-0.0008338387487300677,0.004170354410477158,0.9930615300716622
2012-11-15,1,0.00028378390381878914,0.0004029279587830663,-0.0008338387487300677,0.006110850878146731,0.9935828203231174
2012-11-19,1,0.00037867401976501044,0.0005001951222873022,-0.0008338387487300677,0.008417490652167178,0.9919621097328819
2012-11-21,1,0.00048229712443790423,0.0005863686846787734,-0.000934364813686022,0.009915457409270766,0.9912048212741649
2012-11-26,1,0.0027820712858294284,0.0029080545315293017,-0.003185365960277477,0.008417490652167178,0.9911495017251584
2012-11-28,1,0.0017017600253739374,0.0017711344135953196,-0.0029096613749434825,0.008417490652167178,0.9918449045093282
2012-11-30,1,0.0001847582992488397,0.00025126169412971043,-0.0029096613749434825,0.009480180176294012,0.9914875255182019
2012-12-04,-1,-0.0001608408258986504,-4.157744713282057e-06,-0.0029096613749434825,0.01145025307110153,0.9894295997332103
2012-12-06,1,0.00029420007652963923,0.0003599370214616197,-0.004937667792474799,0.014621818704567763,0.9874848720303072
2012-12-10,1,0.0006877926637436649,0.0007163135610377392,-0.0065652971326725105,0.01145025307110153,0.9877621113483542
2012-12-12,1,0.00027194637650636646,0.00039046257888988454,-0.0065652971326725105,0.01145025307110153,0.9877270988727531
2012-12-14,-1,-0.00022921700970653645,-5.858992789111009e-05,-0.0065652971326725105,0.01145025307110153,0.9880317364569753
2012-12-18,1,0.0011700492967468316,0.0011829606946251133,-0.009515304476695617,0.008954400901706636,0.9882706851547618
2012-12-20,1,0.0015513262733939481,0.0016396392814166843,-0.009515304476695617,0.008954400901706636,0.9882931461911011
2012-12-24,1,0.0006204291310083564,0.0006760642256624913,-0.005738183376670527,0.008954400901706636,0.9890053989778398
2012-12-27,1,0.0003286012032159617,0.0004025643845727545,-0.003922107865057545,0.008954400901706636,0.9891621913726666
2012-12-31,1,0.0008608588901979388,0.0008723070710459567,-0.001957800128776715,0.007327144035747708,0.9898465620935899
2013-01-03,1,0.0023329531687787644,0.0025447304874523574,-0.001957800128776715,0.007000120543190156,0.9922984170147234
2013-01-07,1,0.0031270193636644904,0.00328324792864905,-0.001957800128776715,0.007000120543190156,0.9935710969293459
2013-01-09,1,0.0012749595200218888,0.0013328444701665725,-0.0018557865501808053,0.007099159194373804,0.9937340545156497
2013-01-11,1,0.0017967192036185034,0.0019592682665084647,-0.00018633558729008525,0.007000120543190156,0.9942935042150622
2013-01-15,1,0.001660915141865608,0.0018074287223001394,8.428896573651687e-06,0.007099159194373804,0.9939474687020999
2013-01-17,1,0.0015158273221860894,0.0016260323460106916,-0.0012689029127109703,0.007000120543190156,0.9955538228553583
2013-01-22,1,0.0016005769825291677,0.0017081409469123859,-0.0020111228202148836,0.007000120543190156,0.9952971842162457
2013-01-24,1,0.0012647911962305955,0.0013167373328747418,-0.002842329744685885,0.007099159194373804,0.9939867792287522
2013-01-28,1,0.001502787035228202,0.0015276537215371758,-0.004309079244004639,0.007749642772147318,0.9921770795340557
2013-01-30,1,0.0014786716594232226,0.0015506152924070773,-0.0055818812352739005,0.009029171573509936,0.9914260418745493
2013-02-01,1,0.0017425061094867543,0.0018340323495951182,-0.004398480747913689,0.009364182554823101,0.9914299613712249
2013-02-05,1,0.0019836192656212887,0.002047398085245152,-0.00340322616661473,0.009443478091505557,0.9914649116357744
2013-02-07,1,0.0016613384246180547,0.0017507547076317602,-0.00340322616661473,0.009489706043983942,0.9908435625897957
2013-02-11,1,0.002094928677106584,0.0022915183233586257,-0.00340322616661473,0.009489706043983942,0.9908286770501495
2013-02-13,1,0.0021542938637392458,0.0022950303082387557,-0.00340322616661473,0.009383815569812685,0.9908970609102152
2013-02-15,1,0.0015731565326731057,0.001611650554921862,-0.005994187732801529,0.009383815569812685,0.98996631486837
2013-02-20,1,0.001314798504064572,0.0013211626959721634,-0.004944221168554995,0.009383815569812685,0.9906480931967212
2013-02-22,1,0.0006877399015436284,0.0008006906087567789,-0.004944221168554995,0.009383815569812685,0.9906443019646276
2013-02-26,1,3.363070275998198e-05,0.00017925962663298983,-0.003631880675464825,0.009383815569812685,0.9920855762136142
2013-02-28,0,-0.00010675582483851074,2.9391667024308865e-05,-0.003631880675464825,0.009158148930777201,0.9922477567453892
2013-03-04,1,0.0008337802991709921,0.0008486018569801504,-0.004422713102014686,0.008999598794564514,0.9924220389862664
2013-03-06,1,0.0005862436476544209,0.0006474000658849787,-0.004944221168554995,0.0054351476699104955,0.9917674169261156
2013-03-08,1,0.0011559895279240708,0.0011680284219532753,-0.004944221168554995,0.004181592764733782,0.992589981087426
2013-03-12,1,0.0009558722160985273,0.0011286401860910716,-0.004944221168554995,0.005746785067620287,0.9910081056366358
2013-03-14,1,0.0014156399957402413,0.0014211600131234974,-0.005712085727722575,0.004471827179605879,0.991039900400997
2013-03-18,1,0.0015831406626276548,0.001726571899580104,-0.005712085727722575,0.005746785067620287,0.9895979001010277
2013-03-20,1,0.001543189130205163,0.0015635984481915874,-0.01448891572051411,0.005746785067620287,0.9878536507185571
2013-03-22,1,0.0010751592338100857,0.001119948432216979,-0.008856199679515281,0.006355169528564603,0.9886526325455289
2013-03-26,1,0.0012875840792858624,0.0013326263562793532,-0.008856199679515281,0.009443010393356637,0.987875389973881
2013-03-28,1,0.0009671182760066057,0.0010223869844949247,-0.0049605962246421715,0.009443010393356637,0.9883922418698454
2013-04-02,1,0.00133816736245216,0.0013397785364758787,-0.004748431700410196,0.008442594199282729,0.98860673215179
2013-04-04,1,4.93719965496465e-06,0.0002359738147590868,-0.004748431700410196,0.009213535010645089,0.9883318029779736
2013-04-08,-1,-0.0004411879348782936,-0.0002592668704172849,-0.006502019571084943,0.010960122979647284,0.9875381202286534
2013-04-10,1,0.0012658133915663832,0.0013539422381933616,-0.006502019571084943,0.009213535010645089,0.9894101575690956
2013-04-12,1,0.0005995969979377081,0.000793823508190637,-0.006606063504672703,0.009213535010645089,0.9892067551867411
2013-04-16,1,0.0006223670080026626,0.0008098450264519873,-0.0034707001110306232,0.010960122979647284,0.9891333949651684
2013-04-18,-1,-0.000616933457279313,-0.000272460190958692,-0.0011563586916401294,0.010960122979647284,0.9897052818319575
2013-04-22,1,0.0001395054628330249,0.00038248608288395916,-0.0013675394060419586,0.012033423184838644,0.9897437360658288
2013-04-24,-1,-0.0007741300864190211,-0.0005307759196616842,-0.006606063504672703,0.008668458310192218,0.9898482401628134
2013-04-26,-1,-0.0011426224353505844,-0.0008276318990645927,-0.006606063504672703,0.008668458310192218,0.9897883067374833
2013-04-30,-1,-0.0005611217058834468,-0.00024704338259560934,-0.006606063504672703,0.010447804732358271,0.9894371319919382
2013-05-02,-1,-0.0010476376238250768,-0.0006759150568548616,-0.006606063504672703,0.015402575823465974,0.9892421673238653
2013-05-06,-1,-0.0008977465657562128,-0.0006494536191169611,-0.00811307536797025,0.010332669325641315,0.9895225674354495
2013-05-08,-1,-0.0005317431947586309,-0.00026472770628630665,-0.01027171614839473,0.015774439292698974,0.987641857946796
2013-05-10,-1,-0.0006900041618543311,-0.00040864054626744224,-0.01027171614839473,0.015774439292698974,0.9870772297994647
2013-05-14,1,0.002018771410618019,0.0021605000492922084,-0.010788512639958553,0.010669312008246865,0.9876810709005498
2013-05-16,1,0.0016508171280130413,0.0017468882621191808,-0.010860250512897834,0.012254357170771495,0.9874393499024476
2013-05-20,1,0.0016891977401947813,0.001752192771214637,-0.010860250512897834,0.0120459739292169,0.987516915335204
2013-05-22,1,0.000986692139398423,0.0010156002997668476,-0.012549657878073005,0.0120459739292169,0.9872704467045139
2013-05-24,1,0.0007048339351859667,0.0007801383354648407,-0.0165168429395905,0.0120459739292169,0.9858785984060653
2013-05-29,1,0.0026175383469985904,0.002793952353776461,-0.0165168429395905,0.0120459739292169,0.9860821409481142
2013-05-31,1,0.0025549150176691774,0.002739132255154675,-0.018646700541669933,0.0120459739292169,0.9858114367518873
2013-06-04,1,0.0020846171723454612,0.002176692073605568,-0.018646700541669933,0.013656070549035122,0.9857431483677018
2013-06-06,1,0.0021729751928204716,0.00228055302709615,-0.015423306680746107,0.013656070549035122,0.986812089728716
2013-06-10,1,0.002706997251021202,0.0028702331579986244,-0.015423306680746107,0.013656070549035122,0.9870340992560628
2013-06-12,1,0.0012926930792030976,0.0013004819874979925,-0.006556618330302539,0.013937942719747458,0.9881928145289608
2013-06-14,1,0.0014992610812220673,0.0015508365090227323,-0.004219365816660577,0.014003836342128286,0.9881719625566981
2013-06-18,1,0.0019041946909160244,0.0020075310304776507,-0.006358134070320497,0.014780641444966967,0.9877018200527361
2013-06-20,1,0.000806491239063456,0.0008252460373373114,-0.0025133229325170927,0.014980379616149703,0.9876886843330885
2013-06-24,0,-7.824519864119226e-05,3.7205108474792144e-05,0.0015065693692171951,0.014980379616149703,0.9886901428434614
2013-06-26,1,0.0003321313157251167,0.0004032844106152146,-0.0018653991305307214,0.014980379616149703,0.9890726928912432
2013-06-28,0,-6.186625519576718e-05,5.3377407586271714e-05,-0.0023511672776587132,0.014980379616149703,0.9903111214180745
2013-07-02,1,0.0006017945091543983,0.0006189205386961606,-0.0029116937850492035,0.011056418411780426,0.9910173765907273
2013-07-05,1,0.001563883116358565,0.001677316966181527,-0.0035733098899836755,0.011056418411780426,0.9912908549461679
2013-07-09,1,0.0016754462118006822,0.001814643865221625,-0.004092788602078047,0.011056418411780426,0.991304710278952
2013-07-11,1,0.0019165431896698518,0.002067781322220067,-0.00535038109945167,0.009585023000411416,0.991123368878036
2013-07-15,1,0.002635042619826498,0.0028671439473798663,-0.006463424551010497,0.005634785310450458,0.9914762501984608
2013-07-17,1,0.002690823410226907,0.0029145433508611157,-0.00535038109945167,0.0015670607981484665,0.9925392557542715
2013-07-19,1,0.0029418824941424403,0.003160800538332219,-0.006463424551010497,0.00015856763383698103,0.9927713809981027
2013-07-23,1,0.0031065033284420956,0.003341799272539898,-0.007138169793004339,-0.0014634016083508003,0.9916102261997513
2013-07-25,1,0.0028255912279303097,0.003052122069920846,-0.007138169793004339,0.00015856763383698103,0.9910073588437536
2013-07-29,1,0.002482357974990766,0.0026647288739361464,-0.006463424551010497,0.00015856763383698103,0.9911308541778654
2013-07-31,1,0.0026975888520846037,0.0029528314021286654,-0.007527137189245541,0.0007585987276711273,0.9896743186673903
2013-08-02,1,0.0028914872480313705,0.003169262349237132,-0.007527137189245541,0.0006722682664374045,0.9903987556867423
2013-08-06,1,0.0026191834364872237,0.0028841202901616616,-0.007527137189245541,0.0035085346622546008,0.990510449668416
2013-08-08,1,0.0017741772501935825,0.0018941593774745617,-0.006668293262934377,0.0059193446182628714,0.9908732832974202
2013-08-12,1,0.0013513371502599952,0.001403102549574414,-0.0062499332549680615,0.009431556521669476,0.9903787949339531
2013-08-14,1,0.0011268667047727233,0.0011557212262563866,-0.0062499332549680615,0.009431556521669476,0.9900859841358611
2013-08-16,1,0.0009804158473625717,0.0009854653889526752,-0.006102599930383247,0.00969978230513305,0.990275532117174
2013-08-20,1,0.000685153995743953,0.0007297212937654354,-0.005631215686573774,0.009053503644025528,0.9914884725224266
2013-08-22,1,0.0010972456390485662,0.0011057888128259163,-0.006102599930383247,0.008904411304002062,0.9922189734529523
2013-08-26,1,3.626241848152749e-05,0.00018977786225951576,-0.006193682886868254,0.008904411304002062,0.9918109020026605
2013-08-28,-1,-0.0008598055783707074,-0.0006103614558767753,-0.004243702693817963,0.009053503644025528,0.9928911443907735
2013-08-30,-1,-0.0002492692808967478,-0.00014471897024010409,-0.006193682886868254,0.009053503644025528,0.9925256497272852
2013-09-04,1,0.00024817322565656166,0.0003145638885817952,-0.006742447265782871,0.00899381989848992,0.992170647319007
2013-09-06,-1,-0.0001531006460956222,-5.230284191991611e-06,-0.007907913037944189,0.00969978230513305,0.9911805747455155
2013-09-10,-1,-0.00034725388880225657,-0.00012543288582871678,-0.009463244408709087,0.002264750542735142,0.9910777575214812
2013-09-12,-1,-0.00047558205746004193,-0.00026339953912173076,-0.009463244408709087,0.007656801835784882,0.9893814419206428
2013-09-16,1,0.00017605069841594874,0.00026359592390777194,-0.009463244408709087,0.00805906174347367,0.9890883160080243
2013-09-18,1,5.240632989221431e-05,0.000157486488999527,-0.00981608027978341,0.00805906174347367,0.988633063058667
2013-09-20,-1,-0.0003745401639133289,-0.00023378565965375114,-0.009719119300226273,0.011529242225211983,0.9884054031438884
2013-09-24,-1,-0.0013419636958059292,-0.001069473929729007,-0.008997086539326326,0.011529242225211983,0.9892028960454003
2013-09-26,-1,-0.0008317761480957786,-0.0006248119715176794,-0.008997086539326326,0.008657534910441394,0.9897345415204168
2013-09-30,-1,-0.001159134665648233,-0.0009231938817974404,-0.004401128671778428,0.008657534910441394,0.9899039195820467
2013-10-02,-1,-0.0010463721573484971,-0.0008151069829750353,-0.003277344839833563,0.007682646145015825,0.9906303405097154
2013-10-04,1,6.173097558505547e-05,7.924714600707344e-05,-0.003277344839833563,0.007682646145015825,0.991346580910068
2013-10-08,-1,-0.0010546838161921068,-0.000931484686142755,-0.0017030224295331313,0.007682646145015825,0.9921638967969698
2013-10-10,1,0.0005142853850745213,0.0006139628774955853,-0.003277344839833563,0.004933186889612696,0.9939055248634968
2013-10-14,1,0.0005660123113164873,0.0006368601789016083,-0.003277344839833563,0.004933186889612696,0.9927507824939765
2013-10-16,-1,-6.097384880130386e-05,-4.438266930452836e-05,-0.002673038104227996,0.006383442106247028,0.9919373462881362
2013-10-18,1,0.0009435467961703099,0.00105640804845391,-0.002673038104227996,0.00621549242083002,0.9925819068040055
2013-10-22,1,0.000969514307776154,0.001078827698318719,-0.004626137827183994,0.00621549242083002,0.9920941621016032
2013-10-24,1,0.0009129172647352941,0.0010012542581777234,-0.004626137827183994,0.009721970490095624,0.9912275556513617
2013-10-28,1,0.000861899942141974,0.000917678495824724,-0.004626137827183994,0.009721970490095624,0.9911242804225658
2013-10-30,1,0.0012342491488960003,0.0013621651965500185,-0.004626137827183994,0.009218121433844597,0.9912700247312738
2013-11-01,1,0.0009536786160799686,0.0009759769679619761,-0.004626137827183994,0.007983237301862166,0.9918861353474205
2013-11-05,1,0.0008499087179742956,0.000861354265278021,-0.004943957410828294,0.007983237301862166,0.9914663166313249
2013-11-07,1,0.0007984340521815875,0.0008410363458864656,-0.004943957410828294,0.009218121433844597,0.9910026252511318
2013-11-11,1,0.0012017831222881999,0.001268790207225502,-0.004943957410828294,0.007983237301862166,0.9925734808106462
2013-11-13,1,0.00035156773478833836,0.00041359682389590746,-0.004943957410828294,0.0057719567670702805,0.993036751296402
2013-11-15,1,0.0007414706380537122,0.0007444215341195384,-0.004943957410828294,0.0055875058282182965,0.9931470153654854
2013-11-19,0,-1.312215861025846e-05,9.010243827152389e-05,-0.004891482207733191,0.0071731942783453215,0.9919624880466467
2013-11-21,1,0.0008758416144542961,0.000892498932532495,-0.004891482207733191,0.004625282989550809,0.9928273779552507
2013-11-25,1,0.0009664487354692978,0.0010707237925141697,-0.004891482207733191,0.0055875058282182965,0.9925137879961897
2013-11-27,1,0.0010748040605653554,0.001196014268648197,-0.004891482207733191,0.004549538367675736,0.9927688127472883
2013-12-02,1,0.0009836946139897007,0.0011061655433669553,-0.0024165374455562957,0.0055875058282182965,0.992761225157096
2013-12-04,1,0.001021804527829467,0.0011989728427236677,-0.0024165374455562957,0.008135059351315317,0.9925802129371253
2013-12-06,1,0.001349696739229897,0.0015384282857722562,-0.0024165374455562957,0.00501661753810075,0.9928704560827827
2013-12-10,1,0.0016094490863222694,0.0018867443958193223,-0.0008766562721803817,0.00501661753810075,0.9930632881523684
2013-12-12,1,0.001102836477992023,0.001339048925125087,-0.003414354970258056,0.00501661753810075,0.992399244950589
2013-12-16,1,0.0012093039095755988,0.0014414978024440864,-0.003414354970258056,0.00967747915905488,0.991860642913463
2013-12-18,1,0.0018115790407248638,0.0021054189040708615,-0.007988284938829825,0.00565748912728875,0.9914093006889687
2013-12-20,1,0.0015320797391015592,0.0017511084121171042,-0.007988284938829825,0.00976624644599609,0.9907528349670093
2013-12-24,1,0.002097959309064405,0.002405123824123009,-0.011089541593626299,0.009581818791892406,0.9895844842176782
2013-12-27,1,0.0019444263388519757,0.00221453346654802,-0.011089541593626299,0.009581818791892406,0.9891691885598596
2013-12-31,1,0.0019791675056275793,0.0022340984581763366,-0.012184455662536908,0.009581818791892406,0.9878754301699695
2014-01-03,1,0.0016494238147590835,0.0018565771138590694,-0.014215469565614881,0.006601547593358166,0.9865610970441993
2014-01-07,1,0.00119847333962095,0.0013382318672665503,-0.014215469565614881,0.009181991944307306,0.9865365227218651
2014-01-09,1,0.0012314199537664758,0.0013674383568351089,-0.014215469565614881,0.00976624644599609,0.9854269291684802
2014-01-13,1,0.0002854058254307608,0.00029950993733061666,-0.010428467440435225,0.01008203703457979,0.9860485386375614
2014-01-15,1,0.0009142163111352308,0.001045388181362039,-0.010428467440435225,0.009795055933092375,0.9868842558492898
2014-01-17,-1,-0.0006695845477341835,-0.0005759883906280192,-0.008924970459052304,0.009795055933092375,0.9887900904428089
2014-01-22,-1,-0.0006851943982176657,-0.000549203100521535,-0.010428467440435225,0.006478135009378822,0.988879119058292
2014-01-24,-1,-0.0017215121742296942,-0.0014647180749213465,-0.008924970459052304,0.009336050894213133,0.989264695474695
2014-01-28,-1,-0.0014484147155023521,-0.0012413123802261943,-0.009357427302983714,0.009336050894213133,0.9895360640766137
2014-01-30,-1,-0.0012292102884447844,-0.0010554594587249405,-0.008453964879342855,0.009336050894213133,0.9902861739468024
2014-02-03,-1,-0.002261231008464584,-0.001998503466205255,-0.004532147930753625,0.01121485669857766,0.991136307993655
2014-02-05,-1,-0.002278259239659766,-0.001998727335392419,-0.0022080145451474553,0.01121485669857766,0.9912263746264377
2014-02-07,-1,-0.0013151035636685658,-0.0011572100369483165,-0.004315119859415837,0.010986774570453536,0.9917057994601776
2014-02-11,-1,-0.0011052512962458265,-0.0009691841331852537,-0.0037150545113256964,0.006555250510836176,0.9926106157382752
2014-02-13,-1,-0.0013703977354391638,-0.0011740960932572438,-0.0039435704951490125,0.006555250510836176,0.9925825018929691
2014-02-18,-1,-0.0019710147715187474,-0.0016736649231194587,-0.0036754200850566006,0.007899182629799568,0.992015965058122
2014-02-20,-1,-0.002164883947162992,-0.0018581056245020756,-0.0020922081242705877,0.014507570711024013,0.9902806747412342
2014-02-24,-1,-0.0012888165903432612,-0.0010087530150705553,-0.0020922081242705877,0.011140314974772851,0.9911341930246396
2014-02-26,-1,-0.0017242621619056474,-0.0013984935917835339,-0.0036754200850566006,0.011140314974772851,0.9910152603045432
2014-02-28,-1,-0.0010465773143972872,-0.0008071282969688045,-0.0039435704951490125,0.00948740455228084,0.99189177623528
2014-03-04,-1,-0.0012827287598708703,-0.0009599351940777323,-0.0036754200850566006,0.007773532149992131,0.9923574484924096
2014-03-06,1,0.00100125005288968,0.0010262394167667465,-0.0039163690966452485,0.005870912613746386,0.9929210154911554
2014-03-10,1,0.0015488756678341642,0.001594000470875267,-0.004032118271280726,0.004050388880972625,0.991999465511428
2014-03-12,1,0.001171103609985445,0.0012031054259167293,-0.004032118271280726,0.004050388880972625,0.9921869404298469
2014-03-14,1,0.0010527230908571612,0.001067379773096485,-0.005369451854600256,0.004050388880972625,0.9911805921752135
2014-03-18,1,0.0013164181329967683,0.0013315441866842326,-0.005369451854600256,0.0034008484169319123,0.9914757672530962
2014-03-20,1,0.0032399020080044875,0.003503011056751528,-0.005369451854600256,0.0034008484169319123,0.9930373130452842
2014-03-24,1,0.003335244122507285,0.0036096008116591337,-0.005369451854600256,0.003341047520169919,0.9930254550832054
2014-03-26,1,0.002926001630669784,0.003141367215684009,-0.004775780584139136,0.0034008484169319123,0.992631132489303
2014-03-28,1,0.0030321288589787625,0.0032771425690032085,-0.006511235997730644,0.0034008484169319123,0.9922977625119782
2014-04-01,1,0.00307024590002419,0.0033063382602243944,-0.006511235997730644,0.0033415295791636834,0.9917892053879467
2014-04-03,1,0.002992931575260282,0.0031890355654090154,-0.006511235997730644,0.0037691376520787093,0.9915927340500859
2014-04-07,1,0.0024957789314794566,0.0026823356454044505,-0.004407035121206344,0.0037691376520787093,0.9928042582800516
2014-04-09,1,0.0026334088920017826,0.0028455583568556897,-0.004407035121206344,0.006377933638269031,0.9918209790888366
2014-04-11,1,0.002444261290461776,0.0026428463751593263,-0.002054717078571698,0.011037566047990529,0.9918338613037031
2014-04-15,1,0.0021225944053790253,0.0022479320146133975,-0.0046175544182779716,0.011037566047990529,0.9908768985329249
2014-04-17,1,0.002342467147709494,0.002550756522611966,-0.008040608134136923,0.011876878401060054,0.9900826511050164
2014-04-22,1,0.0021900925391190955,0.002370095404368254,-0.008040608134136923,0.011876878401060054,0.9902014740502514
2014-04-24,1,0.0019144933859946973,0.002064350670783929,-0.0046175544182779716,0.008324919526226545,0.9912161969496149
2014-04-28,1,0.0016729295459396575,0.0017676183078128638,-0.0013837608667909831,0.008324919526226545,0.9916525756581619
2014-04-30,1,0.0019486842075771668,0.0020743993061916543,-0.004852076592965777,0.00707710063766109,0.9916075444718908
2014-05-02,1,0.002477780363060571,0.002678576146417421,-0.004852076592965777,0.006330274980748005,0.9920188200450727
2014-05-06,1,0.0015643428607014023,0.0016253621573161187,-0.000944857165741396,0.006330274980748005,0.9931666059154809
2014-05-08,1,0.0020287516530606486,0.0021169139862957445,-0.000944857165741396,0.006897895487460671,0.9936561632464163
2014-05-12,1,0.002415421692066602,0.0025624994447805364,-0.0005803896165509279,0.006897895487460671,0.9948452512319136
2014-05-14,1,0.002231014203620302,0.0024032349474111883,-0.0009344364477430738,0.006897895487460671,0.9955063682396424
2014-05-16,1,0.002192876107972488,0.002335176614287241,-0.0009344364477430738,0.006299271010612334,0.9959714579069485
2014-05-20,1,0.0021999346705597824,0.0023677749505592754,-0.0009284142179245086,0.007019253365651822,0.9948811325471509
2014-05-22,1,0.0025421073035603483,0.0027509958732741292,-0.0019889309698621384,0.006926241455244812,0.9944704639531546
2014-05-27,1,0.002716836844818117,0.002968348762383131,-0.002219756422735529,0.006926241455244812,0.9942637569738867
2014-05-29,1,0.0025623646339821846,0.002792558888838903,-0.002219756422735529,0.007204785372803694,0.9941109254321158
2014-06-02,1,0.002537976211426134,0.00273496076968841,-0.002219756422735529,0.008701462590648404,0.9923161248485922
2014-06-04,1,0.0013436028278998354,0.001574184630141546,-0.003083091090137968,0.009602805664074926,0.9915905907057708
2014-06-06,1,0.0020288393707082737,0.0020889033280462434,-0.00429189166442552,0.008834994367010972,0.9914758441871858
2014-06-10,1,0.0024033675806835334,0.002539013269354368,-0.00429189166442552,0.008834994367010972,0.9914478812526684
2014-06-12,1,0.001604003665017983,0.0016188070479212714,-0.00429189166442552,0.008834994367010972,0.9916038851694544
2014-06-16,1,0.0016019116712750647,0.0016175838543277066,-0.0033553130055372768,0.009940625195208117,0.9916436275444055
2014-06-18,1,0.001962852074309294,0.0019747641271837682,-0.003518963380077104,0.008834994367010972,0.9924534390177109
2014-06-20,1,0.0016299022294975617,0.0016605933450486816,-0.0032359589980831575,0.008960743633483112,0.9927768053086461
2014-06-24,1,0.0017854045799836397,0.0018102056936439817,-0.002982532894178002,0.010539912141728081,0.9923802871445341
2014-06-26,1,0.00014233859492423639,0.0002589888637648312,-0.002982532894178002,0.011233471563435498,0.991959450781441
2014-06-30,1,0.0013534161978110421,0.001378498445631918,-0.0032359589980831575,0.00918278278058666,0.9937180827363522
2014-07-02,1,0.0014773186926811811,0.0015689919526865699,-0.0032359589980831575,0.009210224760983434,0.9929294939373332
2014-07-07,1,0.002185535914716856,0.002195063440275001,-0.0032359589980831575,0.011520679953012595,0.9924204758292138
2014-07-09,1,0.0013384575456363826,0.001408085762018172,-0.0041440947535381235,0.011520679953012595,0.9921100920144438
2014-07-11,1,0.001469190387034987,0.001583301303321691,-0.006429555804861074,0.011520679953012595,0.9911388492567429
2014-07-15,1,0.0012120477384369702,0.001217003631960793,-0.006429555804861074,0.010146042970608995,0.9916309577794721
2014-07-17,1,0.001610276547140463,0.0017033181259644365,-0.006429555804861074,0.010146042970608995,0.9917358019187784
2014-07-21,1,0.0010548795161155098,0.0010722674921223245,-0.006429555804861074,0.008911272343669271,0.9918501566014764
2014-07-23,1,0.002009250987260409,0.002077374404825814,-0.006429555804861074,0.005850053504452194,0.9921646170930959
2014-07-25,1,0.0024851570305579615,0.0024916710451346317,-0.004715320966671638,0.005850053504452194,0.9927079504654694
2014-07-29,1,0.002086409480724652,0.002113419016538667,-0.0037005476906710466,0.008708963399957763,0.992724339129039
2014-07-31,1,0.002340713205964908,0.002349251854105387,-0.004091486799025108,0.005850053504452194,0.9937174633345055
2014-08-04,1,0.0025457549152815033,0.002596901726356667,-0.0036772951825235264,0.005850053504452194,0.9940736208617543
2014-08-06,1,0.0022397884189556856,0.0022538615007844666,-0.0033457820393563284,0.0046924242600632805,0.9945025619309404
2014-08-08,1,0.0014851554787976627,0.001579717482675439,-0.0019885367555053405,0.0046924242600632805,0.9958257708805468
2014-08-12,1,0.0017031282602091033,0.0019069410189866028,-0.0033457820393563284,0.005850053504452194,0.994804330964456
2014-08-14,1,0.0013637817381223234,0.0015150472992059485,-0.0017990318480616714,0.008663528491246426,0.9943770071919849
2014-08-18,1,0.0012834080267977049,0.0014004966950730432,-0.0017685509840758146,0.006888181348740772,0.9945754400756428
2014-08-20,1,0.0014499870843583985,0.0015832619874431896,-0.0017685509840758146,0.006888181348740772,0.994661282501966
2014-08-22,1,0.0016680066420615026,0.0018522969944437103,-0.0036772951825235264,0.006165641375579799,0.9938472282737606
2014-08-26,1,0.0017728784412394173,0.002006583080350955,-0.004136178123647772,0.006165641375579799,0.9936567276079369
2014-08-28,1,0.0006103218431282294,0.0006316869752715736,-0.004601174544419368,0.006365285573471581,0.9931904025115356
2014-09-02,1,0.0011107599144342692,0.001205725448437988,-0.008498032263455723,0.006165641375579799,0.9933075487048952
2014-09-04,1,0.00036494566982241236,0.0004080737214227343,-0.008841265844879658,0.006165641375579799,0.9929850914594044
2014-09-08,1,0.0003497678157885081,0.0003888767715486,-0.008841265844879658,0.006365285573471581,0.9923612777566778
2014-09-10,1,0.0002729767724837512,0.0003034313351461527,-0.008841265844879658,0.006365285573471581,0.9915659263689608
2014-09-12,1,0.0007856287009699773,0.0008172889873813051,-0.011734827192697219,0.003896612880332306,0.9902474370130371
2014-09-16,1,0.0007069485047653527,0.000720110965409869,-0.013416403454644496,0.003706502669343925,0.98955101813005
2014-09-18,1,0.0003710760006347969,0.00040225116693973944,-0.014254460599012864,0.0055869185857361225,0.9886568798902714
2014-09-22,-1,-0.00031021351122647965,-0.00021819632507844288,-0.013509380952434535,0.005608601145930807,0.989605153413611
2014-09-24,-1,-0.0001428482704895567,-8.8747847853736e-05,-0.013509380952434535,0.005608601145930807,0.9892348345663629
2014-09-26,-1,-0.0009484349362348188,-0.0007574944282577698,-0.011851756361579015,0.005608601145930807,0.9892453815310652
2014-09-30,-1,-0.0005144451275939099,-0.0004053388448012622,-0.011851756361579015,0.006266859033724428,0.9891131876020784
2014-10-02,-1,-0.0010356887241977331,-0.0008739585140540847,-0.011296064789072984,0.008682673197126258,0.9884618806965778
2014-10-06,-1,-0.0011353348520569944,-0.0009240901932944111,-0.011296064789072984,0.008682673197126258,0.9880164247313878
2014-10-08,-1,-0.0017065690840258872,-0.0014109926643920293,-0.00842929715140574,0.007257155169808278,0.9895523132290025
2014-10-10,-1,-0.0034354024428493598,-0.0029381076055944263,-0.0021955984502522686,0.007257155169808278,0.9903390936436921
2014-10-14,-1,-0.003570171106413839,-0.0030767042745744357,-0.0008978964760505668,0.008682673197126258,0.990222764241738
2014-10-16,-1,-0.0041497414984220885,-0.0035922197160703512,-0.0008978964760505668,0.008682673197126258,0.9904207185699726
2014-10-20,-1,-0.004141571091362338,-0.0035839059145914495,-0.0008978964760505668,0.008682673197126258,0.9905244130353807
2014-10-22,-1,-0.004101049744726707,-0.0035542269115798877,-0.0008331503404453255,0.007399118670288202,0.991207555985503
2014-10-24,-1,-0.003279936613251135,-0.0028245907784606667,-0.0008331503404453255,0.007209136877692427,0.9923929043262436
2014-10-28,-1,-0.0030226533354911827,-0.0026271559342255007,-0.0008331503404453255,0.006274458378031181,0.992952909986758
2014-10-30,-1,-0.0021597934082776896,-0.0018786398048268472,-0.0010669078902258336,0.003776363794136626,0.9945580364461367
2014-11-03,-1,-0.0020614666820384844,-0.0017834406342139802,-0.0010669078902258336,0.003776363794136626,0.9944897813367631
2014-11-05,-1,-0.002177587323055844,-0.0018600466796601753,-0.0010669078902258336,0.003342715962545963,0.994568033138983
2014-11-07,-1,-0.0012260206804690869,-0.001066829145264585,-0.0010669078902258336,0.003508056078698528,0.9943841745494189
2014-11-11,-1,-0.0008759736842696945,-0.0007598603837290488,-0.0010669078902258336,0.003185025186786174,0.9947774719981518
2014-11-13,-1,-0.0007523292939325318,-0.0006458732425401246,-0.002054507602618309,0.0030249790825715027,0.9943960681549731
2014-11-17,-1,-0.0006644192239305624,-0.000562307924211608,-0.0046098655119793785,0.0030249790825715027,0.9943475094449227
2014-11-19,-1,-6.220445720269884e-05,-6.085247917746724e-05,-0.0046098655119793785,0.003508056078698528,0.9926364838039118
2014-11-21,1,7.80235889471002e-06,7.831155956829035e-06,-0.005228754280677085,0.0030249790825715027,0.9925796689035623
2014-11-25,1,0.00011334169629184459,0.00013242431401895124,-0.005805474191339944,0.005912596537219379,0.9917317092889101
2014-11-28,1,0.00011688066971497855,0.00011809625517621061,-0.005805474191339944,0.005912596537219379,0.9920547402881792
2014-12-02,1,0.00026806277257896446,0.00028559920600977726,-0.005927939672565561,0.0030249790825715027,0.9925778227576131
2014-12-04,1,0.0004922410321251048,0.0005705148963098518,-0.006123288078732171,0.0026265957938801264,0.9912492026671872
2014-12-08,1,0.001067979134434682,0.001195252152356458,-0.00753198260752898,0.0006120091343560208,0.9895293114914679
2014-12-10,1,0.0006832552958333866,0.0007903641058470957,-0.0075462320494686375,0.005291369863685487,0.9889448029643225
2014-12-12,1,0.00026014666398358036,0.000341659518646162,-0.0075462320494686375,0.005291369863685487,0.9893494866056629
2014-12-16,1,0.0006043181456363213,0.0007125293020941847,-0.01199543395896038,0.005291369863685487,0.9881193830275135
2014-12-18,1,0.0016061793611699287,0.0018346605937215872,-0.01199543395896038,0.0006120091343560208,0.9888355895165022
2014-12-22,1,0.0014222164112618644,0.001614278613979819,-0.01199543395896038,0.006309248598685479,0.9875779081279645
2014-12-24,1,0.0013893690835033517,0.0016004340007535441,-0.014421609780387363,0.006309248598685479,0.9855923287231071
2014-12-29,1,0.0014130727743467946,0.0016344770871797962,-0.019944117550194398,0.006309248598685479,0.9832923453928775
2014-12-31,1,0.00054452301316845,0.0006113497730152577,-0.019944117550194398,0.009698579798593954,0.9828441521787115
2015-01-05,-1,-0.0003957663125141192,-0.000339091312244978,-0.015525111630341301,0.015221802085771554,0.9825568720847819
2015-01-07,-1,-0.0008641644381929695,-0.0007531849518061832,-0.014421609780387363,0.014335524788499296,0.9839969396923788
2015-01-09,-1,-0.001101350192378632,-0.00098965119858963,-0.012642923358569204,0.01595222835666413,0.9843356099188286
2015-01-13,-1,-0.001479722441828358,-0.0013361602332958035,-0.007631018099713926,0.01634719650617052,0.9840420515381118
2015-01-15,-1,-0.0024417965402903138,-0.002200647581205799,-0.005942102049020323,0.01634719650617052,0.984533676046413
2015-01-20,-1,-0.0022313951204955902,-0.002021139198727437,-0.007590049165638833,0.01634719650617052,0.9842352631191627
2015-01-22,-1,-0.0009931824426917953,-0.0009168086765167445,-0.007590049165638833,0.015197607109227337,0.9858709435010851
2015-01-26,-1,-0.00180057913991005,-0.0016604865599574442,-0.006323830002734337,0.015578013080707344,0.987556947388283
2015-01-28,-1,-0.0034072831742173494,-0.003073819945111214,-0.005533885726225395,0.015578013080707344,0.9885862026977148
2015-01-30,-1,-0.002924368998552178,-0.0026505622796921986,-0.005533885726225395,0.015192753049885209,0.9893886493882549
2015-02-03,-1,-0.0018299828992304598,-0.0016757685613221682,-0.005533885726225395,0.009392514383998804,0.9915498874819266
2015-02-05,-1,-0.0010521710273109308,-0.0010215043416001563,-0.005581115848031641,0.007411690634028654,0.9923219478999196
2015-02-09,-1,-0.0003728083617844835,-0.0003077544393326544,-0.006465520368153075,0.007411690634028654,0.9921759149466896
2015-02-11,1,0.00020709687008696134,0.0003477313911309677,-0.006465520368153075,0.007411690634028654,0.9915783461967101
2015-02-13,-1,-0.00040020400143654395,-0.0003609429441765767,-0.006465520368153075,0.009225962757743624,0.9912591732172313
2015-02-18,-1,-0.0005268927585856481,-0.0005023903972349122,-0.006465520368153075,0.009225962757743624,0.9916459712293905
2015-02-20,-1,-0.00014220995267827792,-7.691386638993876e-05,-0.007018186790232269,0.00811582162593082,0.9913956862792147
2015-02-24,1,0.00014677577014826794,0.000255317132837727,-0.0075530076515114165,0.0060765653001283,0.9919722631246788
2015-02-26,-1,-0.00042252216134001713,-0.0004151137685129196,-0.0075530076515114165,0.0068593424504196105,0.9914236467024481
2015-03-02,0,-5.091084053149229e-05,2.9053563715961708e-05,-0.0066378535284407686,0.0068593424504196105,0.9917735150505583
2015-03-04,-1,-0.00033196418093085615,-0.0002893780218443166,-0.0066378535284407686,0.0068593424504196105,0.9919184551469986
2015-03-06,-1,-0.001261232771152118,-0.0011203610455804308,-0.004656809761154073,0.007617462832255191,0.9918608701628127
2015-03-10,-1,-0.0014467035111061196,-0.0012661334433778195,-0.0020547328181877928,0.0068593424504196105,0.9928513572920121
2015-03-12,-1,-0.0007454400850278656,-0.0006163924039245282,-0.0020547328181877928,0.004439776132986382,0.9943315275693796
2015-03-16,-1,-0.00045318031298409016,-0.0003523982602642811,-0.0020547328181877928,0.003139980007741656,0.9948470879573083
2015-03-18,-1,-0.000678136138243735,-0.0005454863189025736,-0.0015558734058452638,0.003139980007741656,0.9951557272385566
2015-03-20,-1,-0.00046066356796275044,-0.00038832014397015844,-0.0015558734058452638,0.003139980007741656,0.9950999992427473
2015-03-24,-1,-0.0009179005768568675,-0.0007946062929779698,-0.001300636466295302,0.006510182720491559,0.993478457446578
2015-03-26,-1,-0.0007665721572044683,-0.0006988877511066993,-0.001300636466295302,0.004358767027614213,0.9938134383643582
2015-03-30,-1,-0.00039750543821716355,-0.0003806134343641873,-0.001300636466295302,0.004358767027614213,0.9935908637551585
2015-04-01,-1,-0.000313980009458512,-0.00031393782670583674,-0.0015351742446027934,0.004358767027614213,0.9929582892368117
2015-04-06,1,2.149636954614016e-05,7.875431825205362e-05,-5.818294006949831e-05,0.006510182720491559,0.9925304638464182
2015-04-08,1,0.000232048610618114,0.00033497569868008975,-0.0018706735755972571,0.006510182720491559,0.9924046884682253
2015-04-10,1,0.00047401730585677233,0.0006186077684106185,-0.0018706735755972571,0.00733934724663831,0.9921940371472865
2015-04-14,1,0.0006832875089562555,0.0008612771747758572,-0.00270416165348662,0.00733934724663831,0.9921361238456796
2015-04-16,1,0.0007212428109845464,0.0009068605002871891,-0.00270416165348662,0.00733934724663831,0.9921748077978746
2015-04-20,1,0.0006475946682185088,0.0008303108362668274,-0.00270416165348662,0.008667248053007079,0.9924110709672138
2015-04-22,1,0.0017650321880004903,0.0020981031916377712,-0.00270416165348662,0.004805637497611329,0.9945271300208078
2015-04-24,1,0.0012999413174649335,0.0015690724345828757,-0.00270416165348662,0.003908200559438425,0.994890660682086
2015-04-28,1,0.0018964106075149553,0.0022565157194823294,-0.002135313336057166,0.003908200559438425,0.9954863372453149
2015-04-30,1,0.0015405216862896189,0.0018547579532548846,-0.002135313336057166,0.0038874607196984854,0.9954538892825023
2015-05-04,1,0.0023708757752553987,0.0028310822101030326,-0.003738204088237513,0.002140451422938097,0.9951927945156364
2015-05-06,1,0.0019827791791027444,0.00237876255516291,-0.003738204088237513,0.0023094338911542655,0.9949964761337143
2015-05-08,1,0.0018955024541798557,0.002256884334256455,-0.003738204088237513,0.0021409850381675934,0.9948730428825746
2015-05-12,1,0.0016501861960992053,0.0019623765319646343,-0.0013232954740366285,0.003691802208357847,0.9951080547466353
2015-05-14,1,0.002084636815308425,0.002505298947693369,-0.004061075707262183,0.004359064294891409,0.9946054522472698
2015-05-18,1,0.002135792510531284,0.0025555693111342006,-0.004061075707262183,0.0021781883601183277,0.9945443547685351
2015-05-20,1,0.002292316185550449,0.002745944147253392,-0.004061075707262183,0.002885908133626968,0.9943769628251112
2015-05-22,1,0.002259448253634087,0.002711114249349496,-0.003739455803515995,0.004359064294891409,0.9942489408167052
2015-05-27,1,0.0022550088481133584,0.00268431108098923,-0.0055370647720781405,0.0034932378250037734,0.9940971431100296
2015-05-29,1,0.001510537749110687,0.0017875052322090894,-0.0055370647720781405,0.0034932378250037734,0.9943709384774652
2015-06-02,1,0.0009500586976536579,0.001114652845878646,-0.0055370647720781405,0.0043231429958232315,0.9934512416408802
2015-06-04,1,0.0008427552425658593,0.0009804375805875344,-0.0055370647720781405,0.0043231429958232315,0.9938324206571753
2015-06-08,1,0.0007761706081980021,0.0008792992962633619,-0.0064259185263845515,0.0034773525758273233,0.99391927525292
2015-06-10,1,0.00046498221518243325,0.0005246988594619136,-0.008588053225546484,0.0034773525758273233,0.992599747889172
2015-06-12,1,0.00040354309914393825,0.00044986231302137313,-0.008588053225546484,0.00452898706302316,0.9913763541018111
2015-06-16,1,0.0004879601209715549,0.0005740562765664634,-0.0064259185263845515,0.00452898706302316,0.9916961891471815
2015-06-18,-1,-0.00011822386889962384,-6.01697718851985e-05,-0.006472016211449832,0.005781898116063411,0.9910684949612759
2015-06-22,-1,-0.0007599201316601795,-0.0005607587406607495,-0.006472016211449832,0.006096239965927211,0.9900198808258118
2015-06-24,-1,-0.0008485383252469897,-0.0006305845199638602,-0.005806532311109815,0.009805769490882858,0.9897063564512716
2015-06-26,-1,-0.0006307048894061827,-0.0004830121417316596,-0.006670980590390069,0.009805769490882858,0.9890909014503254
2015-06-30,-1,-0.0010993218888333287,-0.0008991713680581139,-0.005806532311109815,0.009805769490882858,0.989906700407634
2015-07-02,-1,-0.0009853603044929328,-0.0007856783344667857,-0.005806532311109815,0.009805769490882858,0.9898790981354064
2015-07-07,-1,-0.000904009148927599,-0.0007304789397428794,-0.005806532311109815,0.011147693168488203,0.9895171194878091
2015-07-09,-1,-0.0013309986733339688,-0.0011097026054005129,-0.003478199436445306,0.01137270667693338,0.990401492479278
2015-07-13,-1,-0.0006172960310922992,-0.0004726762088098415,-0.003478199436445306,0.01078329374282072,0.9912036586923862
2015-07-15,-1,-0.00040052708114523736,-0.0003030046284072446,-0.006989853795265436,0.01078329374282072,0.9901837828163415
2015-07-17,-1,-0.0002076911385421855,-0.00013966539089385754,-0.006989853795265436,0.01078329374282072,0.9906914680933904
2015-07-21,1,0.00032032216455704784,0.0003417062370629686,-0.006989853795265436,0.00837482766153834,0.9918894356856707
2015-07-23,1,0.00034816747495614064,0.00035239234131882345,-0.010907329965134865,0.006843484955511636,0.9910538228134244
2015-07-27,-1,-0.0025201210558473894,-0.0022664609512408835,-0.012307414587053936,0.006843484955511636,0.9873120965848784
2015-07-29,1,0.0007175139655452014,0.0007897562154568347,-0.014086209073513125,0.007589975958275187,0.9847794103406985
2015-07-31,1,0.00013515820226107895,0.0002633670673670838,-0.014086209073513125,0.01078329374282072,0.9838779043556793
2015-08-04,1,0.0011560627164794988,0.0011832430280990223,-0.02160793416091558,0.007589975958275187,0.9812692184994501
2015-08-06,1,0.0015397887373004705,0.0016363719631875947,-0.02160793416091558,0.007650980058853385,0.980850768769121
2015-08-10,1,0.001912390511895262,0.0020506373782942073,-0.02160793416091558,0.006602202421283318,0.9796566849324188
2015-08-12,1,0.0014362987905466404,0.0015057722932723058,-0.02160793416091558,0.007242160489963541,0.9805226412517196
2015-08-14,1,0.0011001544480496203,0.0011058631400446069,-0.02160793416091558,0.007242160489963541,0.980533321712052
2015-08-18,1,0.0013358901524070908,0.0013681905384633104,-0.02160793416091558,0.009894024016650994,0.9801447149938883
2015-08-20,1,0.00030371451428248944,0.0003916819687805952,-0.02160793416091558,0.009894024016650994,0.9803058712507995
2015-08-24,1,0.0006598332133577887,0.0007097085344550519,-0.01606022949875959,0.013146279420640755,0.9836935569444573
2015-08-26,1,0.0008748855717165768,0.0008905541765137541,-0.011507358155446993,0.009894024016650994,0.9864280895961809
2015-08-28,1,0.0014009758729140028,0.0014609898896386043,-0.01606022949875959,0.009894024016650994,0.9851093184675138
2015-09-01,1,0.00048282745057767724,0.0005361826548337925,-0.009095233391777278,0.013146279420640755,0.986914415172795
2015-09-03,1,0.0009825793223213143,0.0009965832278854214,-0.009095233391777278,0.009894024016650994,0.9875372126634057
2015-09-08,1,0.0010954583165256083,0.00112355290007553,-0.00795771749110187,0.009894024016650994,0.9881262469587393
2015-09-10,1,0.0010258965525957585,0.0010348397858821455,-0.005552462213317717,0.013146279420640755,0.9879714139281623
2015-09-14,1,0.001560186538547165,0.0017134823870978524,-0.00836507723023042,0.013146279420640755,0.9877410320913083
2015-09-16,1,0.0016232252863262605,0.0017513718663530638,-0.011469513290780336,0.00958562121361951,0.9867630863551767
2015-09-18,1,0.001335636688137333,0.0014549055459570364,-0.00836507723023042,0.014692215503772622,0.9871226138326809
2015-09-22,1,0.001111114936942567,0.0011726472116103297,-0.007771784838599326,0.015691181559373105,0.9868544186248318
2015-09-24,1,0.0011275045512033682,0.001229221100071087,-0.008412301800430963,0.01881119713561785,0.9859515045741871
2015-09-28,1,0.0007277637850625867,0.0007593664031534833,-0.00805763536669818,0.015691181559373105,0.9878861919681132
2015-09-30,1,0.0015023791767630745,0.001641229200747029,-0.00805763536669818,0.016031959222171228,0.9871947837688941
2015-10-02,1,0.002133472720910779,0.0023519234040695687,-0.010023653151970456,0.016031959222171228,0.985826644625504
2015-10-06,1,0.0020358825103385615,0.002237520195814165,-0.010023653151970456,0.014495486086446444,0.9863356485080893
2015-10-08,1,0.002633187582304009,0.002917826061779312,-0.010023653151970456,0.014913244081647266,0.9862753382181316
2015-10-12,1,0.001985425420955204,0.0021833132229105924,-0.010396387407102387,0.017285233207773698,0.9854779026296606
2015-10-14,1,0.0012810734114770085,0.00137178872252005,-0.00805763536669818,0.017285233207773698,0.9868011626125033
2015-10-16,1,0.0021471954893930605,0.0023733681664501708,-0.010396387407102387,0.014913244081647266,0.9868422338902252
2015-10-20,1,0.002367282020466302,0.002590922617199948,-0.010396387407102387,0.014405725141409403,0.9881960862981107
2015-10-22,1,0.002493800055348633,0.0027277055845385863,-0.009332388105904036,0.014405725141409403,0.9882132241457875
2015-10-26,1,0.0022594255505259727,0.002453447011328094,-0.006164576425350473,0.010702050087936486,0.9889262143539991
2015-10-28,1,0.0034959647192563427,0.0038562677091415684,-0.005839540788450044,0.006936866150523727,0.9902879747152676
2015-10-30,1,0.002281980367250164,0.0024904150284508664,-0.001713682350822201,0.006936866150523727,0.9919980774040082
2015-11-03,1,0.002876727722275444,0.0031540326368165597,-0.0025059423016317553,0.00504074641352879,0.9920803698197914
2015-11-05,1,0.0029874380782714933,0.003262198719549099,-0.0052889404842779856,0.00504074641352879,0.9911015292183032
2015-11-09,1,0.002976450484082781,0.003250157931014962,-0.009697239950676692,0.0024008264772257745,0.9913664680696375
2015-11-11,1,0.0029228684084232465,0.003181949547630591,-0.010237344866373432,0.0005709564008966838,0.9903537603022623
2015-11-13,1,0.0022158386882089485,0.0023704520669335163,-0.009697239950676692,0.0005709564008966838,0.9898864543358998
2015-11-17,1,0.0021905917656208094,0.002327185451114485,-0.009697239950676692,0.002628392067201402,0.9876853552410734
2015-11-19,1,0.002316419571108568,0.0024376863262058164,-0.010932195061787747,0.0005709564008966838,0.9859392766878053
2015-11-23,1,0.0019345568094722683,0.001996599695132445,-0.010932195061787747,0.006592426499072722,0.9857998726490171
2015-11-25,1,0.002098900586569707,0.002187642151210675,-0.010932195061787747,0.008886757643679105,0.98544161956534
2015-11-30,1,0.0013596168965867138,0.0014044011714750273,-0.010932195061787747,0.0093632027235486,0.9851436437444223
2015-12-02,1,0.001584021159361287,0.0016156314019990419,-0.010932195061787747,0.0093632027235486,0.9848982155117972
2015-12-04,1,0.002160924740902137,0.0022653502527491486,-0.012345781370910913,0.008886757643679105,0.984669893711933
2015-12-08,1,0.0012072542717909442,0.001225663119024097,-0.02513624190406258,0.008886757643679105,0.983585962974306
2015-12-10,1,0.0012493836129738312,0.0012849212020972804,-0.02513624190406258,0.008886757643679105,0.9834530209793286
2015-12-14,1,0.00039358955431208643,0.0004679648522527119,-0.02513624190406258,0.008886757643679105,0.9839211880554343
2015-12-16,1,0.0018186024786858153,0.0019003649747218136,-0.02521563297354423,0.0082085266689802,0.9837091786384757
2015-12-18,1,0.0004667649578136651,0.0005557181560138622,-0.01995422913686923,0.0082085266689802,0.9861908704227423
2015-12-22,1,0.0008427338680634204,0.0009108823692567651,-0.025145933454014616,0.007455103111647926,0.9841723379920376
2015-12-24,1,0.0008309505128852685,0.0008810663648112092,-0.025145933454014616,0.007455103111647926,0.9828331469336223
2015-12-29,1,0.0012167789338905673,0.0012302048159311663,-0.025145933454014616,0.0049611823491559634,0.9831190848134699
2015-12-31,1,0.0011210319333321147,0.0011223659943390438,-0.025145933454014616,0.007455103111647926,0.9817216216056104
2016-01-05,1,0.000511463924074832,0.0005937118524085056,-0.025145933454014616,0.007455103111647926,0.9819083179786017
2016-01-07,-1,-0.0006033489201320076,-0.0003641401182192254,-0.018645615250926523,0.010195559050290993,0.9830383205844141
2016-01-11,-1,-0.0004539016174342939,-0.0003007357397593743,-0.023084836848967755,0.010939409953616884,0.982155936969143
2016-01-13,-1,-0.0017590465423018686,-0.0014288796512678102,-0.02101737482231977,0.010939409953616884,0.9832402024634741
2016-01-15,-1,-0.001428212854073118,-0.0011597099703601324,-0.015484695545069094,0.018643370862135328,0.9829092971948358
2016-01-20,-1,-0.00141666615890656,-0.001125071132166452,-0.015484695545069094,0.018643370862135328,0.9827267216621896
2016-01-22,-1,-0.0017676673306423031,-0.0014494323705123752,-0.013746911033611465,0.015176646823656164,0.9841102030531863
2016-01-26,-1,-0.002051779233079856,-0.0016611843801354687,-0.011454007914802777,0.012047014619676,0.9852862259102908
2016-01-28,-1,-0.0022369676831293494,-0.0018337581110806612,-0.011454007914802777,0.01652029792680923,0.9833035792452489
2016-02-01,-1,-0.0021244032733871436,-0.0017610448310734958,-0.011454007914802777,0.01652029792680923,0.982522278716127
2016-02-03,-1,-0.001818697211641606,-0.0014816479935428322,-0.010481985736091552,0.017076737747240486,0.9829523378130168
2016-02-05,-1,-0.0025168272431576946,-0.002093478916727338,-0.008814444490097544,0.016291357590944154,0.9834862083693218
2016-02-09,-1,-0.0014446894546258568,-0.001171017136485212,-0.009612686903697834,0.016291357590944154,0.9846963979133583
2016-02-11,-1,-0.0026272606415030653,-0.0021854377339882063,-0.00853764110596196,0.017956549854540094,0.9840726300928885
2016-02-16,-1,-0.0012367349393785495,-0.0009660938835702775,-0.00853764110596196,0.014762226547647335,0.9869133568822628
2016-02-18,-1,-0.0016192017688167076,-0.0012916332515193112,-0.008337595907550397,0.014762226547647335,0.9872406357122284
2016-02-22,-1,-0.0008184838774316596,-0.0005554701697926926,-0.008337595907550397,0.016291357590944154,0.987552363350671
2016-02-24,-1,-0.0003747436565807718,-0.00020376215130403545,-0.007586277502981568,0.016291357590944154,0.9876517284987175
2016-02-26,1,0.0006837636418301967,0.0006954001635718906,-0.007586277502981568,0.008064787952862867,0.9889900398887593
2016-03-01,1,0.0013978761540668532,0.0014798252070928972,-0.007586277502981568,0.006041198198576976,0.9911848275911912
2016-03-03,1,0.0018092646642583624,0.0019839069154327215,-0.00839397341346991,0.0031859205302805604,0.991604381150247
2016-03-07,1,0.0018983411092243425,0.0020541809408674634,-0.008646891592156584,0.002781008379195785,0.9911606365338138
2016-03-09,1,0.000500560286076958,0.0005624015020307992,-0.00839397341346991,0.0033835368313598468,0.9906391215751034
2016-03-11,1,0.0015925066890040923,0.0017102713804891298,-0.00839397341346991,0.0033835368313598468,0.9912089142325634
2016-03-15,1,0.0017724504630015634,0.0019380572092546644,-0.00839397341346991,0.006119670135655341,0.9892721363235057
2016-03-17,1,0.0019395189856582103,0.0021376075531651197,-0.007397470346808945,0.007440871527152122,0.9893322441939209
2016-03-21,1,0.002142014252927999,0.0023536612108316255,-0.007397470346808945,0.008253330223083475,0.9893017282809559
2016-03-23,1,0.0005651154828612062,0.000795042032687973,-0.005737418104398985,0.012195494177120427,0.987814741495736
2016-03-28,-1,-0.00011375590318981089,-6.06681272542095e-05,-0.006224942395890779,0.012195494177120427,0.9870037967356644
2016-03-30,1,0.00022096206689716825,0.00038293581772652115,-0.005164039361688138,0.012683876441353053,0.987168831743167
2016-04-01,1,0.0022253936356300217,0.002513142169214758,-0.0065128530437289665,0.012683876441353053,0.9870069928922305
2016-04-05,1,0.0025968389601208584,0.002869696754328701,-0.0065128530437289665,0.013320556840986295,0.9861118199958143
2016-04-07,1,0.002167437921122106,0.0023899687387454903,-0.0065128530437289665,0.013320556840986295,0.9875136314963231
2016-04-11,1,0.002010768404875344,0.002173698290712657,-0.0065128530437289665,0.013320556840986295,0.987844156572896
2016-04-13,1,0.0037635749782801643,0.004167143799532452,-0.00927076738922227,0.013320556840986295,0.9888636443117027
2016-04-15,1,0.0034816363330085007,0.003867106567776688,-0.00927076738922227,0.013320556840986295,0.9886213091919761
2016-04-19,1,0.004101882605758776,0.004554517094790091,-0.00927076738922227,0.009926653574347171,0.9891134805622118
2016-04-21,1,0.005018258893882051,0.005668207729027311,-0.00927076738922227,0.007916232304660863,0.9887124519313766
2016-04-25,1,0.004929205103312826,0.005486458185516123,-0.007960583788163595,0.006310125835529137,0.9892158726734501
2016-04-27,1,0.0037661683553457375,0.004442301314508687,-0.007960583788163595,0.008883901766098354,0.9892695817543834
2016-04-29,1,0.005002668074028101,0.005578660489643401,-0.005082096302669869,0.008883901766098354,0.9901598979867489
2016-05-03,1,0.004295116266650561,0.004724732943280327,-0.004440309920597875,0.006310125835529137,0.9915670652483601
2016-05-05,1,0.0025672823556467748,0.003055418845142756,-0.004440309920597875,0.006310125835529137,0.9915534374988718
2016-05-09,1,0.003290007900488948,0.0034703669509472236,-0.005609827124879368,0.008883901766098354,0.9902667319673297
2016-05-11,1,0.0035910308811201415,0.003993195747237278,-0.005609827124879368,0.006310125835529137,0.991041895248438
2016-05-13,1,0.0030842170786318764,0.0032491321471056897,-0.00697598708543952,0.006310125835529137,0.9907610973185809
2016-05-17,1,0.003534330411295899,0.0037997851394719513,-0.007715546810897237,0.005752179890849859,0.9897606325221436
2016-05-19,1,0.003764833629482214,0.004035639124728877,-0.007156347625241408,0.004815554293665806,0.9910281284080277
2016-05-23,1,0.0031506057873056806,0.0034081062999489183,-0.007156347625241408,0.004815554293665806,0.9912575390635624
2016-05-25,1,0.004274567678031862,0.004600368021780239,-0.007156347625241408,0.004096687161222259,0.9909033056919441
2016-05-27,1,0.0031108874349253185,0.0035238913044172513,-0.009771964736229204,0.0030438533592136397,0.9847154274579084
2016-06-01,1,0.0026983161382282224,0.0029924177912731284,-0.009771964736229204,0.005213966302055658,0.9828274609545442
2016-06-03,1,0.0021355053911322093,0.0023373739525548534,-0.009771964736229204,0.01197826275948531,0.9819526085490636
2016-06-07,1,0.0017182084717032647,0.0018325834460149518,-0.012326783028703586,0.005882489996850594,0.9820201270122336
2016-06-09,1,0.001576141026495919,0.0016437673181959002,-0.012326783028703586,0.013878949757596142,0.9812750532682251
2016-06-13,1,0.0009936603395223535,0.0010213741094255615,-0.006811334256921226,0.01955265230235982,0.9811509170220578
2016-06-15,1,0.00017762656287585238,0.00032167268945152284,-0.0024853633231299273,0.01955265230235982,0.9817464554811685
2016-06-17,1,0.00024830274542542906,0.000358263744500472,0.0008857229604562036,0.01955265230235982,0.9817486288735786
2016-06-21,1,0.00010025651843863654,0.0002442680792635293,-0.0006153991150541068,0.01955265230235982,0.981502730505567
2016-06-23,1,0.0008713353748319463,0.0009271715873639531,-0.009344594008295883,0.016296913207867473,0.9806081756747093
2016-06-27,-1,-0.0025461382832331356,-0.0020774892852462425,-0.00013106212290194767,0.016296913207867473,0.9852571938917699
2016-06-29,-1,-0.0009532632594578006,-0.0006570561091884989,-0.0027713394359231715,0.012566892482616852,0.9883250083792537
2016-07-01,-1,-0.0010640125294293905,-0.000735185995377362,-0.003948283650062513,0.009265291765772742,0.9897394671296208
2016-07-06,-1,-0.00250509480264196,-0.001953159132623296,-0.003948283650062513,0.011133852050154915,0.9898325899289689
2016-07-08,-1,-0.00119316402557401,-0.0008835693917194923,-0.005184539075063786,0.008956233321319897,0.9894044038248948
2016-07-12,-1,-0.0007463664363233701,-0.00047989716109520723,-0.005917074452623277,0.0077494097676282046,0.9901649462388904
2016-07-14,-1,-0.00027758780344248034,-0.00010094219292291568,-0.0072638061791369755,0.0077494097676282046,0.9897967364382252
2016-07-18,-1,-0.0004639850740322356,-0.00024528899581678263,-0.007663610144767231,0.008955800777748562,0.9892387007741336
2016-07-20,0,-4.573108036032248e-05,7.380610996649765e-05,-0.007663610144767231,0.008955800777748562,0.9893150077665971
2016-07-22,-1,-0.00023161310317286162,-0.00012084429613560974,-0.0072638061791369755,0.006209327658446153,0.9917423575771297
2016-07-26,1,2.2660243336913773e-05,7.25299535649812e-05,-0.0072638061791369755,0.0051404021508245695,0.9924083991043604
2016-07-28,1,0.00032898735808584915,0.00033075501564596197,-0.0072638061791369755,0.0051404021508245695,0.9925993906887972
2016-08-01,-1,-0.0006521077050597904,-0.000492225744976662,-0.004959586764320188,0.006441414671679994,0.9923788864866518
2016-08-03,-1,-0.00021035106635810673,-0.00011902829417219124,-0.002362597677375668,0.006441414671679994,0.992918443225441
2016-08-05,1,0.0006564147771299186,0.0006579815595384669,-0.002362597677375668,0.005615172672216541,0.9949592665970117
2016-08-09,1,0.00011098990153392412,0.0001800292913265615,-0.004119515635292665,0.005615172672216541,0.9949263807961853
2016-08-11,1,0.0001750459297325958,0.00021588036030499965,-0.004119515635292665,0.005615172672216541,0.9949223570316903
2016-08-15,0,-7.924096432064158e-05,1.554702450382386e-05,-0.004119515635292665,0.005615172672216541,0.9943231707991956
2016-08-17,-1,-0.0001795614480567838,-6.60097301595923e-05,-0.004206382016530567,0.006379247018389635,0.9941751028129028
2016-08-19,-1,-0.0002938789398643319,-0.00015141079009466953,-0.004635251508417936,0.006379247018389635,0.9932513209318409
2016-08-23,-1,-0.000498283570922403,-0.00032678454547334487,-0.004635251508417936,0.007708875882026729,0.9928478843504095
2016-08-25,-1,-0.0005784998529751558,-0.00037318611531045635,-0.004635251508417936,0.007708875882026729,0.9929028890557774
2016-08-29,-1,-0.0005671278820685444,-0.0003265157802874169,-0.004826956926890084,0.0038097126087734967,0.9930289092333499
2016-08-31,-1,-0.0003632991113435138,-0.00014974029630908988,-0.00646670045363588,0.002591910839048476,0.993013708420395
2016-09-02,1,0.0003853164596212068,0.00042373297449886833,-0.00646670045363588,0.002591910839048476,0.9919370485403187
2016-09-07,0,-9.459580543440114e-05,4.001303203921881e-06,-0.00646670045363588,0.007850512443363602,0.9911130884658582
2016-09-09,1,3.669288111014682e-06,5.468190039489054e-05,-0.004800565150305951,0.007850512443363602,0.9915515419218655
2016-09-13,1,0.0004989893745818842,0.0005831442637131573,-0.004800565150305951,0.003945210662908941,0.9919423122974864
2016-09-15,1,0.0005157953181872648,0.0005949981336001483,-0.006358066912249978,0.0030973519142279563,0.9910831010554753
2016-09-19,1,0.00025970669104194747,0.00032800091320925805,-0.004421427580088272,0.0053069361973206485,0.9914267830442753
2016-09-21,1,0.0002543631320235771,0.00029104885745368544,-0.004421427580088272,0.009789023705367566,0.9905382502951536
2016-09-23,-1,-0.00010813309161707804,-0.00010299130071351396,-0.004421427580088272,0.013555145925148317,0.9878241747095696
2016-09-27,-1,-0.0006238764083742619,-0.0005402464972013583,-0.004023008198398676,0.013555145925148317,0.9881544748654195
2016-09-29,-1,-0.0009401006449104868,-0.0008171810644097869,-0.0028190027717265092,0.013555145925148317,0.9882026059175836
2016-10-03,-1,-0.00042035895515982473,-0.0003709169641722232,-0.004023008198398676,0.010706817669327852,0.9891769705022485
2016-10-05,1,0.00017783553419561553,0.00019044075198863447,-0.0043745081920193015,0.008702083646068368,0.9899233270797764
2016-10-07,1,0.00013105615130853563,0.00015538195593813812,-0.0043745081920193015,0.008702083646068368,0.99000022877527
2016-10-11,1,9.131144632046174e-05,0.00015172762675253956,-0.003631816863833461,0.009789023705367566,0.9896737614692203
2016-10-13,-1,-0.000229839983490586,-0.0002145963723664401,-0.0017229482706173915,0.015677988303409125,0.9884559194289693
2016-10-17,1,0.00013362751869209214,0.00023337320412197138,-0.0004631653239340795,0.017483468488558192,0.9879282532575896
2016-10-19,1,0.0009205018943169389,0.001132400997615122,-0.0017229482706173915,0.015314127024294293,0.9883007487655433
2016-10-21,1,0.0023835956583645396,0.0027986206454362495,-0.0033726851359403556,0.011362158204461455,0.9909619955749236
2016-10-25,1,0.002099531705530476,0.0024498107488650396,-0.0034512738587503325,0.011362158204461455,0.9909014144075099
2016-10-27,1,0.0023112411531703886,0.002700064440229541,-0.0034512738587503325,0.011362158204461455,0.9908289838642547
2016-10-31,1,0.0018894207130631478,0.002213405057630549,-0.0033726851359403556,0.011362158204461455,0.9908455615461672
2016-11-02,1,0.0015039422754027452,0.0017508606422102545,-0.0017116045746163092,0.012445331917427149,0.9901041929276381
2016-11-04,1,0.0013886640151995876,0.0016003717505283133,-0.0033726851359403556,0.012445331917427149,0.9891512796401488
2016-11-08,1,0.0016939325483936354,0.0019432455695362063,-0.0011565314762786182,0.011674203783318262,0.9900234031792189
2016-11-10,1,0.0028280055296937313,0.003231797670530977,-0.003417242770747085,0.011357000868478951,0.9914209067765288
2016-11-14,1,0.0039851108964381295,0.004548883227445191,-0.004745465111297297,0.008001906377928645,0.9917036724292028
2016-11-16,1,0.0014959618300521365,0.0015467663982877662,-0.0037761121528576114,0.0063345980448685025,0.9926902453567238
2016-11-18,1,0.0021783066173253853,0.0024285560001157756,-0.00647227100678761,0.0049482862231738645,0.99213147069914
2016-11-22,1,0.0019041939122533074,0.002090016502653408,-0.00647227100678761,0.0063345980448685025,0.9920058319183536
2016-11-25,1,0.001668244941338879,0.0017802486288908254,-0.00647227100678761,0.0063345980448685025,0.992083602519667
2016-11-29,1,0.0014241989834942357,0.001546045170692402,-0.004734044897395232,0.0063345980448685025,0.9924813851451458
2016-12-01,1,0.002389191784341045,0.002664332415338257,-0.006041965933051586,0.003466181672209643,0.9932829812352516
2016-12-05,1,0.0019522643765103778,0.0021649649526398283,-0.004734044897395232,0.006483677409187741,0.9934070575806073
2016-12-07,1,0.0023581832434303195,0.0026301155066398023,-0.006041965933051586,0.0038206060252544854,0.9930054102141385
2016-12-09,1,0.0022530833510260415,0.002512553076991095,-0.006041965933051586,0.002047608909853882,0.9935185059092588
2016-12-13,1,0.0017398131015840823,0.0018989160235568004,-0.006041965933051586,0.0038206060252544854,0.99338283294071
2016-12-15,1,0.0017649365201347269,0.0019366950690027228,-0.007630018358511394,0.003839342616631201,0.9922342642604988
2016-12-19,1,0.001120298063627109,0.001210637171761348,-0.007630018358511394,0.003839342616631201,0.9917688425281178
2016-12-21,1,0.0009414588364326463,0.0009790807078338326,-0.011218899566017888,0.002047608909853882,0.991148881031869
2016-12-23,1,0.0008997381520506128,0.000929502652670263,-0.011218899566017888,0.0059932646773907874,0.99017904929463
2016-12-28,1,0.0012410850683394993,0.0013644770002752078,-0.011218899566017888,0.0059932646773907874,0.9901529128388132
2016-12-30,1,0.0007604714622972632,0.0007921471899012659,-0.011218899566017888,0.0059932646773907874,0.9903252125501586
2017-01-04,1,0.0013371520948046063,0.0014375946653170523,-0.011218899566017888,0.002734414632639493,0.9910206704272834
2017-01-06,1,0.00093379849446312,0.0009820352159970024,-0.007433966495031755,0.0059932646773907874,0.9907920744756032
2017-01-10,1,0.0005269607636883372,0.000534211570398368,-0.006388476074354478,0.0059932646773907874,0.9908228091604371
2017-01-12,1,0.0004380853803775028,0.0004551504375995306,-0.0052261574037661355,0.0059932646773907874,0.9913337444715961
2017-01-17,-1,-0.0005079768133393342,-0.0003715305641205988,-0.004671079666012061,0.006856324267340811,0.9917056801718244
2017-01-19,-1,-0.001361133788347298,-0.0011361127347271302,-0.004671079666012061,0.009054258899288426,0.9922219236672413
2017-01-23,-1,-0.0017759623449714313,-0.0015240277536115172,-0.002898623875681981,0.009054258899288426,0.9924362709306206
2017-01-25,-1,-0.0008350522393331164,-0.0007058812345916215,-0.004274078156685649,0.007721430123683632,0.9937038311733594
2017-01-27,-1,-0.0010169545731007854,-0.0008639542710862488,-0.004465572900021926,0.007721430123683632,0.9936576103136338
2017-01-31,-1,-0.0011990092311967128,-0.0010082526600879676,-0.004465572900021926,0.009054258899288426,0.9922451080208473
2017-02-02,-1,-0.001391413567974153,-0.0011661015363496259,-0.004465572900021926,0.009054258899288426,0.9922742878014447
2017-02-06,-1,-0.0009616459224148536,-0.0007846263813813617,-0.004649828664922067,0.007721430123683632,0.9932544641909609
2017-02-08,-1,-0.00127456997599506,-0.001067078194806319,-0.004516210036813526,0.008708485976822423,0.9928291233364872
2017-02-10,-1,-0.0015386598579762412,-0.0012709642853837612,-0.004516210036813526,0.008454714168312005,0.9927902045097217
2017-02-14,-1,-0.000465311909280814,-0.0003386804959746362,-0.004516210036813526,0.004054393502942025,0.9942605711859607
2017-02-16,-1,-0.000835930717774833,-0.0006493236673276977,-0.004516210036813526,0.003106747095939013,0.9945627760759582
2017-02-21,-1,-0.0009446607170689318,-0.0007225260610353723,-0.005309528634897752,0.0018120967079340749,0.9936388813771078
2017-02-23,-1,-0.0014351454972583962,-0.0011368103960155591,-0.005446706190355247,0.002673907376929065,0.9935196852435605
2017-02-27,-1,-0.0015372144771348697,-0.0012414815400657586,-0.005446706190355247,0.002673907376929065,0.9936800098529921
2017-03-01,-1,-0.0002623132903483569,-0.00014166513938863054,-0.005690103783814873,0.002673907376929065,0.9940188298267224
2017-03-03,-1,-0.0009804542423584915,-0.0007613772678691318,-0.005690103783814873,0.003106747095939013,0.9934892691310019
2017-03-07,-1,-0.001576001284683521,-0.0012624334965462716,-0.005690103783814873,0.003106747095939013,0.9935547617520349
2017-03-09,-1,-0.0021066151212401573,-0.0017022768692954,-0.005690103783814873,0.003106747095939013,0.9938489936059998
2017-03-13,-1,-0.0019250575651328717,-0.0015416986933844573,-0.005690103783814873,0.001737819579736484,0.9943789008109234
2017-03-15,-1,-0.0014747485807503438,-0.0011908141093140336,-0.00604601242260363,0.002673907376929065,0.9938549131132096
2017-03-17,-1,-0.0008091316520999574,-0.0006568960196963714,-0.00604601242260363,0.0030121798816502617,0.9932765820843816
2017-03-21,-1,-0.001849280404692915,-0.0015720143759293396,-0.003950725348626579,0.0030121798816502617,0.9946819915864579
2017-03-23,-1,-0.0018998277694041357,-0.0016275203575814036,-0.0036708294394535365,0.0026701496525009345,0.9947573606895598
2017-03-27,-1,-0.0022225972954492894,-0.001904971140969944,-0.004850416056295744,0.00483631506025718,0.993759144064621
2017-03-29,-1,-0.0023643997530952655,-0.002014969377488069,-0.0036708294394535365,0.0026701496525009345,0.9946510296942797
2017-03-31,-1,-0.002588220921662536,-0.0022409821929200695,-0.0033963050717119247,0.002245170827474673,0.9954822145195461
2017-04-04,-1,-0.0018622359049923216,-0.0015947485055341842,-0.0033914521796253013,0.0029748923053278414,0.995221056453453
2017-04-06,-1,-0.0010528410242587017,-0.000960429986347172,-0.0033914521796253013,0.0029748923053278414,0.99528130504046
2017-04-10,-1,-0.000518267075831632,-0.0005116781765159091,-0.0036708294394535365,0.0029748923053278414,0.9948225420084469
2017-04-12,-1,-0.0007751305313484864,-0.0007267795097316628,-0.0036708294394535365,0.002245170827474673,0.9951475107408595
2017-04-17,-1,-0.00037877104462298193,-0.00036501154112691264,-0.003456090476036009,0.002245170827474673,0.9957594603928899
2017-04-19,-1,-0.0005217825034890371,-0.000512971337601399,-0.003837197572773835,0.002245170827474673,0.9948977107364305
2017-04-21,-1,-0.0004371614021836381,-0.0004211281113818138,-0.003446908224065401,0.0030200251825493016,0.9947776179561443
2017-04-25,-1,-0.0003214155584666334,-0.000302265510297657,-0.0023052986156325878,0.004551400270312388,0.9954201886097498
2017-04-27,1,0.00024063134779637703,0.00039431219114859187,-0.0023052986156325878,0.005082529160988278,0.9952529049545695
2017-05-01,1,6.913302521080499e-06,0.0001084800061323971,-0.0023638154107295563,0.005082529160988278,0.9951142845028011
2017-05-03,1,0.00047845470277093185,0.0006715739713821428,-0.0023638154107295563,0.005082529160988278,0.9953255724363469
2017-05-05,1,0.0006557810887300393,0.0008724254715950185,-0.0023638154107295563,0.005082529160988278,0.9954745630514157
2017-05-09,1,0.0002697059501676781,0.00041850900664502276,-0.0023638154107295563,0.005781593806044538,0.9949689606228185
2017-05-11,1,0.00031380099524675294,0.000465752839361334,-0.001602370820821032,0.0073907526946614555,0.9937624704123159
2017-05-15,1,3.36536543816372e-05,0.00010780487870017588,-0.001602370820821032,0.007755438994798144,0.9933785538545316
2017-05-17,-1,-0.000353188009301218,-0.00032142015694134143,-0.00022143340652168341,0.007755438994798144,0.9939596484625397
2017-05-19,-1,-0.00010205505996103994,-3.346920620493965e-05,0.00036870126843807,0.008098845362084413,0.9940608158422412
2017-05-23,1,0.00028148144536666785,0.00040122936019713407,-0.0024700967937488017,0.008098845362084413,0.9940944530942181
2017-05-25,1,0.0004300429936758482,0.0005564333289002044,-0.005579612697878518,0.006729326833732813,0.9941890467532161
2017-05-30,1,0.000732914421104916,0.0009509144042449423,-0.0019587674145367766,0.007750530137871038,0.994175948673809
2017-06-01,1,0.0008643969146526547,0.001082195609942627,-0.0019587674145367766,0.008470154666572484,0.9932605242893997
2017-06-05,1,0.0007701794028344743,0.0009656703232745004,-0.0019587674145367766,0.009736644981124573,0.9925181679820813
2017-06-07,1,0.0009559154748484457,0.0011716795838648784,-0.0019587674145367766,0.008760030486106664,0.992188723509283
2017-06-09,1,0.0014455294208287612,0.0016836206677888575,-0.0019587674145367766,0.008199389300370811,0.9932070887272073
2017-06-13,1,0.0008001489557034793,0.000877622313509605,-0.0019587674145367766,0.00788858027949326,0.993265030798969
2017-06-15,1,0.0004158393834737347,0.0004359640104938892,-0.0019587674145367766,0.008199389300370811,0.992557022746759
2017-06-19,1,0.0010101938854504137,0.0011161986109747752,-0.0019587674145367766,0.008904526735742309,0.9921218901940027
2017-06-21,1,0.0004735921955392659,0.0004982632309746687,-0.0004930967395622783,0.010576779369199749,0.9914725067821055
2017-06-23,1,0.00010851966257731059,0.00012767636403177382,4.9915219448540515e-05,0.010576779369199749,0.99117769823316
2017-06-27,1,0.00037177904180106893,0.0003912466180942042,-0.0018734232830114061,0.010576779369199749,0.9912119372625705
2017-06-29,1,0.001397652677031629,0.001570831521157816,-0.006721666560795496,0.008904526735742309,0.9919596121514981
2017-07-03,1,0.0016056488961353485,0.0017798904709101023,-0.006721666560795496,0.008904526735742309,0.9919394209923411
2017-07-06,1,0.001285090390029151,0.0014325436632595008,-0.0044196799591283194,0.007807217085286841,0.9929926836559183
2017-07-10,1,0.002032845812290967,0.0023238037215707725,-0.005885965243192853,0.006078471518660688,0.9931636923610642
2017-07-12,1,0.001772483859531405,0.0020334581584934034,-0.004272355416862427,0.006078471518660688,0.9935681059752486
2017-07-14,1,0.0023509040954042618,0.0026946824255144083,-0.005885965243192853,0.004701405026348077,0.992178944442226
2017-07-18,1,0.0028780011863600956,0.0032842349206505957,-0.005885965243192853,0.005161170805909677,0.9924063379352813
2017-07-20,1,0.002912288524975164,0.003313321663677508,-0.005885965243192853,0.004701405026348077,0.9920604476482534
2017-07-24,1,0.0031096034045004356,0.0035631532072342023,-0.005244638303344414,0.005094753967127542,0.9925969842707905
2017-07-26,1,0.0027082262070795395,0.003085604681024482,-0.004107687951001578,0.005857907987027249,0.9927680503240752
2017-07-28,1,0.001997125781144457,0.002267923956317591,-0.0019150903926283248,0.005857907987027249,0.9932766591064274
2017-08-01,1,0.0026893926628501663,0.0030624432412267393,-0.0038527405130737388,0.004626765164592088,0.993207777586907
2017-08-03,1,0.002943680034152304,0.0033558905300395056,-0.0038527405130737388,0.004781614292745437,0.9931082612373394
2017-08-07,1,0.0027818477319570406,0.003168145940760464,-0.0038527405130737388,0.004781614292745437,0.9922756375987382
2017-08-09,1,0.002682601481280957,0.003015290138044747,-0.005614351618626504,0.004760675502236206,0.9912682009338278
2017-08-11,1,0.0008365872943662468,0.0008566429848615621,-0.0038527405130737388,0.005335381766319622,0.9926443584796821
2017-08-15,1,0.0011234401329402641,0.0011757295735669079,-0.005614351618626504,0.003533329308529412,0.9926421807794272
2017-08-17,-1,-0.0001528051497471822,-4.281344646767506e-05,-0.004387121294216677,0.005335381766319622,0.9930355272518364
2017-08-21,-1,-0.00020867815729967083,-0.00013406295091914527,-0.004387121294216677,0.005531610273119521,0.9929160008292469
2017-08-23,1,0.0003422548087727692,0.0003523790153253239,-0.004387121294216677,0.005531610273119521,0.9931732906855685
2017-08-25,1,7.510978642662963e-05,0.00011035925865911942,-0.004387121294216677,0.005531610273119521,0.9930693519814637
2017-08-29,-1,-0.00039106673872834263,-0.0003044824547038385,-0.001960976175015884,0.006661745676444015,0.9928613232170269
2017-08-31,-1,-0.0004737591876038263,-0.0003751094673069937,-0.001960976175015884,0.006661745676444015,0.9928957593439204
2017-09-05,-1,-0.0015924599144139834,-0.0013560490555504499,-0.001098515446249777,0.007290810697475019,0.9928143409879471
2017-09-07,-1,-0.0022749647572396685,-0.0019679056859460446,-0.0002384549733262269,0.00853917974067474,0.9926671719095137
2017-09-11,-1,-0.0015784870369195281,-0.0013461265349911109,-0.001098515446249777,0.007290810697475019,0.9943234097614737
2017-09-13,-1,-0.0014769934403258227,-0.0012554429204071345,-0.0002384549733262269,0.006661745676444015,0.9945477365905695
2017-09-15,-1,-0.001277228571212138,-0.0010766975960187102,-0.0010350740329445186,0.0061995679591797465,0.9954478464676102
