JNU-Tangyin/eata/results/Batch4_SP500/Batch4_SP500-BAX.csv
Date,Action,Predicted_Q25,Predicted_Q75,Actual_Q25,Actual_Q75,RL_Reward
2010-12-14,0,0.0,0.0,-0.008785132448283502,0.0045950954500210694,0.9920671568608024
2010-12-16,0,0.0,0.0,-0.009214259005600328,0.004194576646130958,0.9915911987720641
2010-12-20,0,0.0,0.0,-0.008785132448283502,0.008622733221283166,0.9917412086108978
2010-12-22,0,0.0,0.0,-0.008785132448283502,0.005861352423817443,0.991575805118977
2010-12-27,1,0.0009231131807631731,0.0009998269809968023,-0.008785132448283502,0.005861352423817443,0.9905221615177439
2010-12-29,1,0.00043599012527018705,0.0004846277521185449,-0.00933428433582778,0.005861352423817443,0.988942877061458
2010-12-31,1,0.000652791647910992,0.0006808815623021887,-0.00933428433582778,0.005861352423817443,0.9886615827542441
2011-01-04,0,0.0,0.0,-0.009019501940603268,0.005861352423817443,0.9890243816393091
2011-01-06,0,0.0,0.0,-0.008328046640288455,0.0039703571518414915,0.9897727912572508
2011-01-10,1,0.00045627444903566705,0.0006613787091596346,-0.004405684574369653,0.005538608290048346,0.9903120963688224
2011-01-12,0,0.0,0.0,-0.004405684574369653,0.005007054760980936,0.9911710622130671
2011-01-14,0,0.0,0.0,-0.0026777029513036033,0.005538608290048346,0.9899262797071264
2011-01-19,-1,-0.0012913884812637956,-0.0008914470928584107,-0.002316124380685764,0.005538608290048346,0.9901420731604841
2011-01-21,-1,-0.002909077387703247,-0.0022763330602656924,-0.0020162818208489756,0.007384529358630942,0.9900177956988474
2011-01-25,-1,-0.0009159239725500224,-0.0006191380024109019,-0.0026777029513036033,0.005538608290048346,0.9911508548325448
2011-01-27,-1,-0.001948363393891547,-0.0015671282976855185,-0.002316124380685764,0.007384529358630942,0.9920028731337299
2011-01-31,-1,-0.002617065605046893,-0.0020682747981053823,-0.002068979682877926,0.010332079703389292,0.9904960786466847
2011-02-02,0,0.0,0.0,-0.002068979682877926,0.014024188945020118,0.989441486302843
2011-02-04,0,0.0,0.0,-0.002488354825756334,0.014024188945020118,0.9889767950714737
2011-02-08,-1,-0.002224663415999134,-0.0018094317958514711,-0.002488354825756334,0.014024188945020118,0.9893041456244845
2011-02-10,-1,-0.0015033079824226551,-0.0012041400870956064,-0.005646587964794344,0.010533858063033327,0.9889687172769644
2011-02-14,1,0.0003140617158843668,0.0003394997808814872,-0.011523719639504902,0.009201384540800186,0.9894510772249261
2011-02-16,1,0.0008643224991741706,0.000929937607819634,-0.013060387991364301,0.009201384540800186,0.9883678392689154
2011-02-18,1,0.0008470039921611391,0.0008866742489165544,-0.013060387991364301,0.014019391522017737,0.9874227388309973
2011-02-23,-1,-0.00011295085721957132,-2.446513646224579e-05,-0.009907804979778395,0.014019391522017737,0.9886321275125534
2011-02-25,0,0.0,0.0,-0.009907804979778395,0.01306749566396806,0.9885314626067383
2011-03-01,0,0.0,0.0,-0.005651971484276847,0.010247708767422467,0.9895796476052189
2011-03-03,-1,-7.203731388105825e-07,-6.400277554638681e-07,-0.005651971484276847,0.010247708767422467,0.990829621616051
2011-03-07,0,0.0,0.0,-0.0036722046092425584,0.010247708767422467,0.9910763053781726
2011-03-09,0,0.0,0.0,-0.005651971484276847,0.010247708767422467,0.9904530555376766
2011-03-11,1,0.0005869898661368967,0.000610731481694971,-0.004346921960702941,0.008621100124345764,0.9914492423674262
2011-03-15,-1,-6.007209160521909e-05,-1.9263172980329965e-05,-0.00324584005163167,0.010872641696836657,0.9921889154725383
2011-03-17,0,0.0,0.0,-0.0033295382212927167,0.007984865233838918,0.9934719252943466
2011-03-21,0,0.0,0.0,-0.0036020043896180395,0.007194072664122675,0.9930813528768725
2011-03-23,0,0.0,0.0,-0.0036020043896180395,0.007984865233838918,0.9923905979849131
2011-03-25,0,0.0,0.0,-0.004364947283236211,0.007984865233838918,0.9908232390068392
2011-03-29,0,0.0,0.0,-0.004364947283236211,0.011118111509953744,0.9904323367377408
2011-03-31,1,0.001824656973956645,0.0020514145428212776,-0.0051807479349251905,0.007984865233838918,0.9909685207326766
2011-04-04,1,0.001872580735473012,0.00210540322481393,-0.0051807479349251905,0.010796814640220531,0.9904637215051991
2011-04-06,1,0.0016893999131918592,0.0019069604573060317,-0.0051807479349251905,0.010796814640220531,0.9903172248659521
2011-04-08,1,0.0014291661246482374,0.001591777986012368,-0.0051807479349251905,0.012939924736165086,0.9894247053545124
2011-04-12,1,0.001281822991652515,0.0014160481090479925,-0.00628090991772173,0.012939924736165086,0.98945298485118
2011-04-14,1,0.0013565019282507965,0.0015233111485537351,-0.0049963445706417585,0.012939924736165086,0.9894310553742304
2011-04-18,1,0.0008714027668880141,0.0009170205918742265,-0.002925984315467079,0.011809263761781978,0.9907174281827198
2011-04-20,1,0.0011492325162351946,0.0012361987653511921,-0.002097058392239509,0.011456532340599162,0.9911342577266551
2011-04-25,1,0.0012648391186175305,0.0013321459500414063,-0.002097058392239509,0.00939895254968007,0.9923659164410852
2011-04-27,1,0.002020542910268926,0.0022131859695389043,-0.0032927049763992592,0.008133225894684756,0.9925871805938782
2011-04-29,1,0.0016498761498743779,0.0017793862025561784,-0.0024434634182894837,0.008133225894684756,0.9928034210502102
2011-05-03,1,0.0021673930030147405,0.002362859509409938,-0.003548781879108972,0.007185876905654821,0.9925953966889196
2011-05-05,1,0.0018787822307734141,0.0020522662440749344,-0.003548781879108972,0.007185876905654821,0.9926376870729193
2011-05-09,1,0.003034607187451098,0.003414797046782888,-0.005278034269480809,0.006814483384627137,0.9929139404983962
2011-05-11,1,0.0025084983612454407,0.0028054121919875315,-0.005215900703327265,0.007185876905654821,0.9922779619203309
2011-05-13,1,0.0023110679600910856,0.002541321425032694,-0.006152177712462558,0.007024688242412869,0.9915401453866226
2011-05-17,1,0.002236561737921863,0.0024599357334800093,-0.007896986991084251,0.007024688242412869,0.9909712478960729
2011-05-19,1,0.002273758048959249,0.002499666111395269,-0.007896986991084251,0.006814483384627137,0.9912195157066174
2011-05-23,0,0.0,0.0,-0.006152177712462558,0.007024688242412869,0.9910834947733468
2011-05-25,0,0.0,0.0,-0.006984370720168949,0.007024688242412869,0.99109662587902
2011-05-27,1,0.0009251865027839433,0.0010012838611382154,-0.00882829037511963,0.0073053837310009745,0.9905088132321415
2011-06-01,0,0.0,0.0,-0.006462612173807684,0.007637709899496701,0.9910512309418803
2011-06-03,0,0.0,0.0,-0.005215900703327265,0.008636397201073839,0.9910699011158588
2011-06-07,0,0.0,0.0,-0.0032178543399939436,0.008743333522488154,0.9912598198128888
2011-06-09,0,0.0,0.0,-0.002304829151995415,0.00767335533996814,0.9920706260027963
2011-06-13,0,0.0,0.0,-0.002304829151995415,0.00767335533996814,0.9923959804624778
2011-06-15,0,-2.0099670413486483e-05,9.456284944146023e-05,-0.0022000802604758064,0.00691355345528071,0.9928947274846381
2011-06-17,1,0.0007326979220912363,0.0007602690436454088,-0.0025346626701486016,0.00691355345528071,0.9926355294447753
2011-06-21,1,0.0004694026141615084,0.0005512830085966626,-0.0043512307523272285,0.00691355345528071,0.9927493944435972
2011-06-23,1,0.00010034380977024974,0.00024208512002121395,-0.0043512307523272285,0.00767335533996814,0.9916969880125123
2011-06-27,0,-0.0001492820422037672,2.7060838391103153e-05,-0.0073555340114666275,0.007236497913061,0.9915574952900849
2011-06-29,1,2.5051780808550412e-05,0.0002129939737187535,-0.009072333048066676,0.006300843296399492,0.9905874869634629
2011-07-01,1,0.00027534717053734494,0.0004220034349311,-0.009567154710711224,0.006108694737192733,0.9898343144113921
2011-07-06,1,0.0005423667720304974,0.0006515246689258159,-0.010303186980539482,0.005657365569966174,0.9888221322347618
2011-07-08,1,0.0010232361157723384,0.001048948937663356,-0.012683250624807567,0.003201538283983611,0.9869766643742964
2011-07-12,1,0.000914484887434198,0.0009178197025222262,-0.012683250624807567,0.0033600816849881257,0.9832107737296453
2011-07-14,1,0.0013686388123260486,0.0014475035252778496,-0.01801464415229647,-0.0017284725029921258,0.979837649880476
2011-07-18,1,0.000558159280052081,0.0006310216908660623,-0.01801464415229647,0.013775407697766485,0.979478323667715
2011-07-20,1,0.0008490862093791604,0.000868969875183256,-0.01801464415229647,0.005055113907090849,0.9802275966858469
2011-07-22,1,0.001075502465270051,0.0010777429916323748,-0.02276464667705172,0.0015857720962084345,0.9798733025837881
2011-07-26,1,0.0008850069803872372,0.0009045874105617145,-0.02276464667705172,0.006136050411226117,0.9789851204364411
2011-07-28,-1,-0.0004505733438193841,-0.00028766641494596133,-0.023364188003209323,0.008943767021957177,0.979212827210024
2011-08-01,-1,-0.001351788577258484,-0.0010780024924713712,-0.023364188003209323,0.01645516100630822,0.978151018373134
2011-08-03,-1,-0.0024414839728964556,-0.002025450077949708,-0.012961310930285986,0.01645516100630822,0.9783770215185542
2011-08-05,-1,-0.004554682431843572,-0.0038322517652996315,-0.013816399434880203,0.01645516100630822,0.9787805296634137
2011-08-09,-1,-0.005651851704513656,-0.004794710504669872,-0.00923269046785178,0.01645516100630822,0.9816953236258538
2011-08-11,-1,-0.00448650648247821,-0.0038217801507795745,-0.011412285199642023,0.013775407697766485,0.983937110440786
2011-08-15,-1,-0.003548511766077054,-0.002981169653753132,-0.011412285199642023,0.010584396719873062,0.9847422982071913
2011-08-17,-1,-0.00368165394593225,-0.003112284624210919,-0.011412285199642023,0.016988138372528203,0.9830008500826029
2011-08-19,-1,-0.004928389924711716,-0.004219642228157469,-0.011412285199642023,0.016988138372528203,0.9828202279682601
2011-08-23,-1,-0.0032941541388982467,-0.0027970394610512695,-0.013998397460494652,0.014040222866150488,0.9834402465563609
2011-08-25,-1,-0.0037537559275561344,-0.0032157563003616238,-0.013998397460494652,0.014040222866150488,0.9829742260499083
2011-08-29,-1,-0.0025536311792096833,-0.002136628307022029,-0.013998397460494652,0.013850353030090915,0.9833096673671424
2011-08-31,-1,-0.0020995074420796273,-0.0017329833421225326,-0.013998397460494652,0.013850353030090915,0.983556815853445
2011-09-02,-1,-0.003125692536396413,-0.0026580992635968554,-0.013998397460494652,0.013850353030090915,0.9826863228166971
2011-09-07,-1,-0.0024197822313156,-0.0020141993470664016,-0.013998397460494652,0.01270426318651226,0.9834495007818822
2011-09-09,-1,-0.00394560043038715,-0.0033665994863467026,-0.001873641032964528,0.013410686321781043,0.9833830492225661
2011-09-13,-1,-0.003252707499850546,-0.0027705367054635215,-0.0069382469351295705,0.014764748796424101,0.9827160242052031
2011-09-15,-1,-0.001196039454586352,-0.0010059918581269579,-0.016636730466360317,0.013410686321781043,0.9829264866819515
2011-09-19,-1,-0.001024918681737616,-0.0008866403291707956,-0.01772237121910806,0.013410686321781043,0.982791736801665
2011-09-21,-1,-0.001821713618834069,-0.0015866276686759312,-0.013675859412063835,0.014764748796424101,0.9833798468209428
2011-09-23,-1,-0.0016861130654903505,-0.0015029275968967788,-0.013675859412063835,0.01647240625006072,0.9834979846832558
2011-09-27,-1,-0.00048449920777288456,-0.00041652056357158515,-0.01758390595831791,0.011244094050279606,0.9843445022271097
2011-09-29,1,0.00019676918752313104,0.00027205355867391834,-0.01758390595831791,0.014621214076121868,0.9838085219859342
2011-10-03,-1,-0.0012154542746533985,-0.0010999866195155385,-0.013675859412063835,0.014621214076121868,0.98519190517661
2011-10-05,-1,-0.0006661423050416155,-0.0006518744769234112,-0.01758390595831791,0.016041802089154022,0.9837582498269949
2011-10-07,1,0.0003597892909294942,0.00046566439054980383,-0.021043817671375427,0.016041802089154022,0.9833962095411537
2011-10-11,1,0.000818891077347373,0.0010079661740611387,-0.021043817671375427,0.014912994755775785,0.9847687616126126
2011-10-13,1,0.0004103690168909569,0.0005099665592103972,-0.021043817671375427,0.011996690453466623,0.9853265689122972
2011-10-17,1,1.947327009696565e-05,6.883295568533304e-05,-0.01478300822948629,0.014912994755775785,0.9852498944315481
2011-10-19,1,0.00023724571748488948,0.0003197133310331336,-0.014693946135453998,0.01201646617680752,0.9856862030122295
2011-10-21,1,0.00022577449550678367,0.000295556786747695,-0.01918991728777373,0.011097471514295978,0.984323285322486
2011-10-25,-1,-0.0004493290385097557,-0.000413533045313672,-0.01968122440987545,0.011097471514295978,0.9842283927984337
2011-10-27,1,0.0005218805241273658,0.0006185139853883476,-0.01968122440987545,0.008545910250033394,0.9843638424688446
2011-10-31,1,0.0004169294094006459,0.000528974464638918,-0.01968122440987545,0.010687415249716944,0.9833367187215674
2011-11-02,-1,-7.623318231615654e-05,-3.8738592925820144e-05,-0.017822601139199503,0.010687415249716944,0.9829463753339394
2011-11-04,-1,-0.0006066813694713711,-0.0005778035258122873,-0.014055068469431258,0.010687415249716944,0.9837121883057529
2011-11-08,0,-2.6388041455462075e-05,2.9446265737540156e-05,-0.017822601139199503,0.009459513472704512,0.9834998588840561
2011-11-10,0,-3.944881670549336e-05,5.896604549248248e-05,-0.017822601139199503,0.009602790802011155,0.9832017996679502
2011-11-14,1,5.265973764774609e-06,9.295404860095932e-05,-0.017822601139199503,0.008240233684494933,0.9836562762220296
2011-11-16,1,2.3589370077088407e-05,0.00011377491759199704,-0.01811510648614026,0.004174710794773877,0.9838266863095954
2011-11-18,-1,-0.001704506652291332,-0.0015810650161106584,-0.014055068469431258,0.004174710794773877,0.9867709523425776
2011-11-22,-1,-0.0025391662545818146,-0.0023415014803357956,-0.012295892517102957,0.00937605900004499,0.9863124678157126
2011-11-25,-1,-0.0028904652760117916,-0.0026690724591339875,-0.009960877737077298,0.00937605900004499,0.9861963127487553
2011-11-29,-1,-0.0013799374536160424,-0.0013467921361365542,-0.010969661107043475,0.006671125603269625,0.9877070239015635
2011-12-01,1,0.00016544790087960008,0.0003128094880749988,-0.010969661107043475,0.005836500254716078,0.9895547001327166
2011-12-05,1,0.00017091852786654636,0.0003478668508403159,-0.010969661107043475,0.00652342256667678,0.9884372347330249
2011-12-07,-1,-0.0004162400407582063,-0.00033396045887803855,-0.009580647671219258,0.00879679296149521,0.9889807647203303
2011-12-09,-1,-0.0002909283012643538,-0.00017177146106804825,-0.009018707089230072,0.008591867602512616,0.9902584553581681
2011-12-13,-1,-0.0005394939105921792,-0.00041599192586236843,-0.006664007170321649,0.009801849243458477,0.9896775443269465
2011-12-15,-1,-0.0012248336340368248,-0.0012195622407057205,-0.006664007170321649,0.010776648497795497,0.9892850181737094
2011-12-19,-1,-0.0021473768010988378,-0.001998373974004782,-0.004300134266694981,0.01274452299427617,0.9887025123055064
2011-12-21,-1,-0.0012097951756336756,-0.001137188350285122,-0.004300134266694981,0.010368177711481762,0.9906387975365403
2011-12-23,-1,-0.0011965725683430895,-0.0010893121366465047,-0.004300134266694981,0.013707522247521012,0.9897712095740464
2011-12-28,-1,-0.0022165112163760334,-0.0019354179095896142,-0.0009145331503478617,0.014563784975431806,0.9884706050246427
2011-12-30,-1,-0.0023616972847394792,-0.0020511522130772825,-0.0009145331503478617,0.014563784975431806,0.9884805712819473
2012-01-04,-1,-0.002185560809921122,-0.0018988843572998763,0.000855185059704633,0.014552714133781468,0.9893029299726358
2012-01-06,-1,-0.0010992718246030499,-0.0010044197196446873,0.0012054727896764165,0.014552714133781468,0.9898017132214898
2012-01-10,-1,-0.0013393877744696686,-0.001202043429033847,0.001074403032111281,0.014552714133781468,0.9903913889117554
2012-01-12,-1,-0.0011000984013890638,-0.0008916936712745748,0.00013421524461222243,0.012900854970288572,0.9919835047334201
2012-01-17,1,5.038934658329274e-05,0.0001069686968007145,0.0003090415478818136,0.010176593627824004,0.993318106414712
2012-01-19,1,0.00011235846221491804,0.00011926683747378992,-0.0009213671931333539,0.005175801909004797,0.9941345792059192
2012-01-23,1,0.000840257305812582,0.0010362614505583473,-0.001185675932730906,0.005175801909004797,0.9941342596432933
2012-01-25,1,0.0020726007619339287,0.0024491634533657537,-0.001185675932730906,0.003408547326578879,0.9952382537682675
2012-01-27,1,0.0019085398332394088,0.002150065124514291,-0.001185675932730906,0.003408547326578879,0.9953930279182445
2012-01-31,1,0.00231974257214986,0.0027284147321602146,-0.0011781493458425862,0.0038037932242341787,0.995738054524267
2012-02-02,1,0.0019867989122655774,0.00225517612997988,-0.0015533514273827788,0.003389349373806928,0.9960579765027171
2012-02-06,1,0.0026221502736446974,0.00301495464317289,-0.0024689780635522335,0.0030299059613428806,0.9955570544966927
2012-02-08,1,0.003013386316363466,0.0035213977745901194,-0.0024689780635522335,0.003389349373806928,0.9943976808724712
2012-02-10,1,0.0028189479180920213,0.0032844038080379265,-0.0024689780635522335,0.003389349373806928,0.9943984489984639
2012-02-14,1,0.0025353141221256354,0.002899418403102989,-0.002541175708289898,0.0036744858468157667,0.9936625918681203
2012-02-16,1,0.0026483543797639368,0.0030024450369781734,-0.0024387031254842913,0.0036744858468157667,0.9939635385137944
2012-02-21,1,0.003256080676439066,0.003780765615955894,-0.0024387031254842913,0.003556096041568608,0.9936274982302584
2012-02-23,1,0.0033802961578935625,0.003935306719034677,-0.002556554157594926,0.003556096041568608,0.993381660684221
2012-02-27,1,0.002404391027061281,0.0027179188134514253,-0.002556554157594926,0.002990442692927161,0.9942002572463088
2012-02-29,1,0.002516686262190357,0.0028623417757718175,-0.002996541311538611,0.002990442692927161,0.9936654410315664
2012-03-02,1,0.0029874131545999487,0.003499570563176008,-0.002556554157594926,0.0034833663238907023,0.9936316382931609
2012-03-06,1,0.0025410241375593123,0.0029697464467023913,-0.002139816614309028,0.004568969234884784,0.9941600076044056
2012-03-08,1,0.0031895320482395696,0.0036422412005671675,-0.0028149960329896698,0.0034833663238907023,0.994344139827345
2012-03-12,1,0.002686985423548164,0.003052311328468626,-0.0034713566774898404,0.0034833663238907023,0.993262826040956
2012-03-14,1,0.002823134760715426,0.0032319225561501935,-0.0034713566774898404,0.004568969234884784,0.99367960956097
2012-03-16,1,0.0028459563834168362,0.0032533540506867204,-0.009126068293009834,0.004568969234884784,0.9895906524336215
2012-03-20,1,0.002498443305450292,0.0028302051053214422,-0.009126068293009834,0.005843829487295904,0.9895064898835912
2012-03-22,0,0.0,0.0,-0.009126068293009834,0.005843829487295904,0.9900181021500845
2012-03-26,0,0.0,0.0,-0.009126068293009834,0.005843829487295904,0.9899800594879926
2012-03-28,0,0.0,0.0,-0.005664211550947746,0.005241773100288771,0.9903765620182652
2012-03-30,0,0.0,0.0,-0.005664211550947746,0.007451036348472984,0.9900049804097931
2012-04-03,0,0.0,0.0,-0.005664211550947746,0.006184999897419234,0.9899741202293065
2012-04-05,0,0.0,0.0,-0.006444329577674173,0.006184999897419234,0.9898281935878108
2012-04-10,0,0.0,0.0,-0.004107232193410759,0.006184999897419234,0.9912528003139229
2012-04-12,0,0.0,0.0,-0.004614458277940088,0.003820506467991593,0.9914881864461064
2012-04-16,0,0.0,0.0,-0.004614458277940088,0.003820506467991593,0.9945249423424121
2012-04-18,0,0.0,0.0,-0.005110662505835225,0.003079035423497422,0.9946511733807373
2012-04-20,0,0.0,0.0,-0.008330597405336383,0.003079035423497422,0.9936178755210353
2012-04-24,0,0.0,0.0,-0.008330597405336383,0.003079035423497422,0.9934920619154993
2012-04-26,0,0.0,0.0,-0.008330597405336383,0.003429793563345342,0.9935642147225009
2012-04-30,0,0.0,0.0,-0.008612694943758159,0.0011423211828605656,0.9935675735462935
2012-05-02,1,0.00022348644417546072,0.0002802796765342659,-0.010527545500729058,-0.00025045613256207306,0.9929890929299247
2012-05-04,-1,-0.0010179651039904569,-0.0008011711489007649,-0.009221135994132403,-0.00025045613256207306,0.9937763710310166
2012-05-08,-1,-0.0012772795837720434,-0.0009749420783330219,-0.009221135994132403,0.00021402577858214674,0.9937572947982587
2012-05-10,-1,-0.002129640375518503,-0.0016980158222921775,-0.008281328663156555,0.0024341505377482864,0.9943473674865826
2012-05-14,-1,-0.0030126424299628737,-0.002453537984129296,-0.008281328663156555,0.0026344200879289187,0.9944122793618771
2012-05-16,-1,-0.00292050533218833,-0.0024437001296173716,-0.010739815545426955,0.0026344200879289187,0.9936156307581293
2012-05-18,-1,-0.0035682248260415893,-0.0030375966603935468,-0.008281328663156555,0.00392363787248709,0.9933793790130224
2012-05-22,-1,-0.003680372594464047,-0.0031387103606257934,-0.008281328663156555,0.004141553517051082,0.9920156177180511
2012-05-24,-1,-0.003575727779480245,-0.0030357436104522404,-0.008281328663156555,0.004141553517051082,0.9920331607520582
2012-05-29,-1,-0.00563328745672235,-0.004773808304429121,-0.008980811828125866,0.004141553517051082,0.9916143291754038
2012-05-31,-1,-0.005460545015313129,-0.00467412293253771,-0.008980811828125866,0.005627453472670412,0.9908479725943158
2012-06-04,-1,-0.004777905857883199,-0.004046862371057582,-0.005938069160231789,0.008825834036650422,0.9887897864075982
2012-06-06,-1,-0.004135603491393509,-0.0035077560175365173,-0.005938069160231789,0.008825834036650422,0.9891314292704043
2012-06-08,-1,-0.003669843708382605,-0.003111839306682557,-0.008284587713516511,0.010422852734565186,0.9889769051426955
2012-06-12,-1,-0.003579960932674473,-0.00304250470889056,-0.006149366256242052,0.010422852734565186,0.989361684011273
2012-06-14,-1,-0.0042928847778696665,-0.0036672690082524186,-0.004113040851385183,0.012473778391454075,0.9892377503661339
2012-06-18,-1,-0.003001286209567254,-0.0025896728266227107,-0.004113040851385183,0.012669374352924066,0.9895046474205466
2012-06-20,-1,-0.0013863444622181074,-0.0011992362221369493,-0.004113040851385183,0.010388764442883024,0.9908803184352865
2012-06-22,-1,-0.0017270326024918898,-0.0014886881715127469,-0.0044427037825281535,0.010388764442883024,0.990759519225481
2012-06-26,-1,-0.001393799311098058,-0.0012175201239016812,-0.0044427037825281535,0.012669374352924066,0.9891142951457065
2012-06-28,-1,-0.0014204998308740575,-0.0012695287418053413,-0.003923636291728879,0.014021975862530553,0.9878069340817696
2012-07-02,1,0.000469069245333226,0.0005289491525000837,-0.006109160420490371,0.010388764442883024,0.9893713158435329
2012-07-05,1,0.0004857011468326434,0.0005344347409032186,-0.007840853386796612,0.010388764442883024,0.9892154060697756
2012-07-09,1,0.0009555844081767881,0.0010529350869523438,-0.006109160420490371,0.013332923103074093,0.989101357174364
2012-07-11,1,0.0006942668434967135,0.0007421409480138871,-0.006517944877072374,0.013332923103074093,0.9888008958869087
2012-07-13,1,0.0009784649664688642,0.0010570346894107287,-0.006517944877072374,0.010603355202920864,0.9895291930722481
2012-07-17,1,0.0016128029419908837,0.0017735035104591646,-0.006517944877072374,0.007953608067134089,0.9900517603641077
2012-07-19,1,0.002194392652350444,0.0024768745715322456,-0.008037567078691995,0.006514402585859863,0.9897387608221483
2012-07-23,1,0.0019253164086320148,0.002168887294295073,-0.006517944877072374,0.006514402585859863,0.9905676422225013
2012-07-25,1,0.0023973005227133906,0.0026999657941425897,-0.006517944877072374,0.005846875459247294,0.9918912270764749
2012-07-27,1,0.004222868928777395,0.004748095822674777,-0.006517944877072374,0.002976468254097173,0.9927709557347912
2012-07-31,1,0.0035540866743871856,0.004048010986657164,-0.004076095148541093,0.002976468254097173,0.9939842444256618
2012-08-02,1,0.0031045738846569755,0.003515946460922592,-0.0030243431382856035,0.002842472905014397,0.9945147051704465
2012-08-06,1,0.0031878790084771532,0.0036399480228543144,-0.0019571532556931534,0.0037956365762939768,0.9955220693567247
2012-08-08,1,0.0033427388824111585,0.003816068007433832,-0.0019571532556931534,0.0037956365762939768,0.9946341845440053
2012-08-10,1,0.0032644031912740495,0.0037192918811502695,-0.0019571532556931534,0.0037956365762939768,0.9948331125239492
2012-08-14,1,0.0033035458511909703,0.003755390626659353,-0.001828513329958382,0.004389497540449469,0.9947641250626245
2012-08-16,1,0.002926830703374887,0.0033578019679579296,-0.001828513329958382,0.0045103406389443235,0.9949649290333529
2012-08-20,1,0.0029775502659560053,0.003383923866873798,-0.0013255243551146894,0.006625829765615975,0.9949017237169723
2012-08-22,1,0.0027659749309903317,0.003257999940348517,-0.001299185858254368,0.006625829765615975,0.9954038445911629
2012-08-24,1,0.0030635675668033557,0.00360751912017266,-0.0011479767216556118,0.0045103406389443235,0.9956132615582549
2012-08-28,1,0.002897976781837612,0.0034041943188344017,-0.002650924236380728,0.0045103406389443235,0.9946773134653799
2012-08-30,1,0.002379574355247027,0.0027681959081173194,-0.0011479767216556118,0.006348625704079346,0.9948475446559467
2012-09-04,1,0.0028033240736630083,0.0032748037900253687,-0.0027150912707315684,0.0064142893235258625,0.9944557613646727
2012-09-06,1,0.002208628012390957,0.0024767146556285272,-0.0011479767216556118,0.006962828413891346,0.9951708859363927
2012-09-10,1,0.0024284509697687093,0.0027318343528892454,-0.0019882838524709493,0.006962828413891346,0.9949693513982533
2012-09-12,1,0.0027794982046890192,0.0031175534038456756,-0.0027150912707315684,0.0064142893235258625,0.9941163072096407
2012-09-14,1,0.0029231081656435594,0.0032966840744820224,-0.0027150912707315684,0.006169245470305746,0.9942765399261371
2012-09-18,1,0.003068586773506676,0.0034546829512518756,-0.0027150912707315684,0.006169245470305746,0.9943378387362093
2012-09-20,1,0.003201590800052891,0.0036263001709073636,-0.002078789383682111,0.00642518890636491,0.994002947739562
2012-09-24,1,0.003298588307201978,0.00373407114652118,-0.003347242608632862,0.00642518890636491,0.9932796363566858
2012-09-26,1,0.0022001581615988417,0.0024586348395759065,-0.002078789383682111,0.00642518890636491,0.9934683439539151
2012-09-28,1,0.0023900786088622665,0.0026757853489729907,-0.003298244013339797,0.006327477508195926,0.9934375532041532
2012-10-02,1,0.0022704019320421106,0.002522214228839422,-0.002390425532656855,0.009573237280012161,0.9921421582501434
2012-10-04,1,0.002510165504103186,0.002754538029557538,-0.002390425532656855,0.008137523328157446,0.9919668473632913
2012-10-08,1,0.0022001351822441657,0.0023739999686924846,-0.004282151055557094,0.010604457096308594,0.9910599405260028
2012-10-10,1,0.00111328214014751,0.0011350804064783307,-0.0045604555987191755,0.010604457096308594,0.9909882730378214
2012-10-12,1,0.0009928387388591494,0.0010157499267563243,-0.00441345981283998,0.01296732413641959,0.9900950867559939
2012-10-16,1,0.001423914607970674,0.0014541674744547768,-0.0057587705860855775,0.013227659102758697,0.9894386141487781
2012-10-18,1,0.0016462101172936999,0.0016731887499468118,-0.0057587705860855775,0.012962268140584442,0.9900013968819908
2012-10-22,1,0.0006009842875809037,0.0007336053111157354,-0.00441345981283998,0.012962268140584442,0.9901791335150918
2012-10-24,-1,-0.0002846371658483136,-2.3284676542583392e-05,-0.00441345981283998,0.013336871404332604,0.9877617250068873
2012-10-26,-1,-0.0004329435372725473,-0.00015597787633146937,-0.0057587705860855775,0.013336871404332604,0.9872150120771502
2012-11-01,1,0.0008412711354024256,0.0009687657406213742,-0.0057587705860855775,0.012437807618024686,0.9889746463377178
2012-11-05,1,0.0013680254291419855,0.0014508421443024879,-0.008332587678924358,0.008412243457798955,0.9891941768952777
2012-11-07,1,0.0006410809797932591,0.0008656252189118648,-0.009485786752437005,0.0053046525232546505,0.989690475022897
2012-11-09,1,1.1220669805342312e-05,0.00028103953124920214,-0.007522837616005323,0.007822580469228096,0.9900160627146413
2012-11-13,1,0.0014370089083209049,0.0014954612311026843,-0.007522837616005323,0.005138552042023362,0.9909340209641957
2012-11-15,1,0.0012002490397771183,0.001290883381296694,-0.003916285415562746,0.004487506544171299,0.9919421379088692
2012-11-19,1,0.0009725967358562895,0.001120781476726087,-0.003916285415562746,0.004965382001502914,0.9916685146083367
2012-11-21,1,0.0006289700957677461,0.0008168842956811722,-0.007372955724207707,0.005935108046842404,0.9905937076710691
2012-11-26,1,0.0017231902858824426,0.001731722093460388,-0.007347233838750155,0.004965382001502914,0.9932366035096882
2012-11-28,0,0.0,0.0,-0.007347233838750155,0.005293003213109265,0.9932993310170137
2012-11-30,0,0.0,0.0,-0.008137847294217893,0.005935108046842404,0.9920533888251339
2012-12-04,1,0.00010250117750974195,0.0001912695869716731,-0.005150722816175513,0.007177760531883223,0.9920838136669479
2012-12-06,-1,-0.00022928096465265658,-0.00010252984798815639,-0.0028640713690156047,0.009407855235147075,0.9920747677956337
2012-12-10,0,0.0,0.0,-0.0028640713690156047,0.006658250410321882,0.9928128830123042
2012-12-12,0,0.0,0.0,-0.0028640713690156047,0.00803605665760776,0.9926576030938885
2012-12-14,1,0.00048079993850432294,0.0006731801183325276,-0.008137847294217893,0.00803605665760776,0.9917770218113321
2012-12-18,1,0.001653820210865316,0.0016595993280690217,-0.008137847294217893,0.008096724270433179,0.9913232327183817
2012-12-20,1,0.0031747660029381873,0.0034932560093663386,-0.007845458849358378,0.005752271962204558,0.9919269951758797
2012-12-24,0,0.0,0.0,-0.005971988494652939,0.008096724270433179,0.9922136461248754
2012-12-27,0,0.0,0.0,-0.005971988494652939,0.008096724270433179,0.9924674945735734
2012-12-31,0,0.0,0.0,-0.002906943681572376,0.007740841535265979,0.9935072363381705
2013-01-03,0,0.0,0.0,-0.002906943681572376,0.007740841535265979,0.993614869669509
2013-01-07,0,0.0,0.0,-0.005705076552023167,0.007740841535265979,0.9933461470781136
2013-01-09,1,0.00128375573657469,0.0013517945881651495,-0.006955834168335074,0.007740841535265979,0.9925016710106033
2013-01-11,1,0.001278925207670632,0.0013345536236389086,-0.006955834168335074,0.007185289556936253,0.992312649473594
2013-01-15,1,0.00016730205972464394,0.0002529161675424807,-0.005705076552023167,0.007185289556936253,0.9935026157923253
2013-01-17,1,7.409143423610072e-05,0.00018592991837389022,-0.004279073236448385,0.005195314355063673,0.9943977141228941
2013-01-22,1,2.270953580252755e-05,0.000127489495239033,-0.005705076552023167,0.005195314355063673,0.9939178401324371
2013-01-24,1,0.0005161652792679284,0.0005765213939302643,-0.006945932391831624,0.005195314355063673,0.9937204182397951
2013-01-28,-1,-0.000210508488925896,-5.47147921098594e-05,-0.0053607223323040125,0.005195314355063673,0.9941079568188934
2013-01-30,1,0.0001274530290929618,0.00023621407017738365,-0.0053607223323040125,0.005195314355063673,0.9939331607209408
2013-02-01,1,0.0005222963809579237,0.0005881874855407371,-0.0053607223323040125,0.005195314355063673,0.9935101971471197
2013-02-05,1,0.0004786034620306094,0.000549330280398944,-0.004164288496542001,0.005195314355063673,0.9933593241723742
2013-02-07,1,0.00044080787892862875,0.0004953966086163596,-0.004164288496542001,0.007165553414719269,0.993200294496356
2013-02-11,1,0.00044815283628047277,0.0005020772996442366,-0.005617732498430334,0.005253184594658434,0.9931883690998452
2013-02-13,1,0.00013678649202882417,0.00021949532208611014,-0.00411247819762712,0.006653497600165158,0.9930859604726628
2013-02-15,1,5.409355865923493e-05,0.0001482221894436038,-0.00783017513749343,0.006653497600165158,0.9922563945801324
2013-02-20,-1,-0.0002883976727437582,-0.0001579057468357153,-0.0055254026250444906,0.007968243325918355,0.9921295255753193
2013-02-22,-1,-0.0010765181513348098,-0.0008064151737345566,-0.00411247819762712,0.007968243325918355,0.9924100252710092
2013-02-26,-1,-0.0011785099604126842,-0.0009061684243079014,-0.002441124770037372,0.008230343699712128,0.9921307806691382
2013-02-28,-1,-0.0007590017015183368,-0.0005380739338863014,-0.002441124770037372,0.008824932881514362,0.9920639016612001
2013-03-04,1,0.00041189783528220163,0.0004628738144498157,-0.004053126872124749,0.008111204461543883,0.9931905382039028
2013-03-06,1,0.0006598553879837957,0.0006860206899172985,-0.005347348648537376,0.007098218157322952,0.9933575597294816
2013-03-08,1,0.00011793101971137597,0.00024127554516793374,-0.005985850611877902,0.006337013824373747,0.9935454723585619
2013-03-12,-1,-0.00044929579280189624,-0.0002497726269720539,-0.004893417720274272,0.007098218157322952,0.9931673910452484
2013-03-14,1,0.0001102699936850119,0.0002247868379470385,-0.004893417720274272,0.007098218157322952,0.9933469739107155
2013-03-18,-1,-0.0001357583325114289,-2.62857795694921e-05,-0.003692558355550768,0.007098218157322952,0.9928851822697062
2013-03-20,0,-4.573496935354911e-05,7.889328955747795e-05,-0.006328351059241972,0.006323995551971885,0.9922275398432352
2013-03-22,0,-2.4718791936624747e-05,0.00012547977540659176,-0.006328351059241972,0.006032865886826804,0.9927902761331757
2013-03-26,1,4.912542324929099e-05,0.00019703577790961577,-0.006328351059241972,0.006032865886826804,0.9925995826385975
2013-03-28,1,0.001193405047132398,0.0012562555016856416,-0.006925521807000619,0.005839724389969923,0.9924739104391656
2013-04-02,1,0.0013632885186755067,0.0014860725625253438,-0.008900697555712682,0.006032865886826804,0.9916392140025755
2013-04-04,1,0.0007873947065571493,0.0008385798290816749,-0.008900697555712682,0.006323995551971885,0.9905971755803405
2013-04-08,-1,-0.00018460764108347113,-8.071235518771955e-05,-0.007136194046197573,0.006323995551971885,0.990979170923623
2013-04-10,1,0.0008764642131903568,0.0009729175333795122,-0.009532103909191384,0.006323995551971885,0.9887376502997892
2013-04-12,1,0.0008786914142902436,0.0009539281797941843,-0.009532103909191384,0.006046151050435305,0.9886492118509973
2013-04-16,1,0.0005693237685769109,0.0006132496720334821,-0.007136194046197573,0.003515617248828188,0.9897202176441314
2013-04-18,-1,-0.0005978832154831348,-0.000488309031948765,-0.005018008787219052,0.006945901871947281,0.9902241151517934
2013-04-22,-1,-0.00029384153359017105,-0.00023777848838905192,-0.005018008787219052,0.011604054604313626,0.9896441172213992
2013-04-24,-1,-0.000358389011318197,-0.0002767662459714134,-0.006337353970495583,0.008134732163864521,0.9898232301971289
2013-04-26,-1,-0.00029971852064613393,-0.00022714334399967815,-0.006991332668506998,0.004820862980117582,0.9899075450193213
2013-04-30,-1,-0.0004322753826014743,-0.00032014922409311964,-0.006991332668506998,0.0038250444729664747,0.9899561180441686
2013-05-02,-1,-0.00020536243499408833,-0.00010140905891107638,-0.006991332668506998,0.0033410985611778965,0.9903082539926226
2013-05-06,-1,-0.00031542191568492966,-0.00022204341400974814,-0.00899523000044008,0.0034859028598380783,0.9901206828124426
2013-05-08,1,0.0006090184345616121,0.0006277929611522194,-0.00899523000044008,0.0034859028598380783,0.9919757869668799
2013-05-10,1,0.00014641146137445906,0.00017956042318692636,-0.00899523000044008,0.007167629512973162,0.9919236577112164
2013-05-14,1,0.0002204039068845257,0.0002228030478391073,-0.00899523000044008,0.007167629512973162,0.9917781223144243
2013-05-16,1,0.0010241970046460007,0.0011502842208530103,-0.00899523000044008,0.007167629512973162,0.9918732903290264
2013-05-20,1,0.0009951461905459518,0.0010875058534682313,-0.00899523000044008,0.00451235832880729,0.9925152080306606
2013-05-22,1,0.0005948270492943653,0.000620139575465491,-0.010380899841941337,0.00451235832880729,0.9910384118047469
2013-05-24,1,0.00024295842026812676,0.0002707508602672022,-0.010380899841941337,0.007167629512973162,0.9899529449173092
2013-05-29,1,0.0003723886550693185,0.0003767667795079198,-0.007595412141006577,0.00451235832880729,0.990993777936411
2013-05-31,1,7.924037491768199e-05,9.390139478578175e-05,-0.0067695548158202,0.003554620790218977,0.9922259708425903
2013-06-04,-1,-0.00017711567317957753,-0.00012769533883483507,-0.006299852943220976,0.00451235832880729,0.9919468560535437
2013-06-06,-1,-9.551762299733821e-05,-6.768668751870356e-05,-0.005717330034112736,0.00451235832880729,0.9925681086396911
2013-06-10,-1,-0.0003687611320264907,-0.0002661832622847654,-0.005717330034112736,0.005739229290080342,0.9920103195145243
2013-06-12,-1,-0.0006124953779422799,-0.0004860386053124797,-0.004298233523656099,0.00803846805232784,0.9913289557674401
2013-06-14,-1,-0.00037003387232817885,-0.0002651250497668359,-0.004298233523656099,0.005739229290080342,0.9919465383983859
2013-06-18,0,-5.739781675396957e-06,3.5439223978480766e-05,-0.004298233523656099,0.005739229290080342,0.9918845957796605
2013-06-20,-1,-0.0013692483511483105,-0.0011545477996238733,-0.0016941875148405298,0.00803846805232784,0.9928049196184506
2013-06-24,-1,-0.0006139774214438758,-0.0004978932235479116,-0.0016941875148405298,0.005739229290080342,0.9943817258695151
2013-06-26,-1,-0.00035657851864446605,-0.0002880400524320116,-0.002379584176144059,0.005739229290080342,0.9937002942748664
2013-06-28,-1,-0.0005659074611807762,-0.0004742853491852848,-0.0020612465764398382,0.005739229290080342,0.9937018901743363
2013-07-02,-1,-0.0005126293068448514,-0.00041707032331588943,-0.0020612465764398382,0.005739229290080342,0.9937356768318629
2013-07-05,-1,-0.00036336358009936667,-0.0002872251391204667,-0.0036513082436685205,0.005287280421131762,0.9925496677659027
2013-07-09,1,0.0001248629339617123,0.00015601448224324615,-0.0036513082436685205,0.006328487089398107,0.9925757734260541
2013-07-11,1,0.0005842340980016426,0.0006074199807676299,-0.005656985021954085,0.006328487089398107,0.992294433583263
2013-07-15,1,0.00034280550147203724,0.0003669988324427948,-0.005656985021954085,0.008836358168596008,0.9919755420765558
2013-07-17,1,0.00031121154960214985,0.0003511562022684319,-0.005656985021954085,0.008836358168596008,0.9918590731721476
2013-07-19,1,0.0006364593890006365,0.0006494355598904354,-0.009514669144609895,0.006103384768223525,0.9907928178992647
2013-07-23,1,0.0007615405562535729,0.0007815437580776172,-0.009514669144609895,0.004894661147162812,0.9909218715911289
2013-07-25,1,0.0005025707614335732,0.0005288496910094594,-0.005656985021954085,0.006270796195794536,0.9915198348782637
2013-07-29,1,0.0006324215336259183,0.0006921205777737761,-0.005656985021954085,0.0076134744035284176,0.9912977296065334
2013-07-31,1,0.0006379556459378021,0.0006944531455587623,-0.006832382484994319,0.005938202381163533,0.9912444789143882
2013-08-02,-1,-0.0005384965730754036,-0.0004350993099667503,-0.005936879366031345,0.005938202381163533,0.9923303964071478
2013-08-06,1,0.0003205080854317898,0.00033592266234764364,-0.005936879366031345,0.0026395936619449554,0.9931500766049662
2013-08-08,1,0.0004914487958418846,0.0004995287084328744,-0.005636755432511028,0.002549683063456161,0.9942510688052368
2013-08-12,1,0.0007860951706433621,0.0008564647470237816,-0.005636755432511028,0.0033860644516102226,0.9938411950308348
2013-08-14,1,0.0008939516557675405,0.001004770780255463,-0.008049955509765856,0.004114507929953849,0.993233621896242
2013-08-16,1,4.440375764731929e-05,5.2249926427948266e-05,-0.003206284781720816,0.004114507929953849,0.994582387063921
2013-08-20,1,0.00040063405792668485,0.0004845493032697268,-0.004545597653328239,0.003844776134487464,0.9945832763823865
2013-08-22,1,0.00039333061521267454,0.0004626246353614967,-0.005525228860916912,0.00421548841260546,0.9942969215036356
2013-08-26,1,0.00018432476965487158,0.00019994441118731957,-0.007957305108497681,0.00338019110719685,0.9941421965174324
2013-08-28,1,0.00043815313522991276,0.00047805568782314595,-0.007957305108497681,0.00338019110719685,0.9916164409496805
2013-08-30,1,0.00026966397982857744,0.0003018820645244982,-0.005953874490525392,0.00338019110719685,0.991899720928946
2013-09-04,1,0.0003155025236098621,0.0003602453055876531,-0.008166101828881027,0.00338019110719685,0.9906624401520643
2013-09-06,1,0.00017332658628225328,0.00018129571023752582,-0.008166101828881027,0.007363205813548436,0.9899899214015991
2013-09-10,1,0.0005503523524520532,0.0005878513004137285,-0.008166101828881027,0.0024786594057372496,0.9904558506427825
2013-09-12,-1,-0.0003233417843537302,-0.00023364394359889467,-0.006992173901960519,0.004467600174831728,0.9903475528927494
2013-09-16,-1,-0.00010855268523428971,-5.256107558715829e-05,-0.006992173901960519,0.007048294308591992,0.9901421430245759
2013-09-18,-1,-0.0002638029164396891,-0.00018761876371539856,-0.006992173901960519,0.0075876124661517375,0.9893729478361608
2013-09-20,-1,-0.0002348096406049813,-0.00017080635234765115,-0.006992173901960519,0.0075876124661517375,0.9890135161719731
2013-09-24,-1,-0.00017200317147891166,-0.00013418008594494915,-0.007572495788052779,0.0075876124661517375,0.9889745706251235
2013-09-26,-1,-0.0024068866754651417,-0.002101043124211592,-0.0052103739340429375,0.0075876124661517375,0.9921052899885067
2013-09-30,-1,-0.00251885416716952,-0.002223006685676852,-0.0034404288154938176,0.008629668891567285,0.9913861508236379
2013-10-02,-1,-0.0033151750134249617,-0.0029181417588402263,-0.0034404288154938176,0.008629668891567285,0.9919364891640722
2013-10-04,-1,-0.002771553922527615,-0.002434671648082592,-0.0034404288154938176,0.0038867758364345946,0.9931809292843906
2013-10-08,-1,-0.002566595890039135,-0.0022846908738565867,-0.0034404288154938176,0.0051261013173274465,0.9925283794560988
2013-10-10,-1,-0.0014570611067899033,-0.0013300813117939115,-0.0034404288154938176,0.0030282185733997427,0.993747334031047
2013-10-14,-1,-0.0012721158514446946,-0.0011561129107858189,-0.0034404288154938176,0.0017258983035468407,0.9941137405092353
2013-10-16,-1,-0.0009102871603044159,-0.0008227459426713266,-0.0030195895002654146,0.0030282185733997427,0.9942148750056155
2013-10-18,-1,-0.001653979396550201,-0.001478785219513526,-0.0018532144973974832,0.005090948749244236,0.9933794979238142
2013-10-22,-1,-0.0021820249380864647,-0.0019264822551798436,-0.0018192789751152612,0.005090948749244236,0.9932289519671532
2013-10-24,-1,-0.0021779529133765943,-0.0019130680224826485,-0.0018532144973974832,0.005090948749244236,0.9931699593030937
2013-10-28,-1,-0.0015790617800428715,-0.0013798442278093997,-0.0020724900896868003,0.004371990344915041,0.9941476256405436
2013-10-30,-1,-0.0017072104505408184,-0.0015101465353886934,-0.0018192789751152612,0.004708279186822373,0.9939680077744583
2013-11-01,-1,-0.0019399073573125006,-0.0017064804233861038,-0.0016467492985765473,0.004708279186822373,0.9935194714093741
2013-11-05,-1,-0.0019725711543279803,-0.001756532889819742,-0.00285809296036719,0.004669701429032583,0.993565493151434
2013-11-07,-1,-0.0017672435334022097,-0.0015836964706899069,-0.0020575837781559997,0.005984082001596863,0.9933034597194474
2013-11-11,-1,-0.0024762984190337487,-0.0021494126838364006,-0.00502251659065975,0.006234731746458336,0.9926103854463143
2013-11-13,-1,-0.0014968183108481662,-0.001317542822727012,-0.006658190430751252,0.004669701429032583,0.9935359536394499
2013-11-15,-1,-0.00023064144564626662,-0.0002061597220437654,-0.006658190430751252,0.0025906437126647294,0.9948376261651214
2013-11-19,-1,-0.00013385397953760578,-0.0001098560972616244,-0.008016628282750245,0.0025048059967536576,0.9934356725315153
2013-11-21,-1,-0.00036115437475044403,-0.0003203063240565958,-0.006658190430751252,0.003928998896480462,0.9928942159433048
2013-11-25,-1,-0.0006323008444807919,-0.0005652730732758534,-0.004801614586609961,0.005684962354128825,0.9929049575739555
2013-11-27,1,5.823036749979336e-05,0.00011554761244370556,-0.004801614586609961,0.004307537167428122,0.9929254651079694
2013-12-02,1,0.0003384859292064806,0.0004646951242907953,-0.004801614586609961,0.004733026967591957,0.9929280075102072
2013-12-04,-1,-0.00020281594174351318,-0.00014416676542834434,-0.00423337184143941,0.004733026967591957,0.9936176275136122
2013-12-06,1,0.00023030835954956284,0.00035824967406679635,-0.00423337184143941,0.004581590294180491,0.9938959357547384
2013-12-10,1,0.0004575616799902784,0.0006427217354882561,-0.003426999917953621,0.003906675456962008,0.9943848831912967
2013-12-12,1,0.00028644140218908533,0.00045878022244022964,-0.002719825486227615,0.003906675456962008,0.9946946686016088
2013-12-16,-1,-0.00012654884359998634,-4.241022893084666e-05,-0.002719825486227615,0.003906675456962008,0.9943798039853303
2013-12-18,1,0.00045946322445903785,0.0006248429830432522,-0.0020608945958728907,0.003412897057946713,0.9961273229703771
2013-12-20,1,0.001084549067767701,0.001340822030789991,-0.0021038039145921893,0.00329416499473165,0.9971603116220445
2013-12-24,1,0.0008622690993238021,0.0010268826989226765,-0.003669208932511201,0.002858592709625314,0.9958164416964838
2013-12-27,1,0.0013937435096477604,0.0016687864687195673,-0.003669208932511201,0.00329416499473165,0.9956332585061591
2013-12-31,1,0.001690414155890223,0.0020332978522282904,-0.003430443501996545,0.00329416499473165,0.9953301911421564
2014-01-03,1,0.001696378236176193,0.0020508933905752907,-0.005537443885352369,0.00329416499473165,0.9935530395040648
2014-01-07,1,0.0019387840566838772,0.002324832726549918,-0.005537443885352369,0.003358731567648365,0.9933791593909659
2014-01-09,1,0.0016201199272243188,0.0019069556521312475,-0.005537443885352369,0.0039680763183366,0.9926994139917021
2014-01-13,1,0.0016356731538756993,0.001930701753062381,-0.005537443885352369,0.0059209051599946,0.9920107344357293
2014-01-15,1,0.0015839144377288732,0.0018759937103769385,-0.0048865075662496565,0.0059209051599946,0.9920994525745758
2014-01-17,1,0.0017029565674612304,0.0020189324768079614,-0.0048865075662496565,0.0059209051599946,0.992100510466903
2014-01-22,1,0.0014149113707670898,0.0016680042508580763,-0.0035281592642031514,0.0059209051599946,0.9921400415694751
2014-01-24,1,0.0002825418338080513,0.00035730416221411103,-0.0024898281132041183,0.0059209051599946,0.9932747253260311
2014-01-28,1,0.0007070167952694526,0.000842252688287152,-0.002729211916182731,0.0059209051599946,0.9929686202819228
2014-01-30,1,0.0011225549054406758,0.0013212052276252593,-0.003496154675809761,0.0059209051599946,0.9930798575992251
2014-02-03,1,0.0002884952520118843,0.0004120201536910002,-0.002729211916182731,0.0059209051599946,0.9944106344059891
2014-02-05,1,0.0007104370005498867,0.0008966821596429259,-0.0046556647685483035,0.0039684780631313995,0.9938825375527645
2014-02-07,1,0.0010794149182314842,0.0013235186797644896,-0.0046556647685483035,0.0031118448288269557,0.9944731913443209
2014-02-11,1,0.0017147517096902211,0.0020386639055744197,-0.0046556647685483035,0.0027603271310638845,0.9952101739017555
2014-02-13,1,0.0016481334501609155,0.001962007892460714,-0.005876318615702076,0.0027603271310638845,0.9945374748693359
2014-02-18,1,0.0015801572374017764,0.0018761848909335614,-0.005876318615702076,0.0027603271310638845,0.9942358513417979
2014-02-20,1,0.000561626733028468,0.0006022590282510199,-0.005876318615702076,0.0027603271310638845,0.9943810606062383
2014-02-24,1,0.0004208540602199552,0.000422744988476574,-0.007569760986196396,0.002227892607333354,0.9937985062308794
2014-02-26,-1,-0.00032340611257117947,-0.00018805104563355098,-0.005876318615702076,0.003668531744799813,0.9925659719310124
2014-02-28,1,9.820312897204761e-05,0.00015439414488279703,-0.005876318615702076,0.003668531744799813,0.9912570143811059
2014-03-04,-1,-0.00038468598935025705,-0.00025442334992751425,-0.0028006083522340852,0.0071772886949689,0.9911963605842606
2014-03-06,-1,-0.0006819707636403489,-0.0005535342360741575,-0.0019169117875224896,0.0071772886949689,0.9916619615903409
2014-03-10,-1,-0.0004904160760168046,-0.0003963368137656993,-0.006091879931315387,0.0071772886949689,0.9913278793694118
2014-03-12,-1,-0.0002263380507245684,-0.00018851462811404114,-0.006091879931315387,0.010560517042697464,0.9905743848581688
2014-03-14,-1,-0.0013540625765819316,-0.001143545200125154,-0.00441449214800904,0.010560517042697464,0.9902939859738995
2014-03-18,-1,-0.0011532597681030194,-0.0009472142961384313,-0.00441449214800904,0.01022451016601752,0.989999734058956
2014-03-20,-1,-0.0008732579540624004,-0.0007015451726564454,-0.006091879931315387,0.01022451016601752,0.9900123319170862
2014-03-24,-1,-0.0010774475260195166,-0.0009134700582739401,-0.006091879931315387,0.01022451016601752,0.9898523172972098
2014-03-26,1,0.0004910767778182053,0.0004945130207061848,-0.006091879931315387,0.005563878905543699,0.9922181293668307
2014-03-28,1,0.00169531410621861,0.001838739193989959,-0.006091879931315387,0.005563878905543699,0.9933355603101166
2014-04-01,1,0.0017926065549332827,0.0019238425649063455,-0.006091879931315387,0.00321686687784183,0.9932116549593751
2014-04-03,1,0.0016122257787778847,0.0017136365842234575,-0.005089949138540528,0.005563878905543699,0.9926036032719988
2014-04-07,1,0.0010327132633602108,0.0010532123177655493,-0.004100066937730535,0.005563878905543699,0.9928482305665847
2014-04-09,1,0.0017175099494152173,0.0018631046923658291,-0.004100066937730535,0.005563878905543699,0.9931634032611861
2014-04-11,1,0.0015462062243799526,0.0017403834148802804,-0.0022116437113056577,0.005563878905543699,0.9941980418291606
2014-04-15,1,0.002276786385461021,0.0025792227714532536,-0.0022116437113056577,0.004172977005317595,0.9946794315452525
2014-04-17,1,0.0017465591872394609,0.001954248728412083,-0.0022116437113056577,0.004172977005317595,0.9946457094413078
2014-04-22,1,0.0012613710252818663,0.0013795306139298205,-0.0022116437113056577,0.003337728216821112,0.9950727380438369
2014-04-24,1,0.0012894380663237043,0.0014252312582590182,-0.0022116437113056577,0.003337728216821112,0.995157809822525
2014-04-28,1,0.0016686292697585528,0.0018505134009562888,-0.003201684052532975,0.002588259122779259,0.9953203683275136
2014-04-30,1,0.0009544336268930775,0.0009963401972361407,-0.0004682920172449913,0.002588259122779259,0.9958380675738806
2014-05-02,1,0.0019141778738200887,0.002097146719441556,-0.0024835688370117895,0.002021038066882578,0.9965238322493678
2014-05-06,1,0.0014516503482894464,0.0015645178044498796,-0.0025889158475907318,0.002021038066882578,0.9963789804302347
2014-05-08,1,0.0014910323546869124,0.0015852178543821708,-0.0025889158475907318,0.002021038066882578,0.9961232002328657
2014-05-12,1,0.0014873874673893813,0.0015633258740542846,-0.0025889158475907318,0.0013488900233759138,0.9961268261017432
2014-05-14,1,0.001689640510220464,0.0018208879559299482,-0.00403630731818489,0.0013488900233759138,0.9954572105560566
2014-05-16,1,0.0015610940466138682,0.0017047060636095122,-0.0032110957941943745,0.0017048270668247555,0.9962159770764046
2014-05-20,1,0.0014410093193758925,0.001585717322775523,-0.0025889158475907318,0.0019287240912554716,0.9962358171774055
2014-05-22,1,0.0016408807335420604,0.0018211713220961617,-0.0025889158475907318,0.0014294100724583734,0.996044169131339
2014-05-27,1,0.0014102411743687165,0.0015593353891406637,-0.0025889158475907318,0.0014294100724583734,0.9961837999359712
2014-05-29,1,0.0013737698481125695,0.0015075628903033092,-0.0032110957941943745,0.0014294100724583734,0.995432880359707
2014-06-02,1,0.0013505038092928977,0.0014929575971585696,-0.00472101101344344,0.0014294100724583734,0.9949279325787667
2014-06-04,1,0.0008349573203531757,0.0009194332237849425,-0.0037802375217299,0.0032068306555453332,0.9942753594495619
2014-06-06,1,0.001130159071757994,0.0012479571708992475,-0.0037802375217299,0.001745732028103951,0.9947597176033498
2014-06-10,1,0.000971570941912533,0.0010577663565275177,-0.0037802375217299,0.006046031208178917,0.9944356187366752
2014-06-12,1,0.0006002164070028058,0.0006380113881704089,-0.0016213153025361419,0.006674113284959723,0.9942990029285942
2014-06-16,1,0.0006190995106216664,0.0006516718595528052,-0.0016213153025361419,0.006674113284959723,0.9942675763807952
2014-06-18,1,0.00014890991477803253,0.00023288456547359245,-0.0026820175737724,0.006046031208178917,0.9944820230011417
2014-06-20,1,0.0003244613569445201,0.0003673364809227233,-0.004497738958047247,0.006046031208178917,0.9941181366342056
2014-06-24,1,0.00030799502854935394,0.0003363805836187048,-0.0027058267487809957,0.006674113284959723,0.9938763873830532
2014-06-26,-1,-0.0008184430285954113,-0.0005812378724444656,-0.0026999155545609508,0.006047138796236482,0.9944144159754927
2014-06-30,-1,-0.0011656894522221652,-0.0009059714975064893,-0.0020845098014430187,0.006047138796236482,0.9947890697207773
2014-07-02,1,0.0003744727238305487,0.0004424027840020712,-0.0025799165912302785,0.002843675665765075,0.9954501818192185
2014-07-07,1,0.000693585596370505,0.000706269327907246,-0.0025799165912302785,0.003592864321852446,0.995260932617284
2014-07-09,1,0.0009794736810324236,0.0010202544203614821,-0.0035924946961871235,0.0022145206054822297,0.9953439652115055
2014-07-11,1,0.0012395554646167952,0.0013101686490707956,-0.0045514329004129,0.001842244630125386,0.9953994220331538
2014-07-15,1,0.0012194250947889062,0.001284695221280485,-0.0045514329004129,0.001842244630125386,0.9954004537117364
2014-07-17,1,0.0009179414593965415,0.0009428843989859905,-0.0035924946961871235,0.0024469292749278175,0.9953333123181859
2014-07-21,1,0.0006503281923758903,0.0006698965917222131,-0.0035924946961871235,0.0024988919226784246,0.9950671887833468
2014-07-23,1,0.0009742666399464876,0.0009980688780924362,-0.0035924946961871235,0.001842244630125386,0.995381924417074
2014-07-25,1,0.0006123584294853801,0.0006512536898177086,-0.003593230050024044,0.0022588647442673337,0.9949343174824758
2014-07-29,-1,-0.00019483812932956607,-1.6295093980527075e-05,-0.003593230050024044,0.003826457408627663,0.9949725952901045
2014-07-31,-1,-0.001164733792682404,-0.0008718707445591836,-0.0032382814660439282,0.003826457408627663,0.9955648685687519
2014-08-04,-1,-0.0011990631691164836,-0.0008962197234580096,-0.004838220649235453,0.0023365698877907282,0.9953230524908575
2014-08-06,-1,-0.0019517585504513484,-0.0015265190496691762,-0.0043677342673558855,0.0023365698877907282,0.9953562135494541
2014-08-08,-1,-0.002092446332042342,-0.0016711140585573424,-0.0037130079918048205,0.004244035667787886,0.995363902817896
2014-08-12,-1,-0.001819852172320568,-0.0014428508725399132,-0.0037130079918048205,0.005259982372092843,0.994932318199904
2014-08-14,-1,-0.0020022006833470204,-0.001575803200394376,-0.0043677342673558855,0.002492460691079376,0.9953262326319111
2014-08-18,-1,-0.0004890356774206362,-0.0003651992380555941,-0.0037130079918048205,0.002492460691079376,0.9956086646844083
2014-08-20,1,6.513039259998241e-05,9.718113699543816e-05,-0.004529061496375057,0.005073574733564131,0.9938422820304277
2014-08-22,1,0.00018241240817458985,0.00018434776037479412,-0.005322202336292969,0.002492460691079376,0.9939663298869775
2014-08-26,1,0.00031179531327195267,0.00032114441330167575,-0.005322202336292969,0.0021763158173549783,0.9936999676603154
2014-08-28,-1,-0.00034068213806699027,-0.0002487488244955238,-0.005515141308609457,0.0059602729997811285,0.9929508856952166
2014-09-02,-1,-0.0003826104853318948,-0.00031075415480820537,-0.005278840684281012,0.0059602729997811285,0.9931302544043955
2014-09-04,-1,-0.0011363527051011083,-0.0009404975787163498,-0.005278840684281012,0.0059602729997811285,0.9934087359231113
2014-09-08,-1,-0.0004844898200451315,-0.00039783797279312536,-0.005278840684281012,0.0059602729997811285,0.9926248067131885
2014-09-10,-1,-0.00013536900373216446,-7.605276205313e-05,-0.005770347248600812,0.0059602729997811285,0.9913787179676905
2014-09-12,-1,-0.000580329036584968,-0.00045809977576223825,-0.007695083602580287,0.0059602729997811285,0.9906134908522339
2014-09-16,-1,-0.0005056951152970647,-0.0003886292305590807,-0.011662085860142975,0.0019532242647994184,0.9893607677750973
2014-09-18,-1,-0.001192595494572334,-0.001017604940403844,-0.008719816971025146,-0.0010079122815014208,0.9910926861593317
2014-09-22,-1,-0.0018873952687649639,-0.0016188956960723725,-0.011662085860142975,0.0019532242647994184,0.9907814687449849
2014-09-24,-1,-0.0011668867323179604,-0.0010316469508271412,-0.011662085860142975,0.0030221010362839066,0.9903056393770358
2014-09-26,-1,-0.0012687598139600191,-0.001105349935094297,-0.008719816971025146,0.010420477449966322,0.9904861472588813
2014-09-30,-1,-0.0012394530320901536,-0.0011010973536710227,-0.008719816971025146,0.010420477449966322,0.9902480025999373
2014-10-02,-1,-0.001136844166707483,-0.0010246625738533595,-0.008719816971025146,0.010420477449966322,0.9901244382270481
2014-10-06,-1,-0.0004532570044939986,-0.00042370955733267684,-0.008719816971025146,0.007649133598831116,0.9906881462079556
2014-10-08,-1,-0.0004179218694774358,-0.0003749708074325369,-0.008719816971025146,0.007649133598831116,0.989941385625351
2014-10-10,-1,-0.0015255001709157789,-0.001343588260458968,-0.008534688963354567,0.010007461028230998,0.990106034885741
2014-10-14,-1,-0.0026098617449283905,-0.002312230956554962,-0.005367712072486312,0.010007461028230998,0.9912115252653707
2014-10-16,-1,-0.003004266181940134,-0.0026543876286988814,-0.004301724192916515,0.010420477449966322,0.9901816928379191
2014-10-20,-1,-0.0029379316120914083,-0.00260478522269059,-0.004203560917617808,0.010017418813882399,0.99098882096343
2014-10-22,-1,-0.0026550913058948702,-0.0023537192975677515,-0.0023845580227478125,0.008509909707405276,0.9912190304087815
2014-10-24,-1,-0.002180059626422845,-0.0019064240087579933,-0.004676368954616182,0.007060339783593709,0.992066825134172
2014-10-28,-1,-0.0016015125246577927,-0.0014169515939293944,-0.004676368954616182,0.006701952058082959,0.9925762774308854
2014-10-30,-1,-0.001706645146052414,-0.0015099287894379321,-0.0023845580227478125,0.0080553858591977,0.992309351835925
2014-11-03,-1,-0.0020786022189765345,-0.0018219593087610828,-0.0016852124876114388,0.008113448371617257,0.9918705480071067
2014-11-05,-1,-0.0012391715599911974,-0.001088942605964482,-0.0016852124876114388,0.0080553858591977,0.9947097367514991
2014-11-07,-1,-0.0011999905229540212,-0.0010680718848025965,-0.0014238294175974516,0.0080553858591977,0.9953828057512205
2014-11-11,-1,-0.001076320533882115,-0.0009599862223068433,-0.001878143663561181,0.0080553858591977,0.9948244090365667
2014-11-13,-1,-0.00044739059981852827,-0.00039671346126312116,-0.0027406280370309644,0.005170437798011248,0.9947134428608201
2014-11-17,-1,-0.0005153394517745759,-0.0004528565584576376,-0.00464013192199185,0.005170437798011248,0.9944468109597516
2014-11-19,-1,-0.0005823391468851246,-0.0004892747755813403,-0.00464013192199185,0.006759931658837706,0.992590589674187
2014-11-21,1,0.00016370608893937974,0.00023011453354219405,-0.0027406280370309644,0.0062232374960058305,0.9927663187868582
2014-11-25,1,0.0001686956804459136,0.00023443636616174093,-0.0032215289949162253,0.0062232374960058305,0.992600546660589
2014-11-28,1,0.0006633914508409776,0.0008202493498383073,-0.0032215289949162253,0.004991539743733956,0.9928290453047863
2014-12-02,1,0.001171681759796085,0.0014165046604834746,-0.005131625116377549,0.0034179883853277474,0.992534743576599
2014-12-04,1,0.001187073059718098,0.0014391555597467517,-0.006236795714651924,0.0034179883853277474,0.9914045943297031
2014-12-08,1,0.0013085549542138353,0.001563063087666561,-0.006320419461701398,0.0034107336356640704,0.9913686532267905
2014-12-10,1,0.0007358120332589268,0.0009118555248371648,-0.006320419461701398,0.004788545722916574,0.9906189429409074
2014-12-12,1,0.0005223818018564597,0.0006894192291598567,-0.006320419461701398,0.004718370581994227,0.9910562486335297
2014-12-16,1,0.00010904192541868319,0.00022073477125771318,-0.005159499698727373,0.004718370581994227,0.9914858172528317
2014-12-18,1,0.0015479235349514387,0.0018452487090949853,-0.005159499698727373,0.00338976017191118,0.9928743587573369
2014-12-22,1,0.0014623580506417685,0.0017074787759291535,-0.005553191917399676,0.002282465627508443,0.9922162908561993
2014-12-24,1,0.0014020908284619667,0.0016448318166865353,-0.008240376173876025,0.002282465627508443,0.991466569833266
2014-12-29,1,0.0012741245726743335,0.0014884510854875541,-0.008240376173876025,0.0013790269108537043,0.9910580941932103
2014-12-31,1,0.0006501466570946212,0.0007658697006568524,-0.008353212857049689,0.004718370581994227,0.9905707022764831
2015-01-05,1,1.4689196101322499e-05,5.59572256208587e-05,-0.007232042365170378,0.004718370581994227,0.9917904166311216
2015-01-07,1,0.0001384322092327516,0.00020874823000008913,-0.007232042365170378,0.005376716756140077,0.9910896349027559
2015-01-09,1,0.0006346822575189807,0.0007813093921168933,-0.007232042365170378,0.0036277548011986863,0.9916481506395556
2015-01-13,1,0.0005008201627446402,0.0006307154908453481,-0.007229358944584294,0.004282148731340049,0.9916971629738816
2015-01-15,1,0.00031036899514962725,0.00041275276442788103,-0.007229358944584294,0.0060259058301215754,0.991685670812465
2015-01-20,1,0.0005843366298286668,0.0007363528962465207,-0.007905810145546437,0.0047166479080409576,0.9906863747668709
2015-01-22,1,0.0006793338167180977,0.0008310233854634287,-0.009264517616743713,0.0047166479080409576,0.9905322847921917
2015-01-26,1,3.276210872716018e-05,8.590442955311913e-05,-0.00789775988378819,0.006369063588838077,0.9908111108331651
2015-01-28,-1,-0.0003561628968665704,-0.00034686458380566533,-0.00789775988378819,0.006369063588838077,0.991051175332454
2015-01-30,-1,-0.00013502152303810643,-0.00010260507351165114,-0.00602119961726214,0.0070223258745376466,0.9917006652842519
2015-02-03,1,0.00019019959894584973,0.0002930052140223393,-0.007696462608283765,0.0070223258745376466,0.9914364943326389
2015-02-05,1,0.000499586016059161,0.0006315524241342671,-0.007920015971413188,0.006336664459565422,0.9914524874134901
2015-02-09,-1,-6.956636056030559e-05,-3.2597133756816644e-06,-0.007696462608283765,0.006336664459565422,0.9926496247663514
2015-02-11,-1,-0.000466344816620908,-0.00044016653103623243,-0.007920015971413188,0.005726890211502937,0.9929137033454543
2015-02-13,-1,-0.00037641621186949615,-0.0003390104866583628,-0.007920015971413188,0.006336664459565422,0.9923572746948228
2015-02-18,-1,-0.0012558731778835918,-0.0011186503164706952,-0.0027933994278320166,0.006336664459565422,0.9934325459038305
2015-02-20,-1,-0.0014289754576775077,-0.0012762827173662178,-0.0027933994278320166,0.005559563834814371,0.9938939279847722
2015-02-24,-1,-0.0009555981836680414,-0.0008482028575111448,-0.0034068059540353626,0.0035498538701751077,0.9942165050512964
2015-02-26,-1,-0.0011755747032704165,-0.001038652088607335,-0.005018079788400968,0.0035498538701751077,0.9941234130345911
2015-03-02,-1,-0.00017585721050579064,-0.00016738862306262315,-0.005018079788400968,0.002972430286047338,0.9945654461700495
2015-03-04,-1,-0.0003481655731318701,-0.00034663700645774076,-0.005018079788400968,0.002972430286047338,0.9941847029527938
2015-03-06,-1,-0.0015496616190676183,-0.0013672151233543022,-0.00407069238599566,0.0057325204434874166,0.9941724963101016
2015-03-10,-1,-0.0021535442828609372,-0.0018490441895169948,-0.00407069238599566,0.007056012831846521,0.9933879261318209
2015-03-12,-1,-0.002649349292323384,-0.0022724713861183195,-0.0022661232761934853,0.008160055330594093,0.9927167149950479
2015-03-16,-1,-0.00202574679845009,-0.0017165192645270042,-0.00407069238599566,0.007056012831846521,0.9936618749499513
2015-03-18,-1,-0.0018417529026049113,-0.0015640377061411454,-0.00407069238599566,0.007056012831846521,0.9936810675289381
2015-03-20,-1,-0.0016006031755533255,-0.0013837759715064444,-0.003511238930193888,0.007056012831846521,0.9937881324287818
2015-03-24,-1,-0.0013039686232742633,-0.001132865699327915,-0.003511238930193888,0.00653035898086565,0.9941194363475384
2015-03-26,-1,-0.0015896045149160205,-0.0013800439883686995,-0.003511238930193888,0.007056012831846521,0.9932027908804343
2015-03-30,-1,-0.0013317473423699387,-0.0011442816948900381,-0.003937442437625994,0.00653035898086565,0.9934499637938858
2015-04-01,-1,-0.0014757742727937529,-0.0013001211802792052,-0.004598013311670144,0.00653035898086565,0.9932408588303299
2015-04-06,-1,-0.0010160694283396564,-0.0008893878104965292,-0.004598013311670144,0.006664056460827744,0.9932378031113461
2015-04-08,-1,-0.0005669450559028556,-0.0004963149064904535,-0.005589332181739385,0.006099624234821997,0.9932766389081623
2015-04-10,1,0.00020898156902122487,0.0002633647293447358,-0.005589332181739385,0.0050568929821885105,0.9934636192139805
2015-04-14,0,-1.981214232868426e-05,2.977747746063766e-06,-0.005589332181739385,0.0050568929821885105,0.9933634443042536
2015-04-16,1,0.00016399568565339406,0.00022271622763316782,-0.007092859903782367,0.006180426522593903,0.9924634170869335
2015-04-20,1,0.00027017341195686724,0.0003441588342287422,-0.008174076663259248,0.0050568929821885105,0.9919179656138112
2015-04-22,1,0.0003050663182290894,0.0003850097189684764,-0.008174076663259248,0.005000017886475715,0.9918154590569158
2015-04-24,1,0.0007491140550208374,0.000902057213490317,-0.008174076663259248,0.003971399039793327,0.99229588216401
2015-04-28,1,0.0005644898448419899,0.0007117109347288739,-0.007771414860467407,0.003971399039793327,0.9927381374999444
2015-04-30,0,-3.06876860747672e-05,3.715419731612103e-05,-0.007771414860467407,0.003971399039793327,0.9934641912818617
2015-05-04,1,0.0006422884132745633,0.0008142382152007908,-0.007771414860467407,0.0020730832618382137,0.9938988056897988
2015-05-06,0,-2.5467240632516617e-05,2.948465530472623e-05,-0.007246063440306799,0.0020730832618382137,0.9942771792370138
2015-05-08,1,9.455075534732865e-05,0.00014311521386773865,-0.007771414860467407,-0.0015945342016979282,0.9938818975661574
2015-05-12,-1,-0.0006030544746130072,-0.0005410809534424503,-0.0074716135844930184,0.0006362854617742969,0.9930045520834341
2015-05-14,1,0.0004638860282056551,0.0006261622226214494,-0.007191068885402001,0.0006362854617742969,0.9919727604786819
2015-05-18,1,0.0003185533682168183,0.00048019643350205506,-0.007093017960143074,7.536208996857549e-05,0.9927158247344265
2015-05-20,1,0.00020510035852983885,0.0003479697907323154,-0.006295721124247422,0.0006362854617742969,0.9923519775357548
2015-05-22,1,1.7536913889821908e-05,0.00013923172732514794,-0.005286326081858465,0.0028382596876295727,0.9923154774753239
2015-05-27,-1,-0.0003040348339410033,-0.0002489086010805078,-0.005286326081858465,0.008984046822554789,0.9913880179203568
2015-05-29,-1,-0.0009296264068202919,-0.0008669365520294933,-0.004967416106073029,0.009296962410565495,0.9910412299522438
2015-06-02,-1,-0.0009764017809641029,-0.0009087595898280743,-0.007093017960143074,0.009296962410565495,0.9899723428619907
2015-06-04,-1,-0.0010853162491661242,-0.0010377230247459945,-0.007191068885402001,0.010759725953108975,0.9885796744422958
2015-06-08,-1,-0.0017184215436311838,-0.001589605333507186,-0.006873180864266441,0.010759725953108975,0.9878107451564181
2015-06-10,-1,-0.000838272046573123,-0.000802309951395611,-0.007639112691968579,0.010759725953108975,0.988206907735397
2015-06-12,1,0.00048047611581296303,0.0006242445910536413,-0.007639112691968579,0.010759725953108975,0.9892091316962374
2015-06-16,1,0.00044961510325740295,0.0006055547254017999,-0.007639112691968579,0.010759725953108975,0.9893523601978785
2015-06-18,1,0.0008333560510474862,0.0010017340270784235,-0.010357077913604039,0.009296962410565495,0.989692255332323
2015-06-22,1,0.0010473406634799124,0.001223856272507822,-0.010357077913604039,0.009296962410565495,0.9896067290463877
2015-06-24,1,0.0019225057770147183,0.002220879005876486,-0.010357077913604039,0.00717857428467197,0.9900405144644314
2015-06-26,1,0.0020551099771738027,0.0023737864363823085,-0.010357077913604039,0.005507523141225115,0.9902129317721743
2015-06-30,1,0.00136446202562046,0.001621608543682543,-0.007264131006075968,0.00860867132247515,0.9909851546931081
2015-07-02,1,0.0012968947947741083,0.0014957738739821255,-0.004471213355100765,0.00860867132247515,0.9909071205409001
2015-07-07,1,9.834859509453756e-05,0.0001373004918242637,-0.0015210169550785779,0.010449602389909125,0.9904287586894014
2015-07-09,1,0.00023968093280204704,0.00031940537937590546,-0.0015210169550785779,0.010449602389909125,0.9895539263658637
2015-07-13,1,0.0002588501802739905,0.00027926435005468217,-0.0018190328492243332,0.00860867132247515,0.9900711914584388
2015-07-15,1,0.00017693869377861983,0.00018320255014331853,-0.00522551801660525,0.00860867132247515,0.9888012697837352
2015-07-17,1,0.00017053533698439046,0.0001987039024498892,-0.003960903590593483,0.00860867132247515,0.9893389020674659
2015-07-21,1,0.0005121534017120367,0.0005727704548976944,-0.004314840419362042,0.007757287572900616,0.9895883725393109
2015-07-23,1,0.0009708987170665934,0.0011321418865882756,-0.0071680687553298435,0.00545152950401527,0.9888663114058174
2015-07-27,1,0.0005875532574350405,0.0006773007002732737,-0.011615809075759933,0.00545152950401527,0.9862579727198305
2015-07-29,1,0.0008076340657150868,0.0008774102557064809,-0.011615809075759933,0.002425010267905489,0.9859677074320792
2015-07-31,1,0.00209222474374885,0.0023280850383633326,-0.011615809075759933,0.0039018636778097183,0.9862162624917848
2015-08-04,1,0.0020265823855566585,0.002227866948544166,-0.011615809075759933,0.002425010267905489,0.9857744460882583
2015-08-06,1,0.003480035551577338,0.003913639137407857,-0.011615809075759933,0.002425010267905489,0.9868375110227185
2015-08-10,1,0.0033578810718807293,0.003774693986192393,-0.015530204042881881,0.0025064383360818765,0.9854585897791326
2015-08-12,1,0.0022496996360284348,0.0025046546220041602,-0.011615809075759933,0.0025064383360818765,0.9868052243661276
2015-08-14,1,0.0023023857404830396,0.0025695889116301254,-0.011615809075759933,-3.0923089461873214e-06,0.9865508622889774
2015-08-18,1,0.0018446422190274408,0.002033593458923841,-0.011615809075759933,0.004251176757395093,0.9868971914739167
2015-08-20,1,0.0011714002086273085,0.0012894885876430777,-0.008146024242981904,0.004251176757395093,0.988129024173941
2015-08-24,-1,-0.001399628953382362,-0.0011714937302221915,-0.007875397101923143,0.004251176757395093,0.9909260409435752
2015-08-26,-1,-0.0005711125866214384,-0.00046757812757606203,-0.008546468163418672,0.004251176757395093,0.9908147616439203
2015-08-28,1,0.0006332465800787532,0.0006980855541838772,-0.01309108657973775,0.00013897447825140922,0.987903826522003
2015-09-01,-1,-0.00043911175924291133,-0.00039788161389960763,-0.010287198982217752,0.004041304726919944,0.9898870013290192
2015-09-03,-1,-0.0007832543265888282,-0.0006873427277076911,-0.009475317559041475,0.004123353550395145,0.9892819460259983
2015-09-08,-1,-0.0012705107431265307,-0.001123367280726054,-0.009475317559041475,0.0032678639241065727,0.9893741662887527
2015-09-10,-1,-0.0016384237642683322,-0.0014554423538344105,-0.009475317559041475,0.005616901623380095,0.9882836567444068
2015-09-14,-1,-0.0016805354270361629,-0.0014950116639865039,-0.009475317559041475,0.007795430777921659,0.9878221132002325
2015-09-16,-1,-0.0010946725928696736,-0.0009999644246744426,-0.01155950490746696,0.005628101937174966,0.9877293190471886
2015-09-18,-1,-0.0012921870073743054,-0.001152192811344382,-0.01155950490746696,0.007844707716406319,0.9867135529095854
2015-09-22,-1,-0.002569105456231894,-0.0022418295527784422,-0.008352363120280829,0.007844707716406319,0.9867912734898153
2015-09-24,-1,-0.0023288933826564294,-0.002064065574537008,-0.008352363120280829,0.008454576540651905,0.9850162348223405
2015-09-28,-1,-0.005623586716925987,-0.004949892829332425,-0.0020461472014948554,0.013911033896611222,0.9854378572354797
2015-09-30,-1,-0.004924868345212682,-0.004356146199089939,-0.0020461472014948554,0.01740317080731644,0.9843724343150806
2015-10-02,-1,-0.004264686555782404,-0.0037516560737953374,-0.0024630593423049358,0.014967170857065197,0.9854771400773066
2015-10-06,-1,-0.005521602114959386,-0.004877143566638266,0.0019103768693747147,0.014967170857065197,0.9846150089859017
2015-10-08,-1,-0.004423282668856851,-0.0038900714634576236,-0.001279914049648352,0.013911033896611222,0.986436512132732
2015-10-12,-1,-0.004138642286457013,-0.003634065501381209,-0.0024630593423049358,0.013911033896611222,0.9863725089848524
2015-10-14,-1,-0.004727809996384386,-0.0041416910828572205,-0.0010574950095112211,0.013911033896611222,0.9858518613717278
2015-10-16,-1,-0.003700490183174867,-0.003227846114290796,-0.0033048394942464063,0.012372128596255267,0.9873376739250979
2015-10-20,-1,-0.0033925319886076192,-0.0029457345383265615,-0.0044938656679969725,0.012372128596255267,0.9876160784280903
2015-10-22,-1,-0.0026567145084084166,-0.0022897791073196315,-0.004206658479128526,0.01136741412598281,0.9901037189686054
2015-10-26,-1,-0.0018016789836511283,-0.0015136850473591705,-0.0044938656679969725,0.010260216973223574,0.9910329695190501
2015-10-28,-1,-0.000798490663501354,-0.0005947629459595345,-0.0044938656679969725,0.009241173084105119,0.9928950738536364
2015-10-30,-1,-0.00020970031182126472,-0.00011523702278231745,-0.0044836823637371724,0.008768335722996371,0.9932287625512599
2015-11-03,1,0.0012206404721317686,0.0013727281888271802,-0.005526069887769202,0.007762532308636796,0.9927929196397984
2015-11-05,1,0.00047774843816088334,0.0005176464469897838,-0.005526069887769202,0.008081361359619068,0.9923489486626557
2015-11-09,1,0.0009262275650828884,0.0010672348992283522,-0.005526069887769202,0.007762532308636796,0.9923128458783456
2015-11-11,1,0.0013153666530642642,0.0015306344855212923,-0.007470469141264084,0.007762532308636796,0.9915624063404437
2015-11-13,1,0.0014511683668379804,0.0017316842197320306,-0.009200889788187672,0.007762532308636796,0.9910937412813479
2015-11-17,1,0.0017157394041116011,0.0020396546577206563,-0.009200889788187672,0.008594930098758722,0.9901684672928079
2015-11-19,1,0.001344247618554268,0.0015619973011081435,-0.01161999547778506,0.008414670947913774,0.9891095690281659
2015-11-23,1,0.0016043979948816786,0.001872876688514495,-0.01161999547778506,0.009244323668569514,0.9886587817667923
2015-11-25,1,0.0008720578068942925,0.0009802825948668254,-0.01161999547778506,0.013834324801510462,0.9884966952375673
2015-11-30,1,0.0006062369502742625,0.0006732759252840799,-0.01161999547778506,0.013834324801510462,0.9883248183235946
2015-12-02,1,0.0006162205852758189,0.0007158683493552492,-0.01161999547778506,0.013834324801510462,0.988690201128477
2015-12-04,1,0.0008277733655368644,0.0009607022941358798,-0.01161999547778506,0.01171469661959669,0.9887756854184463
2015-12-08,1,0.00036101030539442984,0.00041368819890402677,-0.01161999547778506,0.01171469661959669,0.988748526080727
2015-12-10,1,0.000669594157487246,0.0007894529483785221,-0.013928889584836098,0.005779693573746872,0.988346729325107
2015-12-14,1,7.708696218909102e-05,0.00012577758796086634,-0.016170997814201962,0.005779693573746872,0.988298109197894
2015-12-16,1,0.001105779904154202,0.0012759561310386174,-0.016170997814201962,0.002980024264439861,0.9888691859363666
2015-12-18,1,0.00045517521002796913,0.0005814069558164419,-0.016170997814201962,0.004878532467855687,0.9894148900817906
2015-12-22,1,0.001998470893360068,0.002406064275185831,-0.016170997814201962,0.008308629696585452,0.9888596789816397
2015-12-24,1,0.0026149111302808665,0.003119450876172745,-0.016170997814201962,0.008308629696585452,0.9887267007589599
2015-12-29,1,0.003711044605027052,0.00444139510750568,-0.01664252154150094,0.004878532467855687,0.9874431806948762
2015-12-31,1,0.0035983700101233046,0.004329035999685333,-0.01664252154150094,0.013639512196648145,0.9867135009466625
2016-01-05,1,0.002533877181008784,0.003073977275983209,-0.016170997814201962,0.013860084861901519,0.9873133927465383
2016-01-07,1,0.0021805292012563515,0.0026810912140932553,-0.016240439045261387,0.013860084861901519,0.9870398806948757
2016-01-11,1,0.0010792116065347285,0.0014259994231737856,-0.008702651741415223,0.013860084861901519,0.9866095355052007
2016-01-13,1,4.002655207224873e-05,0.00020067844247364744,-0.008702651741415223,0.015065573049647557,0.9851756777965321
2016-01-15,-1,-0.0007917461900583698,-0.0007281478970667574,-0.005063134390435187,0.018908191339984684,0.9837712285459979
2016-01-20,-1,-0.0007979666946615744,-0.000759586503155148,-0.0017370234403660777,0.02000767059498898,0.983720598388318
2016-01-22,1,0.0010502272393860747,0.001311383634495482,-0.005506025044793106,0.019967744221785134,0.9845716737505927
2016-01-26,1,0.0008382756067185698,0.0009942516836797142,-0.005506025044793106,0.019967744221785134,0.9842938891485895
2016-01-28,1,1.584322405962459e-06,3.822959755505164e-05,-0.00532075001808457,0.020225803949086935,0.9836084637042573
2016-02-01,1,0.0012439569094616666,0.0014149181284797345,-0.00532075001808457,0.019967744221785134,0.985450511475655
2016-02-03,1,0.0018448648784192899,0.00206755134502152,-0.00974977198108792,0.019967744221785134,0.9856990210739254
2016-02-05,1,0.0010346993536701258,0.0011417832478471022,-0.007457368422876934,0.019967744221785134,0.9862225809078861
2016-02-09,-1,-6.395239753567216e-05,-4.2096773026638284e-05,-0.006208648390050161,0.019967744221785134,0.9878454486379056
2016-02-11,-1,-0.0003705357048742142,-0.00031429535137842335,-0.004254726932843659,0.01786054574216676,0.9890122892009383
2016-02-16,1,0.0007034299500947972,0.0007358006952985548,-0.006208648390050161,0.013029803671528756,0.9907593116327876
2016-02-18,1,0.001137536513104737,0.0012125752990825957,-0.00700107393732668,0.009816322282576244,0.9914052502118867
2016-02-22,-1,-0.000346067248197058,-9.951100246560827e-05,-0.006208648390050161,0.009422946689683883,0.9925152124575479
2016-02-24,1,0.00016804450091469992,0.00034836377803533925,-0.006208648390050161,0.009422946689683883,0.992618904381056
2016-02-26,1,0.0008292315916980105,0.0008939611289828926,-0.006208648390050161,0.009148535154570694,0.9930096469026968
2016-03-01,1,0.0002941483436445081,0.0004920405054023255,-0.006208648390050161,0.009148535154570694,0.9927273159679924
2016-03-03,1,0.00012035235354824223,0.00029370895717581436,-0.0027730790112217847,0.00949901702637505,0.9926066330709244
2016-03-07,1,0.0005022756977719791,0.0006278423214380579,-0.004778637527731217,0.009596691785224636,0.9917815745223062
2016-03-09,0,-0.00019100676413940254,4.525532699483194e-05,-0.005207903191383886,0.011174892516157036,0.9905265045543763
2016-03-11,1,0.000964409251021436,0.0010249943378038105,-0.005207903191383886,0.009596691785224636,0.9912881878250387
2016-03-15,1,0.0006474572646690789,0.0007333232182887648,-0.0027730790112217847,0.009596691785224636,0.9914046945993761
2016-03-17,1,0.0005462400358486025,0.0006126871417395104,-0.0008617720785913376,0.009596691785224636,0.9915679722421807
2016-03-21,1,0.001216398831708575,0.0012786695373932088,0.0005822219515849321,0.00941715874729692,0.9917464771003232
2016-03-23,1,0.0022169811082901696,0.0024779718431580965,-0.002992870642642018,0.009257163744211722,0.9921799228375804
2016-03-28,1,0.0020399918554917353,0.002281735751020238,-0.0009974628109466815,0.007870497318387903,0.9928048903473473
2016-03-30,1,0.002932739343090675,0.0033308226253750796,6.926636823317454e-05,0.007479989298537516,0.9936509954712057
2016-04-01,1,0.0028648341564243836,0.003216795500647756,0.0004774274844953918,0.007335214755918076,0.9943135181433358
2016-04-05,1,0.002511117457410379,0.002818136785028041,0.0004774274844953918,0.007335214755918076,0.9947557500211022
2016-04-07,1,0.002827019192219765,0.0031826877767305913,0.0015924964818973774,0.007335214755918076,0.9957306253552121
2016-04-11,1,0.0027595309143426485,0.003086199809815949,0.0004774274844953918,0.007335214755918076,0.9952948424192152
2016-04-13,1,0.003020390844011104,0.003387423086588338,0.0004774274844953918,0.00776212955097519,0.9945619375326127
2016-04-15,1,0.0033307354157783107,0.0037401192367212464,-0.0024421134187950074,0.00776212955097519,0.9936923859663589
2016-04-19,1,0.0037819464838894368,0.004254237364577612,-0.003171560339128753,0.007343719739920256,0.9927541629538975
2016-04-21,1,0.0032745763524838073,0.003664915756166633,-0.003077344196921806,0.00776212955097519,0.9909043569209245
2016-04-25,1,0.0034156246613062705,0.0038081720329116403,-0.005234502254810714,0.00776212955097519,0.9903689070447292
2016-04-27,1,0.0035782780633106044,0.0039704687214547965,-0.005234502254810714,0.008504529813646189,0.9892918041249436
2016-04-29,1,0.003492909045772055,0.0038769886972428455,-0.005234502254810714,0.008504529813646189,0.9890559733898352
2016-05-03,1,0.003283087978986001,0.0036155181532939585,-0.005089378317989491,0.004930002401847764,0.9896312610384963
2016-05-05,1,0.0038144605475803235,0.004212336096029743,-0.005089378317989491,0.0027155954490423956,0.9898174981819993
2016-05-09,1,0.003189564051736411,0.003455825894403121,-0.004029947424366358,0.004892134651350848,0.9900379017254086
2016-05-11,1,0.004475737694587147,0.00497259803410896,-0.004029947424366358,0.00350716682691645,0.9897530641917409
2016-05-13,1,0.003117721962381598,0.0033652045563779525,-0.004029947424366358,0.00350716682691645,0.9910370543804005
2016-05-17,1,0.002686729630121328,0.0029221272852343635,-0.004029947424366358,0.00350716682691645,0.9919769516982101
2016-05-19,1,0.0017631999929508704,0.0018970124092456742,-0.0035137484067596938,0.00350716682691645,0.9943607008124717
2016-05-23,1,0.0014834650592124065,0.0015964777959214594,-0.002801477827615451,0.004989900683951998,0.9945969895313758
2016-05-25,1,0.0017612901244687075,0.0018853793115092333,-0.0020394090811723872,0.004989900683951998,0.9946401920617317
2016-05-27,1,0.0010456982728552745,0.0010572040962557247,-0.003053447726271196,0.004989900683951998,0.9909877203490862
2016-06-01,1,0.0006036038482688975,0.0006975373670349535,-0.0020778445177781213,0.0113774861497325,0.9886346922872145
2016-06-03,0,-0.0001721839446144856,7.417138584777099e-05,-0.0020778445177781213,0.0113774861497325,0.9880578846364682
2016-06-07,-1,-0.0004988085413514047,-0.00017346096908765838,-0.0029576617405792163,0.01252781829562034,0.9877524598947599
2016-06-09,1,4.218389698024084e-05,0.00030825272014739665,-0.0029576617405792163,0.011544158046120084,0.9880326832618326
2016-06-13,-1,-0.0007352007490362071,-0.00034595370809001433,-0.0029576617405792163,0.011544158046120084,0.9877170019912515
2016-06-15,-1,-0.0003649442147374679,-7.582992453376435e-05,-0.0018955984577293504,0.011544158046120084,0.9878826864594347
2016-06-17,0,-0.00013854261082642337,0.00010921349937977986,-0.0031676691557009995,0.011544158046120084,0.9880544709305983
2016-06-21,-1,-0.0004154088579304278,-9.399416587691097e-05,-0.0035308127926635957,0.010989837266605892,0.9878039834898646
2016-06-23,1,0.001004475098136288,0.0010867787492600152,-0.0040513782033667735,0.00939909366835176,0.9881329589348568
2016-06-27,-1,-0.0014395210842253396,-0.0011120031033414611,-0.0035308127926635957,0.010989837266605892,0.9894895909072415
2016-06-29,0,-2.337192596861353e-06,0.0001938217411787058,-0.0035308127926635957,0.008038804012780844,0.9921629529197268
2016-07-01,-1,-0.00046158529300967276,-0.0001516267542685197,-0.0039123222620819935,0.008306605037144959,0.9922069773000641
2016-07-06,-1,-0.0004933331632226963,-0.00014288307175123961,-0.004286728232375129,0.006778645610440984,0.9927623073604516
2016-07-08,1,0.0006336924103001783,0.000784270137916952,-0.004286728232375129,0.005193449922425049,0.9930566629840342
2016-07-12,1,0.0009209449672058402,0.0010160961899930976,-0.004286728232375129,0.0038504534925529886,0.9932478846081056
2016-07-14,1,0.0009755780180847476,0.0010632862059816207,-0.004286728232375129,0.007054698513774913,0.9926036825827974
2016-07-18,1,0.0007285213471361113,0.0008230358296096758,-0.00429815286983219,0.007054698513774913,0.9924511194781513
2016-07-20,1,0.0009067447651870587,0.0009646292706875183,-0.00429815286983219,0.005193449922425049,0.9927727266966454
2016-07-22,1,0.0007340045110293349,0.0007956015020991138,-0.003815272229140003,0.004271642504239981,0.993585607722655
2016-07-26,1,0.0015283030896017628,0.0015321394446188874,-0.00355984304924825,0.0013550157778550813,0.9954207011475112
2016-07-28,1,0.0016993555392902774,0.0017322304050201606,-0.003815272229140003,0.0006816989695426802,0.9946833378640904
2016-08-01,1,0.001588813996408865,0.001590681486329151,-0.00355984304924825,0.0010620760227682156,0.9952800691016135
2016-08-03,1,0.0015563444922490261,0.0015831968072657298,-0.00355984304924825,0.0010620760227682156,0.9949757936829259
2016-08-05,1,0.0011200554298456786,0.0011703695006136904,-0.004125794699401889,0.0018152661804958455,0.9946828934969889
2016-08-09,1,0.0007372694047789467,0.0008575142130170493,-0.005824938445555518,0.0010620760227682156,0.9946176679567938
2016-08-11,1,0.0013663361388523455,0.001404922007250632,-0.007591367875746601,0.0006816989695426802,0.9938207056639639
2016-08-15,1,0.0010097625948206667,0.0010676572317842195,-0.007261246893838187,0.0010620760227682156,0.9936858415499726
2016-08-17,1,0.00033900060968771806,0.0004915287672045983,-0.007261246893838187,0.0018152661804958455,0.992651823233954
2016-08-19,1,0.0005551436109468526,0.0006550816638409351,-0.007261246893838187,0.002549970818035481,0.9924658930419316
2016-08-23,1,0.0006120188464053859,0.0006890943394869998,-0.007261246893838187,0.003893103012864357,0.9918521939257976
2016-08-25,-1,-0.00043310255428049974,-0.00021235987825675483,-0.007261246893838187,0.004564800059223721,0.9918030926943637
2016-08-29,0,-0.00010593812071417528,6.245986013218543e-05,-0.007261246893838187,0.003893103012864357,0.991696393517993
2016-08-31,-1,-0.0006848957411850346,-0.00045349157896100163,-0.007261246893838187,0.004806847275205143,0.9907407597042297
2016-09-02,-1,-0.0009441110211639943,-0.0006981464163650712,-0.006362542673648442,0.007178286714696351,0.9905458205934782
2016-09-07,-1,-0.0011744051617567502,-0.0009125919745133668,-0.006416609728969985,0.011504223511070735,0.989765785097419
2016-09-09,-1,-0.0015571329693171696,-0.0012767986050893814,-0.002002510925612747,0.011504223511070735,0.9901588661591955
2016-09-13,-1,-0.0015699365309904093,-0.0012709360098436132,-0.0038486469603994096,0.0074913155939936565,0.9899275473670539
2016-09-15,1,5.8325738262718395e-05,0.00014359637135638638,-0.0038486469603994096,0.0074913155939936565,0.991376470559786
2016-09-19,1,0.0003878730346752043,0.00041644191050831916,-0.0057701528103762945,0.0074913155939936565,0.9912579744727542
2016-09-21,1,0.0008196491462537459,0.0008433583617101086,-0.0057701528103762945,0.007811770670312218,0.9909604536945382
2016-09-23,1,0.0005008956974093342,0.0005135759633510501,-0.005003759793860853,0.008761339405464882,0.9915855603447294
2016-09-27,1,0.0007098904229758756,0.0007624796410982707,-0.0035184237328456337,0.012679690821362149,0.991118130606013
2016-09-29,1,0.00029151665870806793,0.00030111336363044074,-0.005003759793860853,0.008975441486800613,0.990301389230348
2016-10-03,1,0.0012243779588158202,0.0013897304069282058,-0.005003759793860853,0.008152834096416813,0.9903305039794206
2016-10-05,1,0.0010422024610475013,0.0011444187228358419,-0.005003759793860853,0.0076739953526245835,0.9903255435594607
2016-10-07,1,0.00097319607998314,0.0010236877833488926,-0.005003759793860853,0.0076739953526245835,0.9905874371617395
2016-10-11,-1,-0.0008722479326202843,-0.0006394665564936746,-0.0035956143923771716,0.008611991075224989,0.990960152020523
2016-10-13,-1,-0.0006533345486228521,-0.00042562084423654356,-0.005003759793860853,0.008611991075224989,0.9890083588457488
2016-10-17,-1,-0.0006178595572277286,-0.0004262903777791944,-0.013479085486529239,0.008611991075224989,0.9864368010398951
2016-10-19,-1,-0.0004876910820958447,-0.00029717457915803944,-0.013479085486529239,0.008611991075224989,0.9862366706710662
2016-10-21,-1,-0.0003416341277789899,-0.00016436906948021394,-0.013479085486529239,0.010596663167926373,0.9853976734438183
2016-10-25,1,0.0003478164955245485,0.00044257581270670343,-0.015706630008887112,0.008611991075224989,0.985374073889883
2016-10-27,-1,-0.0013342451905208497,-0.001057313832596735,-0.006076442781920901,0.008611991075224989,0.9869385746918906
2016-10-31,-1,-0.0003857649588502163,-0.0002508409413611985,-0.015706630008887112,0.008586487096801475,0.9859155832398213
2016-11-02,-1,-0.0013330579072685714,-0.001068916798303566,-0.01718330451398726,0.008586487096801475,0.9855633298985838
2016-11-04,-1,-0.0013067330888491178,-0.001035126324097566,-0.01718330451398726,0.008947122214673276,0.9853891956772319
2016-11-08,-1,-0.0003948724888158568,-0.00023674481427251193,-0.01718330451398726,0.0046344904274639165,0.9861642402084563
2016-11-10,-1,-0.0003409300644122739,-0.00021000058097742617,-0.01070431451432034,0.0046344904274639165,0.9880584290232725
2016-11-14,-1,-0.0022715401990443555,-0.0019510372622727789,-0.002592468296067003,0.0046344904274639165,0.9903754631720979
2016-11-16,-1,-0.003442678272866068,-0.0028238158762020882,-0.002592468296067003,0.003368051804686057,0.990990980455846
2016-11-18,-1,-0.0013004184708491828,-0.0010420964805826797,-0.004096418371853636,0.0030526812825216318,0.9925487136783501
2016-11-22,-1,-0.0017242873091800038,-0.0014416860193349262,-0.004096418371853636,0.0030526812825216318,0.9929000845703231
2016-11-25,-1,-0.000990665689521306,-0.0008160928061176002,-0.004096418371853636,0.0017603598835181358,0.9934103029209778
2016-11-29,-1,-0.0023716678311383847,-0.002063842243770187,-0.0031152873155719466,0.002447645270166202,0.9946233124568695
2016-12-01,-1,-0.0032411979788124455,-0.0028420830695320264,-0.001127151883890739,0.002447645270166202,0.9947238591333675
2016-12-05,-1,-0.0028733100937187945,-0.002523484545170525,-0.00039667764389634386,0.002447645270166202,0.9947878187924633
2016-12-07,-1,-0.0027933233137164316,-0.0024382570721563574,-0.00039667764389634386,0.003413513301236716,0.994257748054492
2016-12-09,-1,-0.0020190902365506682,-0.0017620670181784455,0.0002765130443700058,0.004389674934738873,0.9944712182081129
2016-12-13,-1,-0.0020209063443429537,-0.0017486394726133536,-0.000617276903163765,0.006771852346064143,0.9938674135648615
2016-12-15,-1,-0.001043330237101853,-0.0009585821085658416,-0.0014147319449700135,0.006771852346064143,0.9942974900482141
2016-12-19,-1,-0.0012639257099879395,-0.0011647448145107792,-0.000492537664256102,0.006771852346064143,0.9941117811168778
2016-12-21,-1,-0.0015339942244535624,-0.0014181613398576514,-0.0020365599613509956,0.006771852346064143,0.9941177488960388
2016-12-23,-1,-0.0014922843017234969,-0.001369010110693983,-0.0038396322823838515,0.006771852346064143,0.9939408026075532
2016-12-28,-1,-0.0014496336564818032,-0.0013317083522108879,-0.0023864636648405087,0.007072819723695312,0.9931439157132284
2016-12-30,-1,-0.0011645631593259571,-0.0010865379672350124,-0.0037263883149760493,0.008103178064722586,0.9922482499585428
2017-01-04,-1,-0.00030609811779980125,-0.0002340906202951917,-0.0037263883149760493,0.008103178064722586,0.9926423527987248
2017-01-06,1,0.00015909074610879136,0.0002660550672037792,-0.003936529824993523,0.008103178064722586,0.992784408530714
2017-01-10,1,0.0008276329261421567,0.001004048322862952,-0.004342817572462455,0.0056117726948185735,0.9933492318556372
2017-01-12,1,0.000838491742902315,0.0010156475676141997,-0.003936529824993523,0.0056117726948185735,0.9937918340176285
2017-01-17,1,0.0008841001756444139,0.0010696437717040994,-0.004342817572462455,0.0056117726948185735,0.9934318249293986
2017-01-19,1,0.0005667900580245864,0.0006691051942323567,-0.004003085670239047,0.007194722787223438,0.9933599521770196
2017-01-23,1,0.0002728428353692734,0.00035178409822210537,-0.0023864636648405087,0.007194722787223438,0.9934227881726008
2017-01-25,1,9.967144510591851e-05,0.0001236963401080923,-0.0007910521380150923,0.0073950153654033,0.9934179145457206
2017-01-27,1,0.0006527543863230096,0.0007278557193842309,-0.0005509938903694414,0.006352606484398029,0.9947196114263324
2017-01-31,1,0.0011096868100352007,0.0012249755474517802,0.0003666809258734013,0.006352606484398029,0.995494164294108
2017-02-02,1,0.0008641330350967765,0.0009048049506005924,-0.0005509938903694414,0.006352606484398029,0.9949528602612099
2017-02-06,1,0.0010854166500991913,0.0011667967244486344,-0.0005509938903694414,0.006352606484398029,0.9952904532419738
2017-02-08,1,0.0017396440311878373,0.00198856549277903,0.0009718216853213664,0.006719888725900082,0.9952353776171652
2017-02-10,1,0.0022754706387976857,0.0026021074878931644,-0.0005509938903694414,0.006352606484398029,0.9955624440088292
2017-02-14,1,0.0024640010425459936,0.0028453043169180707,-0.0005509938903694414,0.006352606484398029,0.9955097411993649
2017-02-16,1,0.00259596184754296,0.0029731687224065742,-0.0013182641643852677,0.006270387809586455,0.9951532196203726
2017-02-21,1,0.0028656937031369453,0.0032684331900566252,-0.002855934450572803,0.00583881636186616,0.9948105589178307
2017-02-23,1,0.0029591615111761956,0.0033526493328332103,-0.002855934450572803,0.00583881636186616,0.9945619502780948
2017-02-27,1,0.0032446410351801816,0.0037075920343393213,-0.0038687530755042417,0.006298252082246877,0.9943940113770634
2017-03-01,1,0.0038550368860192663,0.0044089377391777936,-0.0038687530755042417,0.005749298031803192,0.9945336090183364
2017-03-03,1,0.0037716474701773245,0.0043365883915247655,-0.0038687530755042417,0.005749298031803192,0.9946401782148498
2017-03-07,1,0.003222793111719199,0.0036446212390994796,-0.0026395963123434845,0.005749298031803192,0.9948388833080404
2017-03-09,1,0.004154652866780225,0.004729476278617395,-0.0026395963123434845,0.005055779656361092,0.995097013496055
2017-03-13,1,0.004013336850768985,0.004548442773314019,-0.0023612928690535852,0.004964595419776393,0.9953353968545915
2017-03-15,1,0.004026082982331176,0.004580897302348819,-0.0007681786847567598,0.005010773652454286,0.9955603103279116
2017-03-17,1,0.003735141537014257,0.00426480909593067,-0.0023612928690535852,0.005010773652454286,0.995511080368591
2017-03-21,1,0.003981822437934217,0.004589005565961722,-0.001760656913980981,0.005010773652454286,0.9955476755864774
2017-03-23,1,0.0031130411443761746,0.003489736588092726,-0.000711424707312707,0.0037985865774732798,0.9961237917323885
2017-03-27,1,0.003387105313248555,0.0038333915811034555,-0.000711424707312707,0.0037985865774732798,0.9957383548204032
2017-03-29,1,0.002893928370117302,0.0032311324973548043,-0.002042462115048599,0.005010773652454286,0.9937463287084806
2017-03-31,1,0.002785821874249635,0.0031156921743189132,-0.0016382622655810258,0.004756012728772752,0.9940784247748254
2017-04-04,1,0.0035323944899844904,0.004007296368522196,-0.0016382622655810258,0.004270925619901174,0.9940729605959087
2017-04-06,1,0.003576927892783671,0.004043260325965758,-0.0016382622655810258,0.004270925619901174,0.9939471302062273
2017-04-10,1,0.002405453636457024,0.002574157625303188,-0.002042462115048599,0.004270925619901174,0.9938404192917489
2017-04-12,1,0.003176107407301476,0.0034916220614305653,-0.002042462115048599,0.003593872943471337,0.9938974492146813
2017-04-17,1,0.0029301216609949766,0.003254203812345333,-0.0016382622655810258,0.004270925619901174,0.994389600017647
2017-04-19,1,0.0023713036705645275,0.0025770215576224643,-0.0019221350307577114,0.0054934735334100215,0.9934514945788493
2017-04-21,1,0.0025711746734621505,0.002824138997260327,-0.0019221350307577114,0.0054934735334100215,0.993570395230189
2017-04-25,1,0.001705874193619426,0.0017514334826009268,-0.000538097320213942,0.005441365853124576,0.9938014471972791
2017-04-27,1,0.0024697297684916496,0.002550662757703796,0.0006232954697242277,0.007361313248484127,0.9954664533430025
2017-05-01,1,0.0024223710536465624,0.002500518022226077,0.0006232954697242277,0.007743113596166869,0.9947540237221147
2017-05-03,1,0.0024829565500897894,0.002568315638879085,-0.000302481598520178,0.00819367406388146,0.9942800454071231
2017-05-05,1,0.0025649641515618936,0.0026861792300966617,-0.0023424807681231494,0.00819367406388146,0.9939348709339579
2017-05-09,1,0.002519973462178402,0.002634588311403152,-0.0023424807681231494,0.008037351023025125,0.9941972360136457
2017-05-11,1,0.002435491746905269,0.0025326275449755126,-0.0029686156541138455,0.008037351023025125,0.9934406847289137
2017-05-15,1,0.002222201011234681,0.002257862741645927,-0.003683872048946925,0.008676695723087257,0.9918493657758974
2017-05-17,1,0.0017391010939011339,0.001796524450008115,-0.0024717024249933245,0.007361313248484127,0.9930166735671302
2017-05-19,1,0.0017225006750869356,0.0017859291153069917,-0.0024717024249933245,0.008676695723087257,0.9917715944960687
2017-05-23,1,0.0018755254433388123,0.0019342859131228041,-0.0024717024249933245,0.00834700305568996,0.9919656335844695
2017-05-25,1,0.0024464462468638134,0.0024497985694832414,-0.0024717024249933245,0.01075244107579352,0.9918846407903524
2017-05-30,1,0.0024528053507528523,0.0024633050601252666,-0.003683872048946925,0.006779013200521455,0.9921034850212223
2017-06-01,1,0.0028316233403376093,0.0029213934450181157,-0.004688902901691115,0.004037348208325883,0.991962372120899
2017-06-05,1,0.0027014847504279703,0.0028108914298558057,-0.004805601659024581,0.005735321182099564,0.9920568704648771
2017-06-07,1,0.002458089659203458,0.002523408802747868,-0.0053457428968699625,0.006687900738127684,0.9915513288722922
2017-06-09,1,0.001716086000278129,0.001750848600187586,-0.004805601659024581,0.008178694539016835,0.9917715176322718
2017-06-13,1,0.0007824695259023035,0.0009313907460111641,-0.0032887449913212258,0.008178694539016835,0.9933339219221368
2017-06-15,1,0.000248897246415592,0.0004897559557391075,-0.0032887449913212258,0.009604218918410306,0.9927738080147971
2017-06-19,1,0.0011179892764768,0.0012637532601525467,-0.0032887449913212258,0.008178694539016835,0.9941514746667381
2017-06-21,1,0.0016003890766383417,0.0016607749378739689,-0.0032887449913212258,0.00934329021050865,0.9938493340803793
2017-06-23,1,0.0023216993524520016,0.0023929375549715977,-0.004805601659024581,0.006687900738127684,0.9942332310400339
2017-06-27,1,0.0018692998190279185,0.0018697827581376503,-0.005183874738686854,0.006687900738127684,0.9936550104885107
2017-06-29,1,0.001342483121127456,0.0014009752141171915,-0.005183874738686854,0.006687900738127684,0.9935342607363477
2017-07-03,1,0.0011267697944124277,0.0012192522429286417,-0.00455476942219218,0.006297967406910792,0.9937227020507272
2017-07-06,1,0.0011433367513664448,0.001222236922400546,-0.00455476942219218,0.005190716953410248,0.9934894708910792
2017-07-10,1,0.0011150545123055525,0.00120691633155352,-0.00455476942219218,0.004897142094600609,0.9937300218934619
2017-07-12,1,0.001522686699897927,0.0015548916497517894,-0.00455476942219218,0.004897142094600609,0.9938724026681051
2017-07-14,1,0.0019779172955982655,0.0020169191976794915,-0.00534105910055335,0.004068827810903365,0.9940136017709124
2017-07-18,1,0.001923227772973318,0.0019636182279906007,-0.00534105910055335,0.004997425411107063,0.993602712678881
2017-07-20,1,0.002201808656028664,0.0022722529112151483,-0.006602133704163008,0.004905810242496995,0.9931832203059446
2017-07-24,1,0.0020680480019069926,0.002145506817470538,-0.006073859980977515,0.004905810242496995,0.9935176172893876
2017-07-26,1,0.0008515936787222371,0.0009447434161653433,-0.004378678181130349,0.005216721397099408,0.9934722605747934
2017-07-28,1,0.00037953327864290084,0.0005278917444556454,-0.002907921998646107,0.004905810242496995,0.9943338605777484
2017-08-01,1,0.0006342038383049075,0.000717891358802967,-0.0028116105667577536,0.004905810242496995,0.994448092098073
2017-08-03,0,-0.0001561204130325894,1.9239795740088022e-05,-0.0007518028323877515,0.005396914756797225,0.9948758889523193
2017-08-07,-1,-0.00029616091390257597,-9.470080230366954e-05,-0.0003264086531319943,0.005396914756797225,0.9949983188360902
2017-08-09,-1,-0.0005177684528659302,-0.00026701712816608965,-0.00020086468515322634,0.005850938607296982,0.9946365540557058
2017-08-11,-1,-0.0009275606254074301,-0.0006128230053502652,0.0006165640904894868,0.0075285847120989385,0.9935986582836915
2017-08-15,-1,-0.0003840330666272353,-0.00013686397464557994,-0.00020086468515322634,0.007044085616814972,0.9942714732937515
2017-08-17,-1,-0.000511132192534031,-0.0002475430281659172,-0.0011081838807811984,0.005972068176831599,0.994660863106329
2017-08-21,-1,-0.0004618912669917684,-0.00020410572885124368,-0.0024496034494953614,0.005972068176831599,0.9944609909474258
2017-08-23,-1,-0.0005052962195001847,-0.00023167905833496732,-0.0024496034494953614,0.005511308493106495,0.9949635255685129
2017-08-25,-1,-0.0004426199423477842,-0.00019020020106243142,-0.0039206227718065825,0.005511308493106495,0.99436947402017
2017-08-29,-1,-0.0006390857944977597,-0.0003621563207720412,-0.003990164233002956,0.005511308493106495,0.9944515776834318
2017-08-31,-1,-0.00030994054816398206,-7.667664645493962e-05,-0.003990164233002956,0.005511308493106495,0.9945663694929375
2017-09-05,0,-0.00012854627909055535,6.597113010077679e-05,-0.004493718044766274,0.005855061769135208,0.9939917277628317
